(.../ulps/pcbgcode/3.6.3/pcb-gcode.ulp)
(Copyright 2005 - 2012 by John Johnson)
(See readme.txt for licensing terms.)
(This file generated from the board:)
(.../projects/rotor/eagle/rotor.brd)
(Current profile is .../pcbgcode/3.6.3/profiles/generic.pp  )
(This file generated 3/3/23 7:45 PM)
(Settings from pcb-machine.h)
(spindle on time = 3.0000)
(spindle speed = 10000.0000)
(tool change at 0.0000 0.0000 10.0000 )
(feed rate xy = F0.00  )
(feed rate z  = F50.00 )
(Z Axis Settings)
(  High     Up        Down     Drill)
(12.7000 	1.2700 	-0.1250 	-1.7000 )
(Settings from pcb-defaults.h)
(isolate min = 0.0254)
(isolate max = 0.4080)
(isolate step = 0.1700)
(Generated top outlines, bottom outlines, bottom drill, )
(Unit of measure: mm)
(Beginning of every file)
(Beginning of every bottom file)
(Beginning of All Drill files)
(Bottom Drill Begin)
( Tool|       Size       |  Min Sub |  Max Sub |   Count )
( T01  0.350mm 0.0138in 0.0000in 0.0000in )
( T02  0.813mm 0.0320in 0.0000in 0.0000in )
( T03  1.000mm 0.0394in 0.0000in 0.0000in )
( T04  1.016mm 0.0400in 0.0000in 0.0000in )
( T05  1.600mm 0.0630in 0.0000in 0.0000in )
( T06  2.500mm 0.0984in 0.0000in 0.0000in )
( T07  3.000mm 0.1181in 0.0000in 0.0000in )
(Metric Mode)
G21
(Absolute Coordinates)
G90
S10000
G00 Z12.7000 
G00 X0.0000 Y0.0000 
M03
G04 P3.000000
(Tool Change Begin)
(Bottom Tool Change Begin)
M05
G00 Z10.0000 
M06 T01  ; 0.3500 
(Bottom Tool changed)
(Tool changed)
(Tool zero begin)
(Bottom Tool zero begin)
G01 Z0.0000 F50.00 
M06 
(Bottom Tool zero end)
(Tool zero end)
G00 Z1.2700 
M03
G04 P3.000000
(Bottom Tool Change End)
(Tool Change End)
G00 X2.5400 Y-43.1800 
G01 Z-1.7000 F50.00 
G00 Z1.2700 
G00 X5.0800 Y-43.1800 
G01 Z-1.7000 F50.00 
G00 Z1.2700 
G00 X5.0800 Y-48.2600 
G01 Z-1.7000 F50.00 
G00 Z1.2700 
G00 X6.3500 Y-50.8000 
G01 Z-1.7000 F50.00 
G00 Z1.2700 
G00 X6.3500 Y-55.8800 
G01 Z-1.7000 F50.00 
G00 Z1.2700 
G00 X10.1600 Y-64.7700 
G01 Z-1.7000 F50.00 
G00 Z1.2700 
G00 X12.7000 Y-67.3100 
G01 Z-1.7000 F50.00 
G00 Z1.2700 
G00 X15.2400 Y-67.3100 
G01 Z-1.7000 F50.00 
G00 Z1.2700 
G00 X20.3200 Y-67.3100 
G01 Z-1.7000 F50.00 
G00 Z1.2700 
G00 X22.8600 Y-67.3100 
G01 Z-1.7000 F50.00 
G00 Z1.2700 
G00 X25.4000 Y-67.3100 
G01 Z-1.7000 F50.00 
G00 Z1.2700 
G00 X27.9400 Y-67.3100 
G01 Z-1.7000 F50.00 
G00 Z1.2700 
G00 X30.4800 Y-67.3100 
G01 Z-1.7000 F50.00 
G00 Z1.2700 
G00 X38.1000 Y-67.3100 
G01 Z-1.7000 F50.00 
G00 Z1.2700 
G00 X36.8300 Y-58.4200 
G01 Z-1.7000 F50.00 
G00 Z1.2700 
G00 X31.7500 Y-55.8800 
G01 Z-1.7000 F50.00 
G00 Z1.2700 
G00 X31.7500 Y-53.3400 
G01 Z-1.7000 F50.00 
G00 Z1.2700 
G00 X31.7500 Y-50.8000 
G01 Z-1.7000 F50.00 
G00 Z1.2700 
G00 X31.7500 Y-48.2600 
G01 Z-1.7000 F50.00 
G00 Z1.2700 
G00 X31.7500 Y-45.7200 
G01 Z-1.7000 F50.00 
G00 Z1.2700 
G00 X31.7500 Y-43.1800 
G01 Z-1.7000 F50.00 
G00 Z1.2700 
G00 X26.6700 Y-45.7200 
G01 Z-1.7000 F50.00 
G00 Z1.2700 
G00 X26.6700 Y-48.2600 
G01 Z-1.7000 F50.00 
G00 Z1.2700 
G00 X26.6700 Y-50.8000 
G01 Z-1.7000 F50.00 
G00 Z1.2700 
G00 X26.6700 Y-53.3400 
G01 Z-1.7000 F50.00 
G00 Z1.2700 
G00 X26.6700 Y-55.8800 
G01 Z-1.7000 F50.00 
G00 Z1.2700 
G00 X16.5100 Y-55.8800 
G01 Z-1.7000 F50.00 
G00 Z1.2700 
G00 X15.8750 Y-38.1000 
G01 Z-1.7000 F50.00 
G00 Z1.2700 
G00 X16.5100 Y-30.1600 
G01 Z-1.7000 F50.00 
G00 Z1.2700 
G00 X27.9400 Y-30.4800 
G01 Z-1.7000 F50.00 
G00 Z1.2700 
G00 X30.4800 Y-30.4800 
G01 Z-1.7000 F50.00 
G00 Z1.2700 
G00 X33.0200 Y-30.4800 
G01 Z-1.7000 F50.00 
G00 Z1.2700 
G00 X35.5600 Y-30.4800 
G01 Z-1.7000 F50.00 
G00 Z1.2700 
G00 X35.5600 Y-22.8600 
G01 Z-1.7000 F50.00 
G00 Z1.2700 
G00 X30.4800 Y-13.9700 
G01 Z-1.7000 F50.00 
G00 Z1.2700 
G00 X27.9400 Y-13.9700 
G01 Z-1.7000 F50.00 
G00 Z1.2700 
G00 X16.5100 Y-16.5100 
G01 Z-1.7000 F50.00 
G00 Z1.2700 
G00 X15.2400 Y-2.5400 
G01 Z-1.7000 F50.00 
G00 Z1.2700 
G00 X3.8100 Y-25.4000 
G01 Z-1.7000 F50.00 
G00 Z1.2700 
G00 X35.5600 Y-38.1000 
G01 Z-1.7000 F50.00 
G00 Z1.2700 
G00 X44.4500 Y-45.7200 
G01 Z-1.7000 F50.00 
G00 Z1.2700 
G00 X46.9900 Y-45.7200 
G01 Z-1.7000 F50.00 
G00 Z1.2700 
G00 X52.0700 Y-43.1800 
G01 Z-1.7000 F50.00 
G00 Z1.2700 
G00 X54.6100 Y-35.5600 
G01 Z-1.7000 F50.00 
G00 Z1.2700 
G00 X59.4995 Y-26.4795 
G01 Z-1.7000 F50.00 
G00 Z1.2700 
G00 X48.2600 Y-21.5900 
G01 Z-1.7000 F50.00 
G00 Z1.2700 
G00 X48.2600 Y-17.7800 
G01 Z-1.7000 F50.00 
G00 Z1.2700 
G00 X41.9100 Y-49.5300 
G01 Z-1.7000 F50.00 
G00 Z1.2700 
G00 X46.9900 Y-52.0700 
G01 Z-1.7000 F50.00 
G00 Z1.2700 
G00 X48.2600 Y-57.1500 
G01 Z-1.7000 F50.00 
G00 Z1.2700 
G00 X52.0700 Y-54.6100 
G01 Z-1.7000 F50.00 
G00 Z1.2700 
G00 X58.4200 Y-53.3400 
G01 Z-1.7000 F50.00 
G00 Z1.2700 
G00 X68.5800 Y-50.8000 
G01 Z-1.7000 F50.00 
G00 Z1.2700 
G00 X69.8500 Y-48.2600 
G01 Z-1.7000 F50.00 
G00 Z1.2700 
G00 X67.3100 Y-59.6900 
G01 Z-1.7000 F50.00 
G00 Z1.2700 
G00 X67.3100 Y-62.2300 
G01 Z-1.7000 F50.00 
G00 Z1.2700 
G00 X62.2300 Y-69.8500 
G01 Z-1.7000 F50.00 
G00 Z1.2700 
G00 X52.0700 Y-74.9300 
G01 Z-1.7000 F50.00 
G00 Z1.2700 
G00 X13.9700 Y-74.9300 
G01 Z-1.7000 F50.00 
G00 Z1.2700 
(Tool Change Begin)
(Bottom Tool Change Begin)
M05
G00 Z10.0000 
G00 X0.0000 Y0.0000 
M06 T02  ; 0.8128 
(Bottom Tool changed)
(Tool changed)
(Tool zero begin)
(Bottom Tool zero begin)
G01 Z0.0000 F50.00 
M06 
(Bottom Tool zero end)
(Tool zero end)
G00 Z1.2700 
M03
G04 P3.000000
(Bottom Tool Change End)
(Tool Change End)
G00 X35.5600 Y-26.6700 
G01 Z-1.7000 F50.00 
G00 Z1.2700 
G00 X38.1000 Y-26.6700 
G01 Z-1.7000 F50.00 
G00 Z1.2700 
G00 X40.6400 Y-26.6700 
G01 Z-1.7000 F50.00 
G00 Z1.2700 
G00 X45.7200 Y-24.1300 
G01 Z-1.7000 F50.00 
G00 Z1.2700 
G00 X45.7200 Y-21.5900 
G01 Z-1.7000 F50.00 
G00 Z1.2700 
G00 X45.7200 Y-19.0500 
G01 Z-1.7000 F50.00 
G00 Z1.2700 
G00 X58.4200 Y-49.5300 
G01 Z-1.7000 F50.00 
G00 Z1.2700 
G00 X66.0400 Y-49.5300 
G01 Z-1.7000 F50.00 
G00 Z1.2700 
G00 X64.7700 Y-58.4200 
G01 Z-1.7000 F50.00 
G00 Z1.2700 
G00 X64.7700 Y-66.0400 
G01 Z-1.7000 F50.00 
G00 Z1.2700 
(Tool Change Begin)
(Bottom Tool Change Begin)
M05
G00 Z10.0000 
G00 X0.0000 Y0.0000 
M06 T03  ; 1.0000 
(Bottom Tool changed)
(Tool changed)
(Tool zero begin)
(Bottom Tool zero begin)
G01 Z0.0000 F50.00 
M06 
(Bottom Tool zero end)
(Tool zero end)
G00 Z1.2700 
M03
G04 P3.000000
(Bottom Tool Change End)
(Tool Change End)
G00 X54.9275 Y-38.1000 
G01 Z-1.7000 F50.00 
G00 Z1.2700 
G00 X54.9275 Y-40.6400 
G01 Z-1.7000 F50.00 
G00 Z1.2700 
G00 X54.9275 Y-43.1800 
G01 Z-1.7000 F50.00 
G00 Z1.2700 
G00 X54.9275 Y-45.7200 
G01 Z-1.7000 F50.00 
G00 Z1.2700 
G00 X54.9275 Y-48.2600 
G01 Z-1.7000 F50.00 
G00 Z1.2700 
G00 X54.9275 Y-50.8000 
G01 Z-1.7000 F50.00 
G00 Z1.2700 
G00 X54.9275 Y-53.3400 
G01 Z-1.7000 F50.00 
G00 Z1.2700 
G00 X54.9275 Y-55.8800 
G01 Z-1.7000 F50.00 
G00 Z1.2700 
G00 X54.9275 Y-58.4200 
G01 Z-1.7000 F50.00 
G00 Z1.2700 
G00 X54.9275 Y-60.9600 
G01 Z-1.7000 F50.00 
G00 Z1.2700 
(Tool Change Begin)
(Bottom Tool Change Begin)
M05
G00 Z10.0000 
G00 X0.0000 Y0.0000 
M06 T04  ; 1.0160 
(Bottom Tool changed)
(Tool changed)
(Tool zero begin)
(Bottom Tool zero begin)
G01 Z0.0000 F50.00 
M06 
(Bottom Tool zero end)
(Tool zero end)
G00 Z1.2700 
M03
G04 P3.000000
(Bottom Tool Change End)
(Tool Change End)
G00 X10.1490 Y-12.6670 
G01 Z-1.7000 F50.00 
G00 Z1.2700 
G00 X10.1490 Y-15.2070 
G01 Z-1.7000 F50.00 
G00 Z1.2700 
G00 X10.1490 Y-17.7470 
G01 Z-1.7000 F50.00 
G00 Z1.2700 
G00 X10.1490 Y-20.2870 
G01 Z-1.7000 F50.00 
G00 Z1.2700 
G00 X12.6890 Y-20.2870 
G01 Z-1.7000 F50.00 
G00 Z1.2700 
G00 X12.6890 Y-17.7470 
G01 Z-1.7000 F50.00 
G00 Z1.2700 
G00 X12.6890 Y-15.2070 
G01 Z-1.7000 F50.00 
G00 Z1.2700 
G00 X12.6890 Y-12.6670 
G01 Z-1.7000 F50.00 
G00 Z1.2700 
G00 X12.6890 Y-22.8270 
G01 Z-1.7000 F50.00 
G00 Z1.2700 
G00 X12.6890 Y-25.3670 
G01 Z-1.7000 F50.00 
G00 Z1.2700 
G00 X12.6890 Y-27.9070 
G01 Z-1.7000 F50.00 
G00 Z1.2700 
G00 X12.6890 Y-30.4470 
G01 Z-1.7000 F50.00 
G00 Z1.2700 
G00 X10.1490 Y-30.4470 
G01 Z-1.7000 F50.00 
G00 Z1.2700 
G00 X10.1490 Y-27.9070 
G01 Z-1.7000 F50.00 
G00 Z1.2700 
G00 X10.1490 Y-25.3670 
G01 Z-1.7000 F50.00 
G00 Z1.2700 
G00 X10.1490 Y-22.8270 
G01 Z-1.7000 F50.00 
G00 Z1.2700 
G00 X10.1490 Y-32.9870 
G01 Z-1.7000 F50.00 
G00 Z1.2700 
G00 X10.1490 Y-35.5270 
G01 Z-1.7000 F50.00 
G00 Z1.2700 
G00 X10.1490 Y-38.0670 
G01 Z-1.7000 F50.00 
G00 Z1.2700 
G00 X10.1490 Y-40.6070 
G01 Z-1.7000 F50.00 
G00 Z1.2700 
G00 X10.1490 Y-43.1470 
G01 Z-1.7000 F50.00 
G00 Z1.2700 
G00 X10.1490 Y-45.6870 
G01 Z-1.7000 F50.00 
G00 Z1.2700 
G00 X10.1490 Y-48.2270 
G01 Z-1.7000 F50.00 
G00 Z1.2700 
G00 X12.6890 Y-48.2270 
G01 Z-1.7000 F50.00 
G00 Z1.2700 
G00 X12.6890 Y-45.6870 
G01 Z-1.7000 F50.00 
G00 Z1.2700 
G00 X12.6890 Y-43.1470 
G01 Z-1.7000 F50.00 
G00 Z1.2700 
G00 X12.6890 Y-40.6070 
G01 Z-1.7000 F50.00 
G00 Z1.2700 
G00 X12.6890 Y-38.0670 
G01 Z-1.7000 F50.00 
G00 Z1.2700 
G00 X12.6890 Y-35.5270 
G01 Z-1.7000 F50.00 
G00 Z1.2700 
G00 X12.6890 Y-32.9870 
G01 Z-1.7000 F50.00 
G00 Z1.2700 
G00 X12.6890 Y-50.7670 
G01 Z-1.7000 F50.00 
G00 Z1.2700 
G00 X12.6890 Y-53.3070 
G01 Z-1.7000 F50.00 
G00 Z1.2700 
G00 X12.6890 Y-55.8470 
G01 Z-1.7000 F50.00 
G00 Z1.2700 
G00 X12.6890 Y-58.3870 
G01 Z-1.7000 F50.00 
G00 Z1.2700 
G00 X12.6890 Y-60.9270 
G01 Z-1.7000 F50.00 
G00 Z1.2700 
G00 X10.1490 Y-60.9270 
G01 Z-1.7000 F50.00 
G00 Z1.2700 
G00 X10.1490 Y-58.3870 
G01 Z-1.7000 F50.00 
G00 Z1.2700 
G00 X10.1490 Y-55.8470 
G01 Z-1.7000 F50.00 
G00 Z1.2700 
G00 X10.1490 Y-53.3070 
G01 Z-1.7000 F50.00 
G00 Z1.2700 
G00 X10.1490 Y-50.7670 
G01 Z-1.7000 F50.00 
G00 Z1.2700 
G00 X29.2100 Y-50.8000 
G01 Z-1.7000 F50.00 
G00 Z1.2700 
G00 X29.2100 Y-48.2600 
G01 Z-1.7000 F50.00 
G00 Z1.2700 
G00 X29.2100 Y-45.7200 
G01 Z-1.7000 F50.00 
G00 Z1.2700 
G00 X29.2100 Y-43.1800 
G01 Z-1.7000 F50.00 
G00 Z1.2700 
G00 X29.2100 Y-53.3400 
G01 Z-1.7000 F50.00 
G00 Z1.2700 
G00 X29.2100 Y-55.8800 
G01 Z-1.7000 F50.00 
G00 Z1.2700 
G00 X41.9100 Y-43.1800 
G01 Z-1.7000 F50.00 
G00 Z1.2700 
G00 X41.9100 Y-40.6400 
G01 Z-1.7000 F50.00 
G00 Z1.2700 
G00 X41.9100 Y-38.1000 
G01 Z-1.7000 F50.00 
G00 Z1.2700 
G00 X44.4500 Y-38.1000 
G01 Z-1.7000 F50.00 
G00 Z1.2700 
G00 X44.4500 Y-40.6400 
G01 Z-1.7000 F50.00 
G00 Z1.2700 
G00 X44.4500 Y-43.1800 
G01 Z-1.7000 F50.00 
G00 Z1.2700 
G00 X52.0700 Y-31.7500 
G01 Z-1.7000 F50.00 
G00 Z1.2700 
G00 X54.6100 Y-31.7500 
G01 Z-1.7000 F50.00 
G00 Z1.2700 
G00 X48.2600 Y-74.9300 
G01 Z-1.7000 F50.00 
G00 Z1.2700 
G00 X45.7200 Y-74.9300 
G01 Z-1.7000 F50.00 
G00 Z1.2700 
G00 X43.1800 Y-74.9300 
G01 Z-1.7000 F50.00 
G00 Z1.2700 
(Tool Change Begin)
(Bottom Tool Change Begin)
M05
G00 Z10.0000 
G00 X0.0000 Y0.0000 
M06 T05  ; 1.6000 
(Bottom Tool changed)
(Tool changed)
(Tool zero begin)
(Bottom Tool zero begin)
G01 Z0.0000 F50.00 
M06 
(Bottom Tool zero end)
(Tool zero end)
G00 Z1.2700 
M03
G04 P3.000000
(Bottom Tool Change End)
(Tool Change End)
G00 X20.3200 Y-5.0800 
G01 Z-1.7000 F50.00 
G00 Z1.2700 
G00 X25.4000 Y-5.0800 
G01 Z-1.7000 F50.00 
G00 Z1.2700 
G00 X30.4800 Y-5.0800 
G01 Z-1.7000 F50.00 
G00 Z1.2700 
G00 X35.5600 Y-5.0800 
G01 Z-1.7000 F50.00 
G00 Z1.2700 
G00 X40.6400 Y-5.0800 
G01 Z-1.7000 F50.00 
G00 Z1.2700 
G00 X45.7200 Y-5.0800 
G01 Z-1.7000 F50.00 
G00 Z1.2700 
G00 X50.8000 Y-5.0800 
G01 Z-1.7000 F50.00 
G00 Z1.2700 
G00 X55.8800 Y-5.0800 
G01 Z-1.7000 F50.00 
G00 Z1.2700 
G00 X60.9600 Y-5.0800 
G01 Z-1.7000 F50.00 
G00 Z1.2700 
G00 X67.3100 Y-17.7800 
G01 Z-1.7000 F50.00 
G00 Z1.2700 
G00 X67.3100 Y-22.8600 
G01 Z-1.7000 F50.00 
G00 Z1.2700 
G00 X67.3100 Y-27.9400 
G01 Z-1.7000 F50.00 
G00 Z1.2700 
G00 X67.3100 Y-33.0200 
G01 Z-1.7000 F50.00 
G00 Z1.2700 
G00 X67.3100 Y-38.1000 
G01 Z-1.7000 F50.00 
G00 Z1.2700 
G00 X67.3100 Y-43.1800 
G01 Z-1.7000 F50.00 
G00 Z1.2700 
G00 X30.4800 Y-74.9300 
G01 Z-1.7000 F50.00 
G00 Z1.2700 
G00 X25.4000 Y-74.9300 
G01 Z-1.7000 F50.00 
G00 Z1.2700 
G00 X20.3200 Y-74.9300 
G01 Z-1.7000 F50.00 
G00 Z1.2700 
(Tool Change Begin)
(Bottom Tool Change Begin)
M05
G00 Z10.0000 
G00 X0.0000 Y0.0000 
M06 T06  ; 2.5000 
(Bottom Tool changed)
(Tool changed)
(Tool zero begin)
(Bottom Tool zero begin)
G01 Z0.0000 F50.00 
M06 
(Bottom Tool zero end)
(Tool zero end)
G00 Z1.2700 
M03
G04 P3.000000
(Bottom Tool Change End)
(Tool Change End)
G00 X49.8475 Y-39.3700 
G01 Z-1.7000 F50.00 
G00 Z1.2700 
G00 X49.8475 Y-59.6900 
G01 Z-1.7000 F50.00 
G00 Z1.2700 
(Tool Change Begin)
(Bottom Tool Change Begin)
M05
G00 Z10.0000 
G00 X0.0000 Y0.0000 
M06 T07  ; 3.0000 
(Bottom Tool changed)
(Tool changed)
(Tool zero begin)
(Bottom Tool zero begin)
G01 Z0.0000 F50.00 
M06 
(Bottom Tool zero end)
(Tool zero end)
G00 Z1.2700 
M03
G04 P3.000000
(Bottom Tool Change End)
(Tool Change End)
G00 X3.8100 Y-3.8100 
G01 Z-1.7000 F50.00 
G00 Z1.2700 
G00 X68.5800 Y-3.8100 
G01 Z-1.7000 F50.00 
G00 Z1.2700 
G00 X68.5800 Y-76.2000 
G01 Z-1.7000 F50.00 
G00 Z1.2700 
G00 X3.8100 Y-76.2000 
G01 Z-1.7000 F50.00 
G00 Z1.2700 
(Bottom Drill End)
(End of all Drill Files)
(End of every bottom file)
(End of every file)
T01 
G00 Z12.7000 
M05
M02
