(.../ulps/pcbgcode/3.6.3/pcb-gcode.ulp)
(Copyright 2005 - 2012 by John Johnson)
(See readme.txt for licensing terms.)
(This file generated from the board:)
(.../wryan/projects/rotor/eagle/hat.brd)
(Current profile is .../pcbgcode/3.6.3/profiles/generic.pp  )
(This file generated 3/5/23 3:00 PM)
(Settings from pcb-machine.h)
(spindle on time = 3.0000)
(spindle speed = 10000.0000)
(tool change at 0.0000 0.0000 10.0000 )
(feed rate xy = F0.00  )
(feed rate z  = F50.00 )
(Z Axis Settings)
(  High     Up        Down     Drill)
(12.7000 	1.2700 	-0.1250 	-1.7000 )
(Settings from pcb-defaults.h)
(isolate min = 0.0254)
(isolate max = 0.4080)
(isolate step = 0.1700)
(Generated top outlines, bottom outlines, bottom drill, )
(Unit of measure: mm)
(Beginning of every file)
(Beginning of every bottom file)
(Beginning of All Drill files)
(Bottom Drill Begin)
( Tool|       Size       |  Min Sub |  Max Sub |   Count )
( T01  0.350mm 0.0138in 0.0000in 0.0000in )
( T02  1.016mm 0.0400in 0.0000in 0.0000in )
( T03  3.000mm 0.1181in 0.0000in 0.0000in )
(Metric Mode)
G21
(Absolute Coordinates)
G90
S10000
G00 Z12.7000 
G00 X0.0000 Y0.0000 
M03
G04 P3.000000
(Tool Change Begin)
(Bottom Tool Change Begin)
M05
G00 Z10.0000 
M06 T01  ; 0.3500 
(Bottom Tool changed)
(Tool changed)
(Tool zero begin)
(Bottom Tool zero begin)
G01 Z0.0000 F50.00 
M06 
(Bottom Tool zero end)
(Tool zero end)
G00 Z1.2700 
M03
G04 P3.000000
(Bottom Tool Change End)
(Tool Change End)
G00 X19.0500 Y-10.1600 
G01 Z-1.7000 F50.00 
G00 Z1.2700 
G00 X26.6700 Y-10.1600 
G01 Z-1.7000 F50.00 
G00 Z1.2700 
G00 X29.2100 Y-12.7000 
G01 Z-1.7000 F50.00 
G00 Z1.2700 
G00 X29.2100 Y-17.7800 
G01 Z-1.7000 F50.00 
G00 Z1.2700 
G00 X39.3700 Y-15.2400 
G01 Z-1.7000 F50.00 
G00 Z1.2700 
G00 X44.4500 Y-15.2400 
G01 Z-1.7000 F50.00 
G00 Z1.2700 
G00 X44.4500 Y-27.9400 
G01 Z-1.7000 F50.00 
G00 Z1.2700 
G00 X46.9900 Y-30.4800 
G01 Z-1.7000 F50.00 
G00 Z1.2700 
G00 X55.8800 Y-27.9400 
G01 Z-1.7000 F50.00 
G00 Z1.2700 
G00 X58.4200 Y-15.2400 
G01 Z-1.7000 F50.00 
G00 Z1.2700 
G00 X60.9600 Y-3.8100 
G01 Z-1.7000 F50.00 
G00 Z1.2700 
G00 X48.2600 Y-2.7940 
G01 Z-1.7000 F50.00 
G00 Z1.2700 
G00 X71.1200 Y-12.7000 
G01 Z-1.7000 F50.00 
G00 Z1.2700 
G00 X73.6600 Y-15.2400 
G01 Z-1.7000 F50.00 
G00 Z1.2700 
G00 X71.1200 Y-27.9400 
G01 Z-1.7000 F50.00 
G00 Z1.2700 
G00 X24.1300 Y-27.9400 
G01 Z-1.7000 F50.00 
G00 Z1.2700 
(Tool Change Begin)
(Bottom Tool Change Begin)
M05
G00 Z10.0000 
G00 X0.0000 Y0.0000 
M06 T02  ; 1.0160 
(Bottom Tool changed)
(Tool changed)
(Tool zero begin)
(Bottom Tool zero begin)
G01 Z0.0000 F50.00 
M06 
(Bottom Tool zero end)
(Tool zero end)
G00 Z1.2700 
M03
G04 P3.000000
(Bottom Tool Change End)
(Tool Change End)
G00 X19.0830 Y-21.5790 
G01 Z-1.7000 F50.00 
G00 Z1.2700 
G00 X19.0830 Y-24.1190 
G01 Z-1.7000 F50.00 
G00 Z1.2700 
G00 X21.6230 Y-24.1190 
G01 Z-1.7000 F50.00 
G00 Z1.2700 
G00 X21.6230 Y-21.5790 
G01 Z-1.7000 F50.00 
G00 Z1.2700 
G00 X24.1630 Y-21.5790 
G01 Z-1.7000 F50.00 
G00 Z1.2700 
G00 X24.1630 Y-24.1190 
G01 Z-1.7000 F50.00 
G00 Z1.2700 
G00 X26.7030 Y-24.1190 
G01 Z-1.7000 F50.00 
G00 Z1.2700 
G00 X26.7030 Y-21.5790 
G01 Z-1.7000 F50.00 
G00 Z1.2700 
G00 X29.2430 Y-21.5790 
G01 Z-1.7000 F50.00 
G00 Z1.2700 
G00 X29.2430 Y-24.1190 
G01 Z-1.7000 F50.00 
G00 Z1.2700 
G00 X31.7830 Y-24.1190 
G01 Z-1.7000 F50.00 
G00 Z1.2700 
G00 X31.7830 Y-21.5790 
G01 Z-1.7000 F50.00 
G00 Z1.2700 
G00 X34.3230 Y-21.5790 
G01 Z-1.7000 F50.00 
G00 Z1.2700 
G00 X34.3230 Y-24.1190 
G01 Z-1.7000 F50.00 
G00 Z1.2700 
G00 X36.8630 Y-24.1190 
G01 Z-1.7000 F50.00 
G00 Z1.2700 
G00 X36.8630 Y-21.5790 
G01 Z-1.7000 F50.00 
G00 Z1.2700 
G00 X39.4030 Y-21.5790 
G01 Z-1.7000 F50.00 
G00 Z1.2700 
G00 X39.4030 Y-24.1190 
G01 Z-1.7000 F50.00 
G00 Z1.2700 
G00 X41.9430 Y-24.1190 
G01 Z-1.7000 F50.00 
G00 Z1.2700 
G00 X41.9430 Y-21.5790 
G01 Z-1.7000 F50.00 
G00 Z1.2700 
G00 X44.4830 Y-21.5790 
G01 Z-1.7000 F50.00 
G00 Z1.2700 
G00 X44.4830 Y-24.1190 
G01 Z-1.7000 F50.00 
G00 Z1.2700 
G00 X47.0230 Y-24.1190 
G01 Z-1.7000 F50.00 
G00 Z1.2700 
G00 X47.0230 Y-21.5790 
G01 Z-1.7000 F50.00 
G00 Z1.2700 
G00 X49.5630 Y-21.5790 
G01 Z-1.7000 F50.00 
G00 Z1.2700 
G00 X49.5630 Y-24.1190 
G01 Z-1.7000 F50.00 
G00 Z1.2700 
G00 X52.1030 Y-24.1190 
G01 Z-1.7000 F50.00 
G00 Z1.2700 
G00 X52.1030 Y-21.5790 
G01 Z-1.7000 F50.00 
G00 Z1.2700 
G00 X54.6430 Y-21.5790 
G01 Z-1.7000 F50.00 
G00 Z1.2700 
G00 X54.6430 Y-24.1190 
G01 Z-1.7000 F50.00 
G00 Z1.2700 
G00 X57.1830 Y-24.1190 
G01 Z-1.7000 F50.00 
G00 Z1.2700 
G00 X57.1830 Y-21.5790 
G01 Z-1.7000 F50.00 
G00 Z1.2700 
G00 X59.7230 Y-21.5790 
G01 Z-1.7000 F50.00 
G00 Z1.2700 
G00 X59.7230 Y-24.1190 
G01 Z-1.7000 F50.00 
G00 Z1.2700 
G00 X62.2630 Y-24.1190 
G01 Z-1.7000 F50.00 
G00 Z1.2700 
G00 X62.2630 Y-21.5790 
G01 Z-1.7000 F50.00 
G00 Z1.2700 
G00 X64.8030 Y-21.5790 
G01 Z-1.7000 F50.00 
G00 Z1.2700 
G00 X64.8030 Y-24.1190 
G01 Z-1.7000 F50.00 
G00 Z1.2700 
G00 X67.3430 Y-24.1190 
G01 Z-1.7000 F50.00 
G00 Z1.2700 
G00 X67.3430 Y-21.5790 
G01 Z-1.7000 F50.00 
G00 Z1.2700 
G00 X68.5800 Y-10.1600 
G01 Z-1.7000 F50.00 
G00 Z1.2700 
G00 X66.0400 Y-10.1600 
G01 Z-1.7000 F50.00 
G00 Z1.2700 
G00 X66.0400 Y-7.6200 
G01 Z-1.7000 F50.00 
G00 Z1.2700 
G00 X68.5800 Y-7.6200 
G01 Z-1.7000 F50.00 
G00 Z1.2700 
G00 X63.5000 Y-7.6200 
G01 Z-1.7000 F50.00 
G00 Z1.2700 
G00 X60.9600 Y-7.6200 
G01 Z-1.7000 F50.00 
G00 Z1.2700 
G00 X58.4200 Y-7.6200 
G01 Z-1.7000 F50.00 
G00 Z1.2700 
G00 X55.8800 Y-7.6200 
G01 Z-1.7000 F50.00 
G00 Z1.2700 
G00 X53.3400 Y-7.6200 
G01 Z-1.7000 F50.00 
G00 Z1.2700 
G00 X53.3400 Y-10.1600 
G01 Z-1.7000 F50.00 
G00 Z1.2700 
G00 X55.8800 Y-10.1600 
G01 Z-1.7000 F50.00 
G00 Z1.2700 
G00 X58.4200 Y-10.1600 
G01 Z-1.7000 F50.00 
G00 Z1.2700 
G00 X60.9600 Y-10.1600 
G01 Z-1.7000 F50.00 
G00 Z1.2700 
G00 X63.5000 Y-10.1600 
G01 Z-1.7000 F50.00 
G00 Z1.2700 
G00 X50.8000 Y-10.1600 
G01 Z-1.7000 F50.00 
G00 Z1.2700 
G00 X48.2600 Y-10.1600 
G01 Z-1.7000 F50.00 
G00 Z1.2700 
G00 X45.7200 Y-10.1600 
G01 Z-1.7000 F50.00 
G00 Z1.2700 
G00 X43.1800 Y-10.1600 
G01 Z-1.7000 F50.00 
G00 Z1.2700 
G00 X40.6400 Y-10.1600 
G01 Z-1.7000 F50.00 
G00 Z1.2700 
G00 X38.1000 Y-10.1600 
G01 Z-1.7000 F50.00 
G00 Z1.2700 
G00 X38.1000 Y-7.6200 
G01 Z-1.7000 F50.00 
G00 Z1.2700 
G00 X40.6400 Y-7.6200 
G01 Z-1.7000 F50.00 
G00 Z1.2700 
G00 X43.1800 Y-7.6200 
G01 Z-1.7000 F50.00 
G00 Z1.2700 
G00 X45.7200 Y-7.6200 
G01 Z-1.7000 F50.00 
G00 Z1.2700 
G00 X48.2600 Y-7.6200 
G01 Z-1.7000 F50.00 
G00 Z1.2700 
G00 X50.8000 Y-7.6200 
G01 Z-1.7000 F50.00 
G00 Z1.2700 
(Tool Change Begin)
(Bottom Tool Change Begin)
M05
G00 Z10.0000 
G00 X0.0000 Y0.0000 
M06 T03  ; 3.0000 
(Bottom Tool changed)
(Tool changed)
(Tool zero begin)
(Bottom Tool zero begin)
G01 Z0.0000 F50.00 
M06 
(Bottom Tool zero end)
(Tool zero end)
G00 Z1.2700 
M03
G04 P3.000000
(Bottom Tool Change End)
(Tool Change End)
G00 X3.8100 Y-22.8600 
G01 Z-1.7000 F50.00 
G00 Z1.2700 
G00 X49.5300 Y-16.5100 
G01 Z-1.7000 F50.00 
G00 Z1.2700 
(Bottom Drill End)
(End of all Drill Files)
(End of every bottom file)
(End of every file)
T01 
G00 Z12.7000 
M05
M02
