(.../ulps/pcbgcode/3.6.3/pcb-gcode.ulp)
(Copyright 2005 - 2012 by John Johnson)
(See readme.txt for licensing terms.)
(This file generated from the board:)
(.../projects/rotor/eagle/rotor.brd)
(Current profile is .../pcbgcode/3.6.3/profiles/generic.pp  )
(This file generated 3/4/23 2:48 AM)
(Settings from pcb-machine.h)
(spindle on time = 3.0000)
(  Tool Size)
(0.1400 )
(spindle speed = 10000.0000)
(tool change at 0.0000 0.0000 10.0000 )
(feed rate xy = F500.00 )
(feed rate z  = F250.00 )
(Z Axis Settings)
(  High     Up        Down     Drill)
(12.7000 	1.2700 	-0.1250 	-1.7000 )
(Settings from pcb-defaults.h)
(isolate min = 0.0254)
(isolate max = 0.4080)
(isolate step = 0.1700)
(Generated top outlines, bottom outlines, bottom drill, )
(Unit of measure: mm)
(Beginning of every file)
(Beginning of every bottom file)
(Outline Begin)
(Bottom outline Begin)
(Metric Mode)
G21
(Absolute Coordinates)
G90
S10000
G00 Z12.7000 
G00 X0.0000 Y0.0000 
M03
G04 P3.000000
G00 Z1.2700 
G00 X0.9904 Y-4.7360 
G01 Z-0.1250 F250.00 
G01 X1.0555 Y-4.6710 F500.00 
G01 X1.1351 Y-4.6250 
G01 X1.2240 Y-4.6012 
G01 X1.3160 Y-4.6012 
G01 X1.3388 Y-4.6073 
G01 X1.4049 Y-4.6250 
G01 X1.4845 Y-4.6710 
G01 X1.5496 Y-4.7360 
G01 X1.5956 Y-4.8157 
G01 X1.8730 Y-5.2963 
G01 X2.3237 Y-5.7470 
G01 X2.8757 Y-6.0656 
G01 X3.4913 Y-6.2306 
G01 X4.1287 Y-6.2306 
G01 X4.7443 Y-6.0656 
G01 X5.2963 Y-5.7470 
G01 X5.7470 Y-5.2963 
G01 X6.0656 Y-4.7443 
G01 X6.2306 Y-4.1287 
G01 X6.2306 Y-3.4913 
G01 X6.0656 Y-2.8757 
G01 X5.7470 Y-2.3237 
G01 X5.2963 Y-1.8730 
G01 X4.8157 Y-1.5956 
G01 X4.7360 Y-1.5496 
G01 X4.6791 Y-1.4927 
G01 X4.6710 Y-1.4845 
G01 X4.6250 Y-1.4049 
G01 X4.6097 Y-1.3479 
G01 X4.6012 Y-1.3160 
G01 X4.6012 Y-1.2240 
G01 X4.6250 Y-1.1351 
G01 X4.6710 Y-1.0555 
G01 X4.7279 Y-0.9985 
G01 X4.7360 Y-0.9904 
G01 X4.8157 Y-0.9444 
G01 X4.8726 Y-0.9292 
G01 X4.9046 Y-0.9206 
G01 X11.0217 Y-0.9206 
G01 X11.0446 Y-0.9176 
G01 X11.0676 Y-0.9206 
G01 X11.0906 Y-0.9206 
G01 X11.1130 Y-0.9266 
G01 X11.1359 Y-0.9296 
G01 X11.1572 Y-0.9384 
G01 X11.1795 Y-0.9444 
G01 X11.1995 Y-0.9560 
G01 X11.2209 Y-0.9648 
G01 X11.2392 Y-0.9789 
G01 X11.2592 Y-0.9904 
G01 X11.2755 Y-1.0067 
G01 X11.2938 Y-1.0208 
G01 X11.3079 Y-1.0391 
G01 X11.3242 Y-1.0555 
G01 X11.3358 Y-1.0755 
G01 X11.3498 Y-1.0938 
G01 X11.3587 Y-1.1151 
G01 X11.3702 Y-1.1351 
G01 X11.3762 Y-1.1575 
G01 X11.3850 Y-1.1788 
G01 X11.3881 Y-1.2017 
G01 X11.3940 Y-1.2240 
G01 X11.3940 Y-1.2471 
G01 X11.3971 Y-1.2700 
G01 X11.3940 Y-1.2929 
G01 X11.3940 Y-1.3160 
G01 X11.3881 Y-1.3383 
G01 X11.3850 Y-1.3612 
G01 X11.3762 Y-1.3825 
G01 X11.3702 Y-1.4049 
G01 X11.3587 Y-1.4249 
G01 X11.3498 Y-1.4462 
G01 X11.3358 Y-1.4645 
G01 X11.3242 Y-1.4845 
G01 X11.3079 Y-1.5009 
G01 X11.2938 Y-1.5192 
G01 X11.2755 Y-1.5333 
G01 X11.2592 Y-1.5496 
G01 X11.2392 Y-1.5611 
G01 X11.2209 Y-1.5752 
G01 X11.1995 Y-1.5840 
G01 X11.1795 Y-1.5956 
G01 X11.1572 Y-1.6016 
G01 X10.8797 Y-1.7165 
G01 X10.5899 Y-2.0063 
G01 X10.5248 Y-2.0714 
G01 X4.2565 Y-8.3397 
G01 X4.1086 Y-8.6968 
G01 X4.1086 Y-16.7032 
G01 X4.2565 Y-17.0602 
G01 X4.5464 Y-17.3501 
G01 X4.6114 Y-17.4152 
G01 X10.5899 Y-23.3936 
G01 X10.8797 Y-23.6835 
G01 X11.2368 Y-23.8314 
G01 X11.3349 Y-23.8314 
G01 X11.3577 Y-23.8375 
G01 X11.4238 Y-23.8552 
G01 X11.5034 Y-23.9012 
G01 X11.5685 Y-23.9663 
G01 X11.5873 Y-23.9989 
G01 X11.6145 Y-24.0459 
G01 X11.6383 Y-24.1348 
G01 X11.6383 Y-24.2268 
G01 X11.6322 Y-24.2496 
G01 X11.6145 Y-24.3157 
G01 X11.5685 Y-24.3953 
G01 X11.5034 Y-24.4604 
G01 X11.4348 Y-24.5290 
G01 X11.2096 Y-25.0727 
G01 X11.2096 Y-25.6613 
G01 X11.4348 Y-26.2050 
G01 X11.8510 Y-26.6212 
G01 X11.9279 Y-26.6530 
G01 X11.9502 Y-26.6590 
G01 X11.9702 Y-26.6706 
G01 X11.9916 Y-26.6794 
G01 X12.0099 Y-26.6935 
G01 X12.0299 Y-26.7050 
G01 X12.0462 Y-26.7213 
G01 X12.0645 Y-26.7354 
G01 X12.0786 Y-26.7537 
G01 X12.0949 Y-26.7701 
G01 X12.1065 Y-26.7901 
G01 X12.1205 Y-26.8084 
G01 X12.1294 Y-26.8297 
G01 X12.1409 Y-26.8497 
G01 X12.1469 Y-26.8721 
G01 X12.1558 Y-26.8934 
G01 X12.1588 Y-26.9163 
G01 X12.1647 Y-26.9386 
G01 X12.1647 Y-26.9617 
G01 X12.1678 Y-26.9846 
G01 X12.1647 Y-27.0075 
G01 X12.1647 Y-27.0306 
G01 X12.1588 Y-27.0529 
G01 X12.1558 Y-27.0758 
G01 X12.1469 Y-27.0971 
G01 X12.1409 Y-27.1195 
G01 X12.1294 Y-27.1395 
G01 X12.1205 Y-27.1608 
G01 X12.1065 Y-27.1791 
G01 X12.0949 Y-27.1991 
G01 X12.0786 Y-27.2155 
G01 X12.0645 Y-27.2338 
G01 X12.0462 Y-27.2478 
G01 X11.9868 Y-27.3073 
G01 X11.9016 Y-27.4245 
G01 X11.8358 Y-27.5536 
G01 X11.8346 Y-27.5576 
G01 X11.9057 Y-27.5576 
G01 X11.9292 Y-27.5009 
G01 X12.0230 Y-27.3604 
G01 X12.1424 Y-27.2410 
G01 X12.2829 Y-27.1472 
G01 X12.4389 Y-27.0826 
G01 X12.6045 Y-27.0496 
G01 X12.7734 Y-27.0496 
G01 X12.9391 Y-27.0826 
G01 X13.0951 Y-27.1472 
G01 X13.2356 Y-27.2410 
G01 X13.3550 Y-27.3604 
G01 X13.4488 Y-27.5009 
G01 X13.5134 Y-27.6569 
G01 X13.5464 Y-27.8225 
G01 X13.5464 Y-27.9914 
G01 X13.5134 Y-28.1571 
G01 X13.4488 Y-28.3131 
G01 X13.3550 Y-28.4536 
G01 X13.2356 Y-28.5730 
G01 X13.0951 Y-28.6668 
G01 X12.9391 Y-28.7314 
G01 X12.7734 Y-28.7644 
G01 X12.6045 Y-28.7644 
G01 X12.4389 Y-28.7314 
G01 X12.2829 Y-28.6668 
G01 X12.1424 Y-28.5730 
G01 X12.0230 Y-28.4536 
G01 X11.9292 Y-28.3131 
G01 X11.9057 Y-28.2564 
G01 X11.8346 Y-28.2564 
G01 X11.8358 Y-28.2604 
G01 X11.9016 Y-28.3895 
G01 X11.9868 Y-28.5067 
G01 X12.0462 Y-28.5661 
G01 X12.0645 Y-28.5802 
G01 X12.0786 Y-28.5985 
G01 X12.0949 Y-28.6149 
G01 X12.1065 Y-28.6349 
G01 X12.1205 Y-28.6532 
G01 X12.1294 Y-28.6745 
G01 X12.1409 Y-28.6945 
G01 X12.1469 Y-28.7169 
G01 X12.1558 Y-28.7382 
G01 X12.1588 Y-28.7611 
G01 X12.1647 Y-28.7834 
G01 X12.1647 Y-28.8065 
G01 X12.1678 Y-28.8294 
G01 X12.1647 Y-28.8523 
G01 X12.1647 Y-28.8754 
G01 X12.1588 Y-28.8977 
G01 X12.1558 Y-28.9206 
G01 X12.1469 Y-28.9419 
G01 X12.1409 Y-28.9643 
G01 X12.1294 Y-28.9843 
G01 X12.1205 Y-29.0056 
G01 X12.1065 Y-29.0239 
G01 X12.0949 Y-29.0439 
G01 X12.0786 Y-29.0603 
G01 X12.0645 Y-29.0786 
G01 X12.0462 Y-29.0926 
G01 X12.0299 Y-29.1090 
G01 X12.0099 Y-29.1205 
G01 X11.9916 Y-29.1346 
G01 X11.9702 Y-29.1434 
G01 X11.9502 Y-29.1550 
G01 X11.9279 Y-29.1610 
G01 X11.8510 Y-29.1928 
G01 X11.4348 Y-29.6090 
G01 X11.2096 Y-30.1527 
G01 X11.2096 Y-30.7413 
G01 X11.4348 Y-31.2850 
G01 X11.6523 Y-31.5025 
G01 X11.6983 Y-31.5821 
G01 X11.7221 Y-31.6710 
G01 X11.7221 Y-31.7630 
G01 X11.6983 Y-31.8519 
G01 X11.6523 Y-31.9315 
G01 X11.5872 Y-31.9966 
G01 X11.4348 Y-32.1490 
G01 X11.2096 Y-32.6927 
G01 X11.2096 Y-33.2813 
G01 X11.4348 Y-33.8250 
G01 X11.6523 Y-34.0425 
G01 X11.6983 Y-34.1221 
G01 X11.7221 Y-34.2110 
G01 X11.7221 Y-34.3030 
G01 X11.6983 Y-34.3919 
G01 X11.6523 Y-34.4715 
G01 X11.5872 Y-34.5366 
G01 X11.4348 Y-34.6890 
G01 X11.2096 Y-35.2327 
G01 X11.2096 Y-35.8213 
G01 X11.4348 Y-36.3650 
G01 X11.6523 Y-36.5825 
G01 X11.6983 Y-36.6621 
G01 X11.7221 Y-36.7510 
G01 X11.7221 Y-36.8430 
G01 X11.6983 Y-36.9319 
G01 X11.6523 Y-37.0115 
G01 X11.5872 Y-37.0766 
G01 X11.4348 Y-37.2290 
G01 X11.2096 Y-37.7727 
G01 X11.2096 Y-38.3613 
G01 X11.4348 Y-38.9050 
G01 X11.5694 Y-39.0396 
G01 X11.6323 Y-39.1025 
G01 X11.6805 Y-39.1843 
G01 X11.7039 Y-39.2718 
G01 X11.7043 Y-39.3652 
G01 X11.6805 Y-39.4541 
G01 X11.6345 Y-39.5337 
G01 X11.5704 Y-39.5978 
G01 X11.4898 Y-39.6448 
G01 X11.4023 Y-39.6682 
G01 X8.2302 Y-39.6686 
G01 X8.2073 Y-39.6716 
G01 X8.1844 Y-39.6686 
G01 X8.1613 Y-39.6686 
G01 X8.1390 Y-39.6626 
G01 X8.1161 Y-39.6596 
G01 X8.0947 Y-39.6508 
G01 X8.0724 Y-39.6448 
G01 X8.0524 Y-39.6332 
G01 X7.8379 Y-39.5444 
G01 X7.4021 Y-39.5444 
G01 X6.9994 Y-39.7112 
G01 X6.6912 Y-40.0194 
G01 X6.5244 Y-40.4221 
G01 X6.5244 Y-40.8579 
G01 X6.6912 Y-41.2606 
G01 X6.9772 Y-41.5466 
G01 X7.0355 Y-41.6049 
G01 X7.0423 Y-41.6117 
G01 X7.0883 Y-41.6913 
G01 X7.1118 Y-41.7792 
G01 X7.1121 Y-41.8722 
G01 X7.0883 Y-41.9611 
G01 X7.0433 Y-42.0390 
G01 X6.9772 Y-42.1058 
G01 X6.8975 Y-42.1518 
G01 X6.8097 Y-42.1753 
G01 X6.1898 Y-42.1756 
G01 X5.8327 Y-42.3235 
G01 X4.2565 Y-43.8997 
G01 X4.1086 Y-44.2568 
G01 X4.1086 Y-62.4232 
G01 X4.2565 Y-62.7803 
G01 X4.5464 Y-63.0701 
G01 X4.6114 Y-63.1352 
G01 X10.5248 Y-69.0486 
G01 X10.5899 Y-69.1136 
G01 X10.8797 Y-69.4035 
G01 X11.2368 Y-69.5514 
G01 X33.7591 Y-69.5514 
G01 X33.7820 Y-69.5484 
G01 X33.8049 Y-69.5514 
G01 X33.8280 Y-69.5514 
G01 X33.8503 Y-69.5574 
G01 X33.8732 Y-69.5604 
G01 X33.8945 Y-69.5692 
G01 X33.9169 Y-69.5752 
G01 X33.9369 Y-69.5868 
G01 X33.9582 Y-69.5956 
G01 X33.9765 Y-69.6097 
G01 X33.9965 Y-69.6212 
G01 X34.0129 Y-69.6375 
G01 X34.0312 Y-69.6516 
G01 X34.0453 Y-69.6699 
G01 X34.0616 Y-69.6863 
G01 X34.0731 Y-69.7063 
G01 X34.0872 Y-69.7246 
G01 X34.0960 Y-69.7459 
G01 X34.1076 Y-69.7659 
G01 X34.1136 Y-69.7882 
G01 X34.1224 Y-69.8096 
G01 X34.1254 Y-69.8325 
G01 X34.1314 Y-69.8548 
G01 X34.1314 Y-69.8779 
G01 X34.1344 Y-69.9008 
G01 X34.1314 Y-69.9237 
G01 X34.1314 Y-69.9468 
G01 X34.1254 Y-69.9691 
G01 X34.1224 Y-69.9920 
G01 X34.1136 Y-70.0133 
G01 X34.1076 Y-70.0357 
G01 X34.0960 Y-70.0557 
G01 X34.0872 Y-70.0770 
G01 X34.0731 Y-70.0953 
G01 X34.0616 Y-70.1153 
G01 X34.0453 Y-70.1317 
G01 X34.0312 Y-70.1500 
G01 X34.0129 Y-70.1641 
G01 X33.9965 Y-70.1804 
G01 X33.9765 Y-70.1919 
G01 X33.9582 Y-70.2060 
G01 X33.9369 Y-70.2148 
G01 X33.9169 Y-70.2264 
G01 X33.8945 Y-70.2324 
G01 X33.7397 Y-70.2965 
G01 X33.6334 Y-70.4028 
G01 X33.5538 Y-70.4488 
G01 X33.4649 Y-70.4726 
G01 X32.6386 Y-70.4726 
G01 X31.9339 Y-70.7645 
G01 X31.3945 Y-71.3039 
G01 X31.1026 Y-72.0086 
G01 X31.1026 Y-72.7714 
G01 X31.3855 Y-73.4543 
G01 X31.3970 Y-73.4743 
G01 X31.4030 Y-73.4967 
G01 X31.4119 Y-73.5180 
G01 X31.4149 Y-73.5409 
G01 X31.4208 Y-73.5632 
G01 X31.4208 Y-73.5863 
G01 X31.4239 Y-73.6092 
G01 X31.4208 Y-73.6321 
G01 X31.4208 Y-73.6552 
G01 X31.4149 Y-73.6775 
G01 X31.4119 Y-73.7004 
G01 X31.4030 Y-73.7217 
G01 X31.3970 Y-73.7441 
G01 X31.3855 Y-73.7641 
G01 X31.3766 Y-73.7854 
G01 X31.3626 Y-73.8037 
G01 X31.3510 Y-73.8237 
G01 X31.3347 Y-73.8401 
G01 X31.3206 Y-73.8584 
G01 X31.3023 Y-73.8724 
G01 X31.2860 Y-73.8888 
G01 X31.2660 Y-73.9003 
G01 X31.2477 Y-73.9144 
G01 X31.2263 Y-73.9232 
G01 X31.2063 Y-73.9348 
G01 X31.1840 Y-73.9408 
G01 X31.1627 Y-73.9496 
G01 X31.1398 Y-73.9526 
G01 X31.1174 Y-73.9586 
G01 X31.0944 Y-73.9586 
G01 X31.0714 Y-73.9616 
G01 X31.0485 Y-73.9586 
G01 X29.9114 Y-73.9586 
G01 X29.8885 Y-73.9616 
G01 X29.8656 Y-73.9586 
G01 X29.8425 Y-73.9586 
G01 X29.8202 Y-73.9526 
G01 X29.7973 Y-73.9496 
G01 X29.7760 Y-73.9408 
G01 X29.7537 Y-73.9348 
G01 X29.7337 Y-73.9232 
G01 X29.7123 Y-73.9144 
G01 X29.6940 Y-73.9003 
G01 X29.6740 Y-73.8888 
G01 X29.6577 Y-73.8724 
G01 X29.6394 Y-73.8584 
G01 X29.6253 Y-73.8401 
G01 X29.6090 Y-73.8237 
G01 X29.5974 Y-73.8037 
G01 X29.5833 Y-73.7854 
G01 X29.5745 Y-73.7641 
G01 X29.5630 Y-73.7441 
G01 X29.5570 Y-73.7217 
G01 X29.5481 Y-73.7004 
G01 X29.5451 Y-73.6775 
G01 X29.5391 Y-73.6552 
G01 X29.5391 Y-73.6321 
G01 X29.5361 Y-73.6092 
G01 X29.5391 Y-73.5863 
G01 X29.5391 Y-73.5632 
G01 X29.5451 Y-73.5409 
G01 X29.5481 Y-73.5180 
G01 X29.5570 Y-73.4967 
G01 X29.5630 Y-73.4743 
G01 X29.5745 Y-73.4543 
G01 X29.8574 Y-72.7714 
G01 X29.8574 Y-72.0086 
G01 X29.5655 Y-71.3039 
G01 X29.0261 Y-70.7645 
G01 X28.3214 Y-70.4726 
G01 X27.5586 Y-70.4726 
G01 X26.8539 Y-70.7645 
G01 X26.3145 Y-71.3039 
G01 X26.0226 Y-72.0086 
G01 X26.0226 Y-72.7714 
G01 X26.3145 Y-73.4761 
G01 X26.8539 Y-74.0155 
G01 X26.9823 Y-74.0687 
G01 X27.0553 Y-74.1247 
G01 X27.1105 Y-74.1967 
G01 X27.1165 Y-74.2103 
G01 X28.3699 Y-75.4636 
G01 X28.6597 Y-75.7535 
G01 X28.8700 Y-75.8406 
G01 X44.7900 Y-75.8406 
G01 X45.0003 Y-75.7535 
G01 X45.3040 Y-75.4497 
G01 X46.1335 Y-74.6203 
G01 X46.1475 Y-74.6020 
G01 X46.1658 Y-74.5879 
G01 X46.1822 Y-74.5716 
G01 X46.2022 Y-74.5600 
G01 X46.2205 Y-74.5460 
G01 X46.2418 Y-74.5371 
G01 X46.2619 Y-74.5256 
G01 X46.2842 Y-74.5196 
G01 X46.5580 Y-74.4062 
G01 X46.9742 Y-73.9900 
G01 X47.0060 Y-73.9131 
G01 X47.0120 Y-73.8908 
G01 X47.0236 Y-73.8708 
G01 X47.0324 Y-73.8494 
G01 X47.0465 Y-73.8311 
G01 X47.0580 Y-73.8111 
G01 X47.0744 Y-73.7948 
G01 X47.0884 Y-73.7765 
G01 X47.1067 Y-73.7624 
G01 X47.1231 Y-73.7460 
G01 X47.1431 Y-73.7345 
G01 X47.1614 Y-73.7204 
G01 X47.1827 Y-73.7116 
G01 X47.2027 Y-73.7001 
G01 X47.2250 Y-73.6941 
G01 X47.2464 Y-73.6852 
G01 X47.2693 Y-73.6822 
G01 X47.2916 Y-73.6762 
G01 X47.3147 Y-73.6762 
G01 X47.3376 Y-73.6732 
G01 X47.3605 Y-73.6762 
G01 X47.3836 Y-73.6762 
G01 X47.4059 Y-73.6822 
G01 X47.4288 Y-73.6852 
G01 X47.4501 Y-73.6941 
G01 X47.4725 Y-73.7001 
G01 X47.4925 Y-73.7116 
G01 X47.5138 Y-73.7204 
G01 X47.5321 Y-73.7345 
G01 X47.5521 Y-73.7461 
G01 X47.5685 Y-73.7624 
G01 X47.5868 Y-73.7764 
G01 X47.6008 Y-73.7948 
G01 X47.6603 Y-73.8542 
G01 X47.7775 Y-73.9394 
G01 X47.9066 Y-74.0052 
G01 X47.9106 Y-74.0064 
G01 X47.9106 Y-73.9353 
G01 X47.8539 Y-73.9118 
G01 X47.7134 Y-73.8180 
G01 X47.5940 Y-73.6986 
G01 X47.5002 Y-73.5581 
G01 X47.4355 Y-73.4021 
G01 X47.4026 Y-73.2364 
G01 X47.4026 Y-71.5435 
G01 X47.4355 Y-71.3779 
G01 X47.5002 Y-71.2219 
G01 X47.5940 Y-71.0814 
G01 X47.7134 Y-70.9620 
G01 X47.8539 Y-70.8682 
G01 X47.9106 Y-70.8447 
G01 X47.9106 Y-70.7695 
G01 X47.8770 Y-70.7695 
G01 X47.8402 Y-70.7714 
G01 X47.8311 Y-70.7695 
G01 X47.8218 Y-70.7695 
G01 X47.7862 Y-70.7599 
G01 X47.7502 Y-70.7523 
G01 X47.7419 Y-70.7481 
G01 X47.7330 Y-70.7457 
G01 X47.7010 Y-70.7272 
G01 X47.6682 Y-70.7105 
G01 X47.6613 Y-70.7043 
G01 X47.6533 Y-70.6997 
G01 X47.6272 Y-70.6736 
G01 X47.5998 Y-70.6489 
G01 X47.5948 Y-70.6412 
G01 X47.5882 Y-70.6346 
G01 X47.5698 Y-70.6027 
G01 X47.5497 Y-70.5718 
G01 X47.5469 Y-70.5630 
G01 X47.5422 Y-70.5549 
G01 X47.5327 Y-70.5193 
G01 X47.5213 Y-70.4843 
G01 X47.5208 Y-70.4750 
G01 X47.5184 Y-70.4661 
G01 X47.5184 Y-70.4292 
G01 X47.5165 Y-70.3924 
G01 X47.5184 Y-70.3833 
G01 X47.5184 Y-70.3741 
G01 X47.5280 Y-70.3385 
G01 X47.5356 Y-70.3024 
G01 X47.5398 Y-70.2942 
G01 X47.5422 Y-70.2852 
G01 X47.5607 Y-70.2533 
G01 X47.5774 Y-70.2205 
G01 X47.5836 Y-70.2136 
G01 X47.5882 Y-70.2055 
G01 X47.6143 Y-70.1795 
G01 X47.6389 Y-70.1521 
G01 X47.6467 Y-70.1470 
G01 X49.4666 Y-68.3272 
G01 X49.5462 Y-68.2812 
G01 X49.6351 Y-68.2574 
G01 X50.4227 Y-68.2574 
G01 X50.6864 Y-68.1482 
G01 X50.8882 Y-67.9464 
G01 X50.9974 Y-67.6827 
G01 X50.9974 Y-66.0973 
G01 X50.8882 Y-65.8336 
G01 X50.6864 Y-65.6318 
G01 X50.6755 Y-65.6273 
G01 X50.6531 Y-65.6213 
G01 X50.6331 Y-65.6098 
G01 X50.6118 Y-65.6009 
G01 X50.5916 Y-65.5926 
G01 X50.5693 Y-65.5866 
G01 X50.5493 Y-65.5750 
G01 X50.4227 Y-65.5226 
G01 X50.3754 Y-65.5226 
G01 X50.3754 Y-65.8590 
G01 X50.3609 Y-65.8940 
G01 X50.3340 Y-65.9209 
G01 X50.2990 Y-65.9354 
G01 X48.7610 Y-65.9354 
G01 X48.7260 Y-65.9209 
G01 X48.6991 Y-65.8940 
G01 X48.6846 Y-65.8590 
G01 X48.6846 Y-65.5226 
G01 X48.6373 Y-65.5226 
G01 X48.5107 Y-65.5750 
G01 X48.4907 Y-65.5866 
G01 X48.4684 Y-65.5926 
G01 X48.4482 Y-65.6009 
G01 X48.4269 Y-65.6098 
G01 X48.4069 Y-65.6213 
G01 X48.3845 Y-65.6273 
G01 X48.3736 Y-65.6318 
G01 X48.1718 Y-65.8336 
G01 X48.0626 Y-66.0973 
G01 X48.0626 Y-66.8849 
G01 X48.0388 Y-66.9738 
G01 X47.9928 Y-67.0534 
G01 X47.9277 Y-67.1185 
G01 X45.1864 Y-69.8599 
G01 X44.8965 Y-70.1497 
G01 X44.7836 Y-70.4222 
G01 X44.7777 Y-70.4445 
G01 X44.7661 Y-70.4645 
G01 X44.7573 Y-70.4858 
G01 X44.7432 Y-70.5041 
G01 X44.7317 Y-70.5241 
G01 X44.7153 Y-70.5405 
G01 X44.7013 Y-70.5588 
G01 X44.6829 Y-70.5729 
G01 X44.4658 Y-70.7900 
G01 X44.2406 Y-71.3337 
G01 X44.2406 Y-73.4432 
G01 X44.2476 Y-73.4553 
G01 X44.2536 Y-73.4776 
G01 X44.2624 Y-73.4989 
G01 X44.2654 Y-73.5218 
G01 X44.2714 Y-73.5441 
G01 X44.2714 Y-73.5672 
G01 X44.2744 Y-73.5901 
G01 X44.2714 Y-73.6130 
G01 X44.2714 Y-73.6361 
G01 X44.2654 Y-73.6584 
G01 X44.2624 Y-73.6813 
G01 X44.2536 Y-73.7027 
G01 X44.2476 Y-73.7250 
G01 X44.2360 Y-73.7450 
G01 X44.2272 Y-73.7663 
G01 X44.2131 Y-73.7847 
G01 X44.2016 Y-73.8047 
G01 X44.1852 Y-73.8210 
G01 X44.1712 Y-73.8393 
G01 X44.1529 Y-73.8534 
G01 X44.1174 Y-73.8888 
G01 X44.1045 Y-73.8963 
G01 X44.0378 Y-73.9348 
G01 X44.0293 Y-73.9370 
G01 X43.9489 Y-73.9586 
G01 X43.9206 Y-73.9586 
G01 X34.9915 Y-73.9586 
G01 X34.9685 Y-73.9616 
G01 X34.9456 Y-73.9586 
G01 X34.9225 Y-73.9586 
G01 X34.9002 Y-73.9526 
G01 X34.8773 Y-73.9496 
G01 X34.8560 Y-73.9408 
G01 X34.8337 Y-73.9348 
G01 X34.8137 Y-73.9232 
G01 X34.7923 Y-73.9144 
G01 X34.7740 Y-73.9003 
G01 X34.7540 Y-73.8888 
G01 X34.7377 Y-73.8724 
G01 X34.7194 Y-73.8584 
G01 X34.7053 Y-73.8401 
G01 X34.6890 Y-73.8237 
G01 X34.6774 Y-73.8037 
G01 X34.6634 Y-73.7854 
G01 X34.6545 Y-73.7641 
G01 X34.6430 Y-73.7441 
G01 X34.6370 Y-73.7217 
G01 X34.6281 Y-73.7004 
G01 X34.6251 Y-73.6775 
G01 X34.6191 Y-73.6552 
G01 X34.6191 Y-73.6321 
G01 X34.6161 Y-73.6092 
G01 X34.6191 Y-73.5863 
G01 X34.6191 Y-73.5632 
G01 X34.6251 Y-73.5409 
G01 X34.6281 Y-73.5180 
G01 X34.6370 Y-73.4967 
G01 X34.6430 Y-73.4743 
G01 X34.6545 Y-73.4543 
G01 X34.9374 Y-72.7714 
G01 X34.9374 Y-72.3948 
G01 X34.9612 Y-72.3059 
G01 X35.0072 Y-72.2263 
G01 X35.0723 Y-72.1612 
G01 X35.1519 Y-72.1152 
G01 X35.2408 Y-72.0914 
G01 X40.8332 Y-72.0914 
G01 X41.1902 Y-71.9435 
G01 X41.5452 Y-71.5886 
G01 X45.2735 Y-67.8602 
G01 X45.4214 Y-67.5032 
G01 X45.4214 Y-64.0011 
G01 X45.4452 Y-63.9122 
G01 X45.4912 Y-63.8326 
G01 X45.5563 Y-63.7675 
G01 X46.5435 Y-62.7803 
G01 X46.6914 Y-62.4232 
G01 X46.6914 Y-55.1111 
G01 X46.7152 Y-55.0222 
G01 X46.7612 Y-54.9426 
G01 X46.8263 Y-54.8775 
G01 X50.3535 Y-51.3503 
G01 X50.5014 Y-50.9932 
G01 X50.5014 Y-50.1402 
G01 X50.4984 Y-50.1173 
G01 X50.5014 Y-50.0944 
G01 X50.5014 Y-50.0713 
G01 X50.5074 Y-50.0490 
G01 X50.5104 Y-50.0261 
G01 X50.5192 Y-50.0047 
G01 X50.5252 Y-49.9824 
G01 X50.5368 Y-49.9624 
G01 X50.6256 Y-49.7479 
G01 X50.6256 Y-49.3121 
G01 X50.4588 Y-48.9094 
G01 X50.1398 Y-48.5904 
G01 X50.0820 Y-48.5326 
G01 X50.0747 Y-48.5253 
G01 X50.0287 Y-48.4457 
G01 X50.0052 Y-48.3578 
G01 X50.0049 Y-48.2648 
G01 X50.0287 Y-48.1759 
G01 X50.0737 Y-48.0980 
G01 X50.1398 Y-48.0312 
G01 X50.2195 Y-47.9852 
G01 X50.3073 Y-47.9617 
G01 X51.5689 Y-47.9614 
G01 X51.6578 Y-47.9852 
G01 X51.7374 Y-48.0312 
G01 X51.8025 Y-48.0963 
G01 X52.4999 Y-48.7936 
G01 X52.7897 Y-49.0835 
G01 X53.1468 Y-49.2314 
G01 X55.3491 Y-49.2314 
G01 X55.3720 Y-49.2284 
G01 X55.3949 Y-49.2314 
G01 X55.4180 Y-49.2314 
G01 X55.4403 Y-49.2374 
G01 X55.4632 Y-49.2404 
G01 X55.4845 Y-49.2492 
G01 X55.5069 Y-49.2552 
G01 X55.5269 Y-49.2668 
G01 X55.5482 Y-49.2756 
G01 X55.5665 Y-49.2897 
G01 X55.5865 Y-49.3012 
G01 X55.6029 Y-49.3175 
G01 X55.6212 Y-49.3316 
G01 X55.6353 Y-49.3499 
G01 X55.6516 Y-49.3663 
G01 X55.6631 Y-49.3863 
G01 X55.6772 Y-49.4046 
G01 X55.6860 Y-49.4259 
G01 X55.6976 Y-49.4459 
G01 X55.7036 Y-49.4682 
G01 X55.7124 Y-49.4896 
G01 X55.7154 Y-49.5125 
G01 X55.7214 Y-49.5348 
G01 X55.7214 Y-49.5579 
G01 X55.7244 Y-49.5808 
G01 X55.7214 Y-49.6037 
G01 X55.7214 Y-49.6268 
G01 X55.7154 Y-49.6491 
G01 X55.7124 Y-49.6720 
G01 X55.7036 Y-49.6933 
G01 X55.6976 Y-49.7157 
G01 X55.6860 Y-49.7357 
G01 X55.6772 Y-49.7570 
G01 X55.6631 Y-49.7753 
G01 X55.6516 Y-49.7953 
G01 X55.6353 Y-49.8117 
G01 X55.6212 Y-49.8300 
G01 X55.6029 Y-49.8441 
G01 X55.5865 Y-49.8604 
G01 X55.5665 Y-49.8719 
G01 X55.5482 Y-49.8860 
G01 X55.5269 Y-49.8948 
G01 X55.5069 Y-49.9064 
G01 X55.4845 Y-49.9124 
G01 X55.3297 Y-49.9765 
G01 X55.0284 Y-50.2778 
G01 X54.3546 Y-50.9517 
G01 X54.3405 Y-50.9700 
G01 X54.3222 Y-50.9840 
G01 X54.3058 Y-51.0004 
G01 X54.2858 Y-51.0119 
G01 X54.2675 Y-51.0260 
G01 X54.2462 Y-51.0348 
G01 X54.2262 Y-51.0464 
G01 X54.2039 Y-51.0523 
G01 X53.9894 Y-51.1412 
G01 X53.6812 Y-51.4494 
G01 X53.5144 Y-51.8521 
G01 X53.5144 Y-52.2879 
G01 X53.6812 Y-52.6906 
G01 X53.9894 Y-52.9988 
G01 X54.3921 Y-53.1656 
G01 X54.8279 Y-53.1656 
G01 X55.2306 Y-52.9988 
G01 X55.3671 Y-52.8623 
G01 X55.4300 Y-52.7995 
G01 X55.5118 Y-52.7512 
G01 X55.5993 Y-52.7278 
G01 X55.6927 Y-52.7274 
G01 X55.7816 Y-52.7512 
G01 X55.8612 Y-52.7972 
G01 X55.9253 Y-52.8613 
G01 X55.9723 Y-52.9420 
G01 X55.9957 Y-53.0294 
G01 X55.9961 Y-53.6327 
G01 X56.2201 Y-54.1735 
G01 X56.4421 Y-54.3955 
G01 X56.4881 Y-54.4751 
G01 X56.5119 Y-54.5640 
G01 X56.5119 Y-54.6560 
G01 X56.4881 Y-54.7449 
G01 X56.4421 Y-54.8245 
G01 X56.3770 Y-54.8896 
G01 X56.2201 Y-55.0465 
G01 X55.9961 Y-55.5873 
G01 X55.9961 Y-56.1727 
G01 X56.2201 Y-56.7135 
G01 X56.2401 Y-56.7473 
G01 X56.2672 Y-56.7943 
G01 X56.2911 Y-56.8832 
G01 X56.2911 Y-56.9752 
G01 X56.2849 Y-56.9980 
G01 X56.2672 Y-57.0640 
G01 X56.2212 Y-57.1437 
G01 X56.1562 Y-57.2087 
G01 X56.1053 Y-57.2596 
G01 X55.9961 Y-57.5233 
G01 X55.9961 Y-59.3167 
G01 X56.0655 Y-59.4843 
G01 X56.0771 Y-59.5043 
G01 X56.0831 Y-59.5267 
G01 X56.0919 Y-59.5480 
G01 X56.0949 Y-59.5709 
G01 X56.1009 Y-59.5932 
G01 X56.1009 Y-59.6163 
G01 X56.1039 Y-59.6392 
G01 X56.1009 Y-59.6621 
G01 X56.1009 Y-59.6852 
G01 X56.0949 Y-59.7075 
G01 X56.0919 Y-59.7304 
G01 X56.0831 Y-59.7517 
G01 X56.0771 Y-59.7741 
G01 X56.0655 Y-59.7941 
G01 X56.0567 Y-59.8154 
G01 X56.0426 Y-59.8337 
G01 X56.0311 Y-59.8537 
G01 X56.0147 Y-59.8701 
G01 X56.0007 Y-59.8884 
G01 X55.9824 Y-59.9024 
G01 X55.9660 Y-59.9188 
G01 X55.9460 Y-59.9303 
G01 X55.9277 Y-59.9444 
G01 X55.9064 Y-59.9532 
G01 X55.8864 Y-59.9648 
G01 X55.8640 Y-59.9708 
G01 X55.8427 Y-59.9796 
G01 X55.8198 Y-59.9826 
G01 X55.7975 Y-59.9886 
G01 X55.7744 Y-59.9886 
G01 X55.7515 Y-59.9916 
G01 X55.7286 Y-59.9886 
G01 X54.7978 Y-59.9886 
G01 X54.4407 Y-60.1365 
G01 X53.4684 Y-61.1088 
G01 X53.4543 Y-61.1272 
G01 X53.4361 Y-61.1412 
G01 X53.4198 Y-61.1574 
G01 X53.3997 Y-61.1690 
G01 X53.3813 Y-61.1831 
G01 X53.3600 Y-61.1919 
G01 X53.3401 Y-61.2034 
G01 X53.3177 Y-61.2094 
G01 X53.2963 Y-61.2183 
G01 X53.2735 Y-61.2213 
G01 X53.2513 Y-61.2272 
G01 X53.2281 Y-61.2272 
G01 X53.2050 Y-61.2302 
G01 X53.1823 Y-61.2272 
G01 X53.1593 Y-61.2272 
G01 X53.1368 Y-61.2212 
G01 X53.1138 Y-61.2182 
G01 X53.0926 Y-61.2094 
G01 X53.0704 Y-61.2034 
G01 X53.0503 Y-61.1918 
G01 X53.0289 Y-61.1829 
G01 X53.0107 Y-61.1689 
G01 X52.9907 Y-61.1574 
G01 X52.9743 Y-61.1410 
G01 X52.9559 Y-61.1269 
G01 X52.9419 Y-61.1086 
G01 X52.9257 Y-61.0924 
G01 X52.9240 Y-61.0894 
G01 X52.7563 Y-60.9217 
G01 X52.6959 Y-60.8613 
G01 X52.6912 Y-60.8567 
G01 X52.6452 Y-60.7770 
G01 X52.6218 Y-60.6895 
G01 X52.6214 Y-60.3468 
G01 X52.5229 Y-60.1089 
G01 X52.5113 Y-60.0889 
G01 X52.5053 Y-60.0666 
G01 X52.4965 Y-60.0452 
G01 X52.4935 Y-60.0223 
G01 X52.4875 Y-60.0000 
G01 X52.4875 Y-59.9769 
G01 X52.4845 Y-59.9540 
G01 X52.4875 Y-59.9311 
G01 X52.4875 Y-59.9080 
G01 X52.4935 Y-59.8857 
G01 X52.4965 Y-59.8628 
G01 X52.5053 Y-59.8415 
G01 X52.5113 Y-59.8192 
G01 X52.5229 Y-59.7992 
G01 X52.5317 Y-59.7778 
G01 X52.5458 Y-59.7595 
G01 X52.5573 Y-59.7395 
G01 X52.5736 Y-59.7232 
G01 X52.5877 Y-59.7048 
G01 X52.6060 Y-59.6908 
G01 X52.6224 Y-59.6744 
G01 X52.6424 Y-59.6629 
G01 X52.6607 Y-59.6488 
G01 X52.6820 Y-59.6400 
G01 X52.7020 Y-59.6284 
G01 X52.7244 Y-59.6225 
G01 X52.7457 Y-59.6136 
G01 X52.7686 Y-59.6106 
G01 X53.3430 Y-59.4567 
G01 X53.9074 Y-59.1308 
G01 X54.3683 Y-58.6699 
G01 X54.6942 Y-58.1055 
G01 X54.8629 Y-57.4759 
G01 X54.8629 Y-56.8241 
G01 X54.6942 Y-56.1945 
G01 X54.3683 Y-55.6301 
G01 X53.9074 Y-55.1692 
G01 X53.3430 Y-54.8433 
G01 X52.7134 Y-54.6746 
G01 X52.2479 Y-54.6746 
G01 X52.2450 Y-54.6750 
G01 X52.2421 Y-54.6746 
G01 X52.1990 Y-54.6746 
G01 X52.1574 Y-54.6634 
G01 X52.1538 Y-54.6630 
G01 X52.1504 Y-54.6616 
G01 X52.1101 Y-54.6508 
G01 X52.0740 Y-54.6299 
G01 X52.0688 Y-54.6278 
G01 X52.0643 Y-54.6243 
G01 X52.0305 Y-54.6048 
G01 X52.0028 Y-54.5772 
G01 X51.9958 Y-54.5718 
G01 X51.9904 Y-54.5647 
G01 X51.9654 Y-54.5397 
G01 X51.9477 Y-54.5091 
G01 X51.9398 Y-54.4988 
G01 X51.9348 Y-54.4868 
G01 X51.9194 Y-54.4601 
G01 X51.9114 Y-54.4303 
G01 X51.7288 Y-53.9894 
G01 X51.4206 Y-53.6812 
G01 X51.0179 Y-53.5144 
G01 X50.5821 Y-53.5144 
G01 X50.1794 Y-53.6812 
G01 X49.8712 Y-53.9894 
G01 X49.7824 Y-54.2039 
G01 X49.7764 Y-54.2262 
G01 X49.7648 Y-54.2462 
G01 X49.7560 Y-54.2675 
G01 X49.7419 Y-54.2858 
G01 X49.7304 Y-54.3058 
G01 X49.7140 Y-54.3222 
G01 X49.7000 Y-54.3405 
G01 X49.6817 Y-54.3546 
G01 X48.9964 Y-55.0399 
G01 X48.7065 Y-55.3297 
G01 X48.5586 Y-55.6868 
G01 X48.5586 Y-58.6132 
G01 X48.7065 Y-58.9703 
G01 X50.3213 Y-60.5850 
G01 X50.3601 Y-60.6239 
G01 X50.3863 Y-60.6501 
G01 X50.4109 Y-60.6926 
G01 X50.4323 Y-60.7297 
G01 X50.4433 Y-60.7708 
G01 X50.4561 Y-60.8186 
G01 X50.4561 Y-60.8644 
G01 X50.4561 Y-60.9106 
G01 X50.4465 Y-60.9463 
G01 X50.4323 Y-60.9995 
G01 X50.4140 Y-61.0311 
G01 X50.3977 Y-61.0593 
G01 X50.3873 Y-61.0845 
G01 X50.3813 Y-61.1069 
G01 X50.3698 Y-61.1269 
G01 X50.3609 Y-61.1482 
G01 X50.3526 Y-61.1684 
G01 X50.3466 Y-61.1907 
G01 X50.3350 Y-61.2107 
G01 X50.2826 Y-61.3373 
G01 X50.2826 Y-61.3846 
G01 X50.6190 Y-61.3846 
G01 X50.6540 Y-61.3991 
G01 X50.6809 Y-61.4260 
G01 X50.6954 Y-61.4610 
G01 X50.6954 Y-62.9990 
G01 X50.6809 Y-63.0340 
G01 X50.6540 Y-63.0609 
G01 X50.6190 Y-63.0754 
G01 X50.2826 Y-63.0754 
G01 X50.2826 Y-63.1227 
G01 X50.3350 Y-63.2493 
G01 X50.3466 Y-63.2693 
G01 X50.3526 Y-63.2916 
G01 X50.3609 Y-63.3118 
G01 X50.3698 Y-63.3331 
G01 X50.3813 Y-63.3531 
G01 X50.3873 Y-63.3755 
G01 X50.3918 Y-63.3864 
G01 X50.5936 Y-63.5882 
G01 X50.8573 Y-63.6974 
G01 X52.4427 Y-63.6974 
G01 X52.4471 Y-63.6956 
G01 X52.4671 Y-63.6840 
G01 X52.4895 Y-63.6780 
G01 X52.5108 Y-63.6692 
G01 X52.5337 Y-63.6662 
G01 X52.5560 Y-63.6602 
G01 X52.5791 Y-63.6602 
G01 X52.6020 Y-63.6572 
G01 X52.6249 Y-63.6602 
G01 X52.6480 Y-63.6602 
G01 X52.6703 Y-63.6662 
G01 X52.6932 Y-63.6692 
G01 X52.7145 Y-63.6780 
G01 X52.7369 Y-63.6840 
G01 X52.7569 Y-63.6956 
G01 X52.7782 Y-63.7044 
G01 X52.7965 Y-63.7185 
G01 X52.8165 Y-63.7300 
G01 X52.8329 Y-63.7463 
G01 X52.8512 Y-63.7604 
G01 X52.8652 Y-63.7787 
G01 X52.8816 Y-63.7951 
G01 X52.8931 Y-63.8151 
G01 X52.9072 Y-63.8334 
G01 X52.9160 Y-63.8547 
G01 X52.9276 Y-63.8747 
G01 X52.9336 Y-63.8971 
G01 X52.9424 Y-63.9184 
G01 X52.9454 Y-63.9413 
G01 X52.9514 Y-63.9636 
G01 X52.9514 Y-63.9867 
G01 X52.9544 Y-64.0096 
G01 X52.9514 Y-64.0325 
G01 X52.9514 Y-64.3496 
G01 X53.0146 Y-64.3496 
G01 X53.0146 Y-64.0010 
G01 X53.0291 Y-63.9660 
G01 X53.0560 Y-63.9391 
G01 X53.0910 Y-63.9246 
G01 X54.4290 Y-63.9246 
G01 X54.4640 Y-63.9391 
G01 X54.4909 Y-63.9660 
G01 X54.5054 Y-64.0010 
G01 X54.5054 Y-65.5390 
G01 X54.4909 Y-65.5740 
G01 X54.4640 Y-65.6009 
G01 X54.4290 Y-65.6154 
G01 X54.0926 Y-65.6154 
G01 X54.0926 Y-65.6627 
G01 X54.1450 Y-65.7893 
G01 X54.1566 Y-65.8093 
G01 X54.1626 Y-65.8316 
G01 X54.1709 Y-65.8518 
G01 X54.1798 Y-65.8731 
G01 X54.1913 Y-65.8931 
G01 X54.1973 Y-65.9155 
G01 X54.2018 Y-65.9264 
G01 X54.4188 Y-66.1433 
G01 X54.4648 Y-66.2230 
G01 X54.4886 Y-66.3119 
G01 X54.4886 Y-67.0381 
G01 X54.4648 Y-67.1270 
G01 X54.4188 Y-67.2066 
G01 X54.3537 Y-67.2717 
G01 X54.2018 Y-67.4236 
G01 X54.1973 Y-67.4345 
G01 X54.1913 Y-67.4569 
G01 X54.1798 Y-67.4769 
G01 X54.1709 Y-67.4982 
G01 X54.1626 Y-67.5184 
G01 X54.1566 Y-67.5407 
G01 X54.1450 Y-67.5607 
G01 X54.0926 Y-67.6873 
G01 X54.0926 Y-67.7346 
G01 X54.4290 Y-67.7346 
G01 X54.4640 Y-67.7491 
G01 X54.4909 Y-67.7760 
G01 X54.5054 Y-67.8110 
G01 X54.5054 Y-69.3490 
G01 X54.4909 Y-69.3840 
G01 X54.4640 Y-69.4109 
G01 X54.4290 Y-69.4254 
G01 X54.0926 Y-69.4254 
G01 X54.0926 Y-69.4727 
G01 X54.1450 Y-69.5993 
G01 X54.1566 Y-69.6193 
G01 X54.1626 Y-69.6416 
G01 X54.1709 Y-69.6618 
G01 X54.1798 Y-69.6831 
G01 X54.1913 Y-69.7031 
G01 X54.1973 Y-69.7255 
G01 X54.2018 Y-69.7364 
G01 X54.4188 Y-69.9533 
G01 X54.4648 Y-70.0330 
G01 X54.4886 Y-70.1219 
G01 X54.4886 Y-71.0389 
G01 X54.4648 Y-71.1278 
G01 X54.4262 Y-71.1945 
G01 X54.4188 Y-71.2074 
G01 X54.3806 Y-71.2457 
G01 X54.3546 Y-71.2717 
G01 X54.3405 Y-71.2900 
G01 X54.3222 Y-71.3040 
G01 X54.3059 Y-71.3204 
G01 X54.2858 Y-71.3319 
G01 X54.2675 Y-71.3460 
G01 X54.2462 Y-71.3548 
G01 X54.2262 Y-71.3664 
G01 X54.2039 Y-71.3724 
G01 X54.1776 Y-71.3832 
G01 X54.1576 Y-71.3948 
G01 X54.1353 Y-71.4008 
G01 X54.1139 Y-71.4096 
G01 X54.0910 Y-71.4126 
G01 X54.0687 Y-71.4186 
G01 X54.0456 Y-71.4186 
G01 X54.0227 Y-71.4216 
G01 X53.9998 Y-71.4186 
G01 X52.5709 Y-71.4186 
G01 X52.5480 Y-71.4216 
G01 X52.5251 Y-71.4186 
G01 X52.5020 Y-71.4186 
G01 X52.4797 Y-71.4126 
G01 X52.4568 Y-71.4096 
G01 X52.4355 Y-71.4008 
G01 X52.4131 Y-71.3948 
G01 X52.3931 Y-71.3832 
G01 X52.3718 Y-71.3744 
G01 X52.3535 Y-71.3603 
G01 X52.3335 Y-71.3488 
G01 X52.3171 Y-71.3325 
G01 X52.2988 Y-71.3184 
G01 X52.2848 Y-71.3001 
G01 X52.2684 Y-71.2837 
G01 X52.2569 Y-71.2637 
G01 X52.2428 Y-71.2454 
G01 X52.2340 Y-71.2241 
G01 X52.2224 Y-71.2041 
G01 X52.2164 Y-71.1817 
G01 X52.0542 Y-70.7900 
G01 X51.6380 Y-70.3738 
G01 X51.0943 Y-70.1486 
G01 X50.5057 Y-70.1486 
G01 X49.9620 Y-70.3738 
G01 X49.5458 Y-70.7900 
G01 X49.5140 Y-70.8669 
G01 X49.5080 Y-70.8892 
G01 X49.4964 Y-70.9092 
G01 X49.4876 Y-70.9306 
G01 X49.4735 Y-70.9489 
G01 X49.4620 Y-70.9689 
G01 X49.4457 Y-70.9852 
G01 X49.4316 Y-71.0035 
G01 X49.4133 Y-71.0176 
G01 X49.3969 Y-71.0339 
G01 X49.3769 Y-71.0455 
G01 X49.3586 Y-71.0595 
G01 X49.3373 Y-71.0684 
G01 X49.3173 Y-71.0799 
G01 X49.2949 Y-71.0859 
G01 X49.2736 Y-71.0948 
G01 X49.2507 Y-71.0978 
G01 X49.2284 Y-71.1037 
G01 X49.2053 Y-71.1037 
G01 X49.1824 Y-71.1068 
G01 X49.1595 Y-71.1037 
G01 X49.1364 Y-71.1037 
G01 X49.1141 Y-71.0978 
G01 X49.0912 Y-71.0948 
G01 X49.0699 Y-71.0859 
G01 X49.0475 Y-71.0799 
G01 X49.0275 Y-71.0684 
G01 X49.0062 Y-71.0596 
G01 X48.9879 Y-71.0455 
G01 X48.9679 Y-71.0339 
G01 X48.9515 Y-71.0176 
G01 X48.9332 Y-71.0035 
G01 X48.9191 Y-70.9852 
G01 X48.8597 Y-70.9258 
G01 X48.7425 Y-70.8406 
G01 X48.6134 Y-70.7748 
G01 X48.6094 Y-70.7736 
G01 X48.6094 Y-70.8447 
G01 X48.6661 Y-70.8682 
G01 X48.8066 Y-70.9620 
G01 X48.9260 Y-71.0814 
G01 X49.0198 Y-71.2219 
G01 X49.0844 Y-71.3779 
G01 X49.1174 Y-71.5435 
G01 X49.1174 Y-73.2364 
G01 X49.0844 Y-73.4021 
G01 X49.0198 Y-73.5581 
G01 X48.9260 Y-73.6986 
G01 X48.8066 Y-73.8180 
G01 X48.6661 Y-73.9118 
G01 X48.6094 Y-73.9353 
G01 X48.6094 Y-74.0064 
G01 X48.6134 Y-74.0052 
G01 X48.7425 Y-73.9394 
G01 X48.8597 Y-73.8542 
G01 X48.9191 Y-73.7948 
G01 X48.9332 Y-73.7764 
G01 X48.9515 Y-73.7624 
G01 X48.9679 Y-73.7461 
G01 X48.9879 Y-73.7345 
G01 X49.0062 Y-73.7204 
G01 X49.0275 Y-73.7116 
G01 X49.0475 Y-73.7001 
G01 X49.0699 Y-73.6941 
G01 X49.0912 Y-73.6852 
G01 X49.1141 Y-73.6822 
G01 X49.1364 Y-73.6762 
G01 X49.1595 Y-73.6762 
G01 X49.1824 Y-73.6732 
G01 X49.2053 Y-73.6762 
G01 X49.2284 Y-73.6762 
G01 X49.2507 Y-73.6822 
G01 X49.2736 Y-73.6852 
G01 X49.2949 Y-73.6941 
G01 X49.3173 Y-73.7001 
G01 X49.3373 Y-73.7116 
G01 X49.3586 Y-73.7204 
G01 X49.3769 Y-73.7345 
G01 X49.3969 Y-73.7461 
G01 X49.4133 Y-73.7624 
G01 X49.4316 Y-73.7765 
G01 X49.4457 Y-73.7948 
G01 X49.4620 Y-73.8111 
G01 X49.4735 Y-73.8311 
G01 X49.4876 Y-73.8494 
G01 X49.4964 Y-73.8708 
G01 X49.5080 Y-73.8908 
G01 X49.5140 Y-73.9131 
G01 X49.5458 Y-73.9900 
G01 X49.9620 Y-74.4062 
G01 X50.5057 Y-74.6314 
G01 X51.0943 Y-74.6314 
G01 X51.6380 Y-74.4062 
G01 X52.0542 Y-73.9900 
G01 X52.2164 Y-73.5983 
G01 X52.2224 Y-73.5759 
G01 X52.2340 Y-73.5559 
G01 X52.2428 Y-73.5346 
G01 X52.2569 Y-73.5163 
G01 X52.2684 Y-73.4963 
G01 X52.2848 Y-73.4799 
G01 X52.2988 Y-73.4616 
G01 X52.3171 Y-73.4475 
G01 X52.3335 Y-73.4312 
G01 X52.3535 Y-73.4197 
G01 X52.3718 Y-73.4056 
G01 X52.3931 Y-73.3968 
G01 X52.4131 Y-73.3852 
G01 X52.4355 Y-73.3792 
G01 X52.4568 Y-73.3704 
G01 X52.4797 Y-73.3674 
G01 X52.5020 Y-73.3614 
G01 X52.5251 Y-73.3614 
G01 X52.5480 Y-73.3584 
G01 X52.5709 Y-73.3614 
G01 X53.9998 Y-73.3614 
G01 X54.0227 Y-73.3584 
G01 X54.0456 Y-73.3614 
G01 X54.0687 Y-73.3614 
G01 X54.0910 Y-73.3674 
G01 X54.1139 Y-73.3704 
G01 X54.1353 Y-73.3792 
G01 X54.1576 Y-73.3852 
G01 X54.1776 Y-73.3968 
G01 X54.3921 Y-73.4856 
G01 X54.8279 Y-73.4856 
G01 X55.2306 Y-73.3188 
G01 X55.5388 Y-73.0106 
G01 X55.6276 Y-72.7961 
G01 X55.6336 Y-72.7738 
G01 X55.6452 Y-72.7538 
G01 X55.6540 Y-72.7325 
G01 X55.6681 Y-72.7141 
G01 X55.6796 Y-72.6941 
G01 X55.6960 Y-72.6778 
G01 X55.7100 Y-72.6595 
G01 X55.7283 Y-72.6454 
G01 X56.2835 Y-72.0902 
G01 X56.4314 Y-71.7332 
G01 X56.4314 Y-70.1219 
G01 X56.4552 Y-70.0330 
G01 X56.5012 Y-69.9533 
G01 X56.5663 Y-69.8883 
G01 X56.7182 Y-69.7364 
G01 X56.7231 Y-69.7246 
G01 X56.7371 Y-69.7063 
G01 X56.7487 Y-69.6863 
G01 X56.7650 Y-69.6699 
G01 X56.7791 Y-69.6516 
G01 X56.7974 Y-69.6376 
G01 X56.8137 Y-69.6212 
G01 X56.8337 Y-69.6097 
G01 X56.8520 Y-69.5956 
G01 X56.8734 Y-69.5868 
G01 X56.8934 Y-69.5752 
G01 X56.9157 Y-69.5692 
G01 X56.9370 Y-69.5604 
G01 X56.9599 Y-69.5574 
G01 X56.9823 Y-69.5514 
G01 X57.0053 Y-69.5514 
G01 X57.0282 Y-69.5484 
G01 X57.0512 Y-69.5514 
G01 X68.5227 Y-69.5514 
G01 X68.6116 Y-69.5752 
G01 X68.6913 Y-69.6212 
G01 X68.7563 Y-69.6863 
G01 X69.2056 Y-70.1356 
G01 X70.4943 Y-70.1356 
G01 X71.4056 Y-69.2243 
G01 X71.4056 Y-67.9356 
G01 X70.4943 Y-67.0244 
G01 X69.2056 Y-67.0244 
G01 X68.7563 Y-67.4737 
G01 X68.7014 Y-67.5287 
G01 X68.6913 Y-67.5388 
G01 X68.6116 Y-67.5848 
G01 X68.5237 Y-67.6083 
G01 X57.0512 Y-67.6086 
G01 X57.0282 Y-67.6116 
G01 X57.0053 Y-67.6086 
G01 X56.9823 Y-67.6086 
G01 X56.9599 Y-67.6026 
G01 X56.9370 Y-67.5996 
G01 X56.9157 Y-67.5908 
G01 X56.8934 Y-67.5848 
G01 X56.8734 Y-67.5732 
G01 X56.8520 Y-67.5644 
G01 X56.8337 Y-67.5503 
G01 X56.8137 Y-67.5388 
G01 X56.7974 Y-67.5224 
G01 X56.7791 Y-67.5084 
G01 X56.7650 Y-67.4901 
G01 X56.7487 Y-67.4737 
G01 X56.7371 Y-67.4537 
G01 X56.7231 Y-67.4354 
G01 X56.7182 Y-67.4236 
G01 X56.5012 Y-67.2066 
G01 X56.4552 Y-67.1270 
G01 X56.4314 Y-67.0381 
G01 X56.4314 Y-66.3119 
G01 X56.4552 Y-66.2230 
G01 X56.5012 Y-66.1433 
G01 X56.5663 Y-66.0783 
G01 X56.7182 Y-65.9264 
G01 X56.8274 Y-65.6627 
G01 X56.8274 Y-63.8773 
G01 X56.7182 Y-63.6136 
G01 X56.5164 Y-63.4118 
G01 X56.2527 Y-63.3026 
G01 X54.8197 Y-63.3026 
G01 X54.7308 Y-63.2788 
G01 X54.6512 Y-63.2328 
G01 X54.5861 Y-63.1677 
G01 X54.5401 Y-63.0881 
G01 X54.5163 Y-62.9992 
G01 X54.5163 Y-62.9072 
G01 X54.5401 Y-62.8183 
G01 X54.5861 Y-62.7387 
G01 X54.6512 Y-62.6736 
G01 X55.3236 Y-62.0012 
G01 X55.4032 Y-61.9552 
G01 X55.4070 Y-61.9542 
G01 X55.4921 Y-61.9314 
G01 X58.9117 Y-61.9314 
G01 X59.0005 Y-61.9552 
G01 X59.0802 Y-62.0012 
G01 X59.1453 Y-62.0663 
G01 X59.1913 Y-62.1459 
G01 X59.2151 Y-62.2348 
G01 X59.2151 Y-62.3268 
G01 X59.1913 Y-62.4157 
G01 X59.1453 Y-62.4953 
G01 X59.0802 Y-62.5604 
G01 X58.7612 Y-62.8794 
G01 X58.5944 Y-63.2821 
G01 X58.5944 Y-63.7179 
G01 X58.7612 Y-64.1206 
G01 X59.0694 Y-64.4288 
G01 X59.4721 Y-64.5956 
G01 X59.9079 Y-64.5956 
G01 X60.1224 Y-64.5068 
G01 X60.1424 Y-64.4952 
G01 X60.1647 Y-64.4892 
G01 X60.1861 Y-64.4804 
G01 X60.2090 Y-64.4774 
G01 X60.2313 Y-64.4714 
G01 X60.2544 Y-64.4714 
G01 X60.2773 Y-64.4684 
G01 X60.3002 Y-64.4714 
G01 X62.4232 Y-64.4714 
G01 X62.7803 Y-64.3235 
G01 X63.1352 Y-63.9686 
G01 X67.8436 Y-59.2601 
G01 X68.1335 Y-58.9703 
G01 X68.2814 Y-58.6132 
G01 X68.2814 Y-53.8411 
G01 X68.3052 Y-53.7522 
G01 X68.3512 Y-53.6726 
G01 X68.3793 Y-53.6445 
G01 X70.1054 Y-51.9183 
G01 X70.1195 Y-51.9000 
G01 X70.1378 Y-51.8860 
G01 X70.1541 Y-51.8696 
G01 X70.1741 Y-51.8581 
G01 X70.1925 Y-51.8440 
G01 X70.2138 Y-51.8352 
G01 X70.2338 Y-51.8236 
G01 X70.2561 Y-51.8176 
G01 X70.4706 Y-51.7288 
G01 X70.7788 Y-51.4206 
G01 X70.9456 Y-51.0179 
G01 X70.9456 Y-50.5821 
G01 X70.7788 Y-50.1794 
G01 X70.4706 Y-49.8712 
G01 X70.4601 Y-49.8668 
G01 X70.3837 Y-49.8352 
G01 X70.3107 Y-49.7792 
G01 X70.2948 Y-49.7584 
G01 X70.2547 Y-49.7062 
G01 X70.2491 Y-49.6926 
G01 X70.2195 Y-49.6212 
G01 X70.2075 Y-49.5300 
G01 X70.2105 Y-49.5070 
G01 X70.2195 Y-49.4388 
G01 X70.2547 Y-49.3538 
G01 X70.3107 Y-49.2808 
G01 X70.3315 Y-49.2648 
G01 X70.3837 Y-49.2248 
G01 X70.3967 Y-49.2194 
G01 X70.4687 Y-49.1896 
G01 X70.7788 Y-48.8806 
G01 X70.9456 Y-48.4779 
G01 X70.9456 Y-48.0421 
G01 X70.8568 Y-47.8276 
G01 X70.8452 Y-47.8076 
G01 X70.8392 Y-47.7853 
G01 X70.8304 Y-47.7639 
G01 X70.8274 Y-47.7410 
G01 X70.8214 Y-47.7187 
G01 X70.8214 Y-47.6956 
G01 X70.8184 Y-47.6727 
G01 X70.8214 Y-47.6498 
G01 X70.8214 Y-45.4008 
G01 X70.8452 Y-45.3119 
G01 X70.8912 Y-45.2323 
G01 X70.9563 Y-45.1672 
G01 X71.0359 Y-45.1212 
G01 X71.1248 Y-45.0974 
G01 X71.1927 Y-45.0974 
G01 X71.4564 Y-44.9882 
G01 X71.6582 Y-44.7864 
G01 X71.7674 Y-44.5227 
G01 X71.7674 Y-41.8373 
G01 X71.6582 Y-41.5736 
G01 X71.4564 Y-41.3718 
G01 X71.1927 Y-41.2626 
G01 X68.5073 Y-41.2626 
G01 X68.2436 Y-41.3718 
G01 X68.0418 Y-41.5736 
G01 X67.9326 Y-41.8373 
G01 X67.9326 Y-44.5227 
G01 X68.0418 Y-44.7864 
G01 X68.2436 Y-44.9882 
G01 X68.5073 Y-45.0974 
G01 X68.5752 Y-45.0974 
G01 X68.6641 Y-45.1212 
G01 X68.7437 Y-45.1672 
G01 X68.8088 Y-45.2323 
G01 X68.8548 Y-45.3119 
G01 X68.8786 Y-45.4008 
G01 X68.8786 Y-47.6498 
G01 X68.8816 Y-47.6727 
G01 X68.8786 Y-47.6956 
G01 X68.8786 Y-47.7187 
G01 X68.8726 Y-47.7410 
G01 X68.8696 Y-47.7639 
G01 X68.8608 Y-47.7853 
G01 X68.8548 Y-47.8076 
G01 X68.8432 Y-47.8276 
G01 X68.7544 Y-48.0421 
G01 X68.7544 Y-48.4779 
G01 X68.9212 Y-48.8806 
G01 X69.2294 Y-49.1888 
G01 X69.3014 Y-49.2186 
G01 X69.3163 Y-49.2248 
G01 X69.3658 Y-49.2628 
G01 X69.3893 Y-49.2808 
G01 X69.4453 Y-49.3538 
G01 X69.4805 Y-49.4388 
G01 X69.4892 Y-49.5050 
G01 X69.4925 Y-49.5300 
G01 X69.4805 Y-49.6212 
G01 X69.4517 Y-49.6906 
G01 X69.4453 Y-49.7062 
G01 X69.4073 Y-49.7557 
G01 X69.3893 Y-49.7792 
G01 X69.3163 Y-49.8352 
G01 X69.2430 Y-49.8656 
G01 X69.2313 Y-49.8704 
G01 X68.9212 Y-50.1794 
G01 X68.8324 Y-50.3939 
G01 X68.8264 Y-50.4162 
G01 X68.8148 Y-50.4362 
G01 X68.8060 Y-50.4575 
G01 X68.7919 Y-50.4758 
G01 X68.7804 Y-50.4958 
G01 X68.7640 Y-50.5122 
G01 X68.7500 Y-50.5305 
G01 X68.7317 Y-50.5446 
G01 X66.7764 Y-52.4999 
G01 X66.4865 Y-52.7897 
G01 X66.3386 Y-53.1468 
G01 X66.3386 Y-57.9189 
G01 X66.3148 Y-58.0078 
G01 X66.2688 Y-58.0874 
G01 X66.2508 Y-58.1055 
G01 X65.1764 Y-59.1798 
G01 X65.1294 Y-59.2269 
G01 X65.1113 Y-59.2449 
G01 X65.0317 Y-59.2909 
G01 X64.9438 Y-59.3144 
G01 X64.8508 Y-59.3147 
G01 X64.7619 Y-59.2909 
G01 X64.6823 Y-59.2449 
G01 X64.6172 Y-59.1798 
G01 X64.5712 Y-59.1002 
G01 X64.5477 Y-59.0123 
G01 X64.5474 Y-57.4773 
G01 X64.4382 Y-57.2136 
G01 X64.2364 Y-57.0118 
G01 X64.2255 Y-57.0073 
G01 X64.2031 Y-57.0013 
G01 X64.1831 Y-56.9898 
G01 X64.1618 Y-56.9809 
G01 X64.1435 Y-56.9669 
G01 X64.1235 Y-56.9553 
G01 X64.1071 Y-56.9390 
G01 X64.0888 Y-56.9249 
G01 X64.0747 Y-56.9066 
G01 X64.0584 Y-56.8903 
G01 X64.0469 Y-56.8702 
G01 X64.0328 Y-56.8519 
G01 X64.0240 Y-56.8306 
G01 X64.0124 Y-56.8106 
G01 X64.0064 Y-56.7883 
G01 X63.9976 Y-56.7669 
G01 X63.9946 Y-56.7440 
G01 X63.9886 Y-56.7217 
G01 X63.9886 Y-56.6986 
G01 X63.9856 Y-56.6757 
G01 X63.9886 Y-56.6528 
G01 X63.9886 Y-56.3004 
G01 X63.9254 Y-56.3004 
G01 X63.9254 Y-56.6990 
G01 X63.9109 Y-56.7340 
G01 X63.8840 Y-56.7609 
G01 X63.8490 Y-56.7754 
G01 X62.5110 Y-56.7754 
G01 X62.4760 Y-56.7609 
G01 X62.4491 Y-56.7340 
G01 X62.4346 Y-56.6990 
G01 X62.4346 Y-55.0610 
G01 X62.4491 Y-55.0260 
G01 X62.4760 Y-54.9991 
G01 X62.5110 Y-54.9846 
G01 X62.7596 Y-54.9846 
G01 X62.7596 Y-54.2354 
G01 X62.5110 Y-54.2354 
G01 X62.4760 Y-54.2209 
G01 X62.4491 Y-54.1940 
G01 X62.4346 Y-54.1590 
G01 X62.4346 Y-52.5210 
G01 X62.4491 Y-52.4860 
G01 X62.4760 Y-52.4591 
G01 X62.5110 Y-52.4446 
G01 X62.7596 Y-52.4446 
G01 X62.7596 Y-52.2541 
G01 X62.7521 Y-52.2465 
G01 X62.7405 Y-52.2265 
G01 X62.7264 Y-52.2082 
G01 X62.7176 Y-52.1869 
G01 X62.7061 Y-52.1669 
G01 X62.7001 Y-52.1446 
G01 X62.6912 Y-52.1232 
G01 X62.6882 Y-52.1003 
G01 X62.6823 Y-52.0780 
G01 X62.6823 Y-52.0549 
G01 X62.6792 Y-52.0320 
G01 X62.6822 Y-52.0091 
G01 X62.6822 Y-51.9860 
G01 X62.6882 Y-51.9637 
G01 X62.6912 Y-51.9408 
G01 X62.7001 Y-51.9195 
G01 X62.7061 Y-51.8971 
G01 X62.7176 Y-51.8771 
G01 X62.7264 Y-51.8558 
G01 X62.7405 Y-51.8375 
G01 X62.7520 Y-51.8175 
G01 X62.7684 Y-51.8011 
G01 X62.7825 Y-51.7828 
G01 X62.8008 Y-51.7687 
G01 X62.8171 Y-51.7524 
G01 X62.8371 Y-51.7409 
G01 X62.8433 Y-51.7361 
G01 X63.1588 Y-51.4206 
G01 X63.3256 Y-51.0179 
G01 X63.3256 Y-50.5821 
G01 X63.2368 Y-50.3676 
G01 X63.2252 Y-50.3476 
G01 X63.2192 Y-50.3253 
G01 X63.2104 Y-50.3039 
G01 X63.2074 Y-50.2810 
G01 X63.2014 Y-50.2587 
G01 X63.2014 Y-50.2356 
G01 X63.1984 Y-50.2127 
G01 X63.2014 Y-50.1898 
G01 X63.2014 Y-48.0658 
G01 X63.2252 Y-47.9770 
G01 X63.2712 Y-47.8973 
G01 X63.3363 Y-47.8322 
G01 X63.6078 Y-47.5607 
G01 X63.6078 Y-46.4193 
G01 X62.8007 Y-45.6122 
G01 X61.6593 Y-45.6122 
G01 X60.8522 Y-46.4193 
G01 X60.8522 Y-47.5607 
G01 X61.1888 Y-47.8973 
G01 X61.2348 Y-47.9770 
G01 X61.2586 Y-48.0658 
G01 X61.2586 Y-49.5252 
G01 X61.2348 Y-49.6141 
G01 X61.1888 Y-49.6937 
G01 X61.1237 Y-49.7588 
G01 X61.0441 Y-49.8048 
G01 X60.9552 Y-49.8286 
G01 X58.7773 Y-49.8286 
G01 X58.7545 Y-49.8225 
G01 X58.6884 Y-49.8048 
G01 X58.6088 Y-49.7588 
G01 X58.5437 Y-49.6937 
G01 X58.4977 Y-49.6141 
G01 X58.4739 Y-49.5252 
G01 X58.4739 Y-49.4332 
G01 X58.4800 Y-49.4104 
G01 X58.4977 Y-49.3443 
G01 X58.5437 Y-49.2647 
G01 X58.6088 Y-49.1996 
G01 X58.7149 Y-49.0935 
G01 X58.9389 Y-48.5527 
G01 X58.9389 Y-47.9673 
G01 X58.7149 Y-47.4265 
G01 X58.5580 Y-47.2696 
G01 X58.4929 Y-47.2045 
G01 X58.4469 Y-47.1249 
G01 X58.4231 Y-47.0360 
G01 X58.4231 Y-46.9440 
G01 X58.4469 Y-46.8551 
G01 X58.4929 Y-46.7755 
G01 X58.7149 Y-46.5535 
G01 X58.9389 Y-46.0127 
G01 X58.9389 Y-45.4273 
G01 X58.7149 Y-44.8865 
G01 X58.5580 Y-44.7296 
G01 X58.4976 Y-44.6693 
G01 X58.4929 Y-44.6645 
G01 X58.4469 Y-44.5849 
G01 X58.4235 Y-44.4974 
G01 X58.4231 Y-44.4040 
G01 X58.4469 Y-44.3151 
G01 X58.4919 Y-44.2372 
G01 X58.5580 Y-44.1704 
G01 X58.7149 Y-44.0135 
G01 X58.9389 Y-43.4727 
G01 X58.9389 Y-42.8873 
G01 X58.7149 Y-42.3465 
G01 X58.5580 Y-42.1896 
G01 X58.4976 Y-42.1293 
G01 X58.4929 Y-42.1245 
G01 X58.4469 Y-42.0449 
G01 X58.4235 Y-41.9574 
G01 X58.4231 Y-41.8640 
G01 X58.4469 Y-41.7751 
G01 X58.4919 Y-41.6972 
G01 X58.5580 Y-41.6304 
G01 X58.7149 Y-41.4735 
G01 X58.9389 Y-40.9327 
G01 X58.9389 Y-40.3473 
G01 X58.7149 Y-39.8065 
G01 X58.3010 Y-39.3926 
G01 X58.2145 Y-39.3568 
G01 X58.1922 Y-39.3508 
G01 X58.1722 Y-39.3392 
G01 X58.1508 Y-39.3304 
G01 X58.1325 Y-39.3163 
G01 X58.1125 Y-39.3048 
G01 X58.0962 Y-39.2885 
G01 X58.0778 Y-39.2744 
G01 X58.0638 Y-39.2561 
G01 X58.0474 Y-39.2397 
G01 X58.0359 Y-39.2197 
G01 X58.0218 Y-39.2014 
G01 X58.0130 Y-39.1801 
G01 X58.0014 Y-39.1601 
G01 X57.9955 Y-39.1378 
G01 X57.9866 Y-39.1164 
G01 X57.9836 Y-39.0935 
G01 X57.9776 Y-39.0712 
G01 X57.9776 Y-39.0481 
G01 X57.9746 Y-39.0252 
G01 X57.9776 Y-39.0023 
G01 X57.9776 Y-38.9792 
G01 X57.9836 Y-38.9569 
G01 X57.9866 Y-38.9340 
G01 X57.9955 Y-38.9127 
G01 X58.0014 Y-38.8903 
G01 X58.0130 Y-38.8703 
G01 X58.0218 Y-38.8490 
G01 X58.0359 Y-38.8307 
G01 X58.0474 Y-38.8107 
G01 X58.0638 Y-38.7943 
G01 X58.0778 Y-38.7760 
G01 X58.0962 Y-38.7620 
G01 X58.1636 Y-38.6945 
G01 X58.2480 Y-38.5783 
G01 X58.3132 Y-38.4503 
G01 X58.2422 Y-38.4494 
G01 X58.2202 Y-38.5023 
G01 X58.1273 Y-38.6415 
G01 X58.0090 Y-38.7598 
G01 X57.8698 Y-38.8527 
G01 X57.7153 Y-38.9168 
G01 X57.5512 Y-38.9494 
G01 X57.3838 Y-38.9494 
G01 X57.2197 Y-38.9168 
G01 X57.0652 Y-38.8527 
G01 X56.9260 Y-38.7598 
G01 X56.8077 Y-38.6415 
G01 X56.7148 Y-38.5023 
G01 X56.6928 Y-38.4494 
G01 X56.6215 Y-38.4494 
G01 X56.6870 Y-38.5783 
G01 X56.7714 Y-38.6945 
G01 X56.8388 Y-38.7620 
G01 X56.8572 Y-38.7760 
G01 X56.8712 Y-38.7943 
G01 X56.8876 Y-38.8107 
G01 X56.8991 Y-38.8307 
G01 X56.9132 Y-38.8490 
G01 X56.9220 Y-38.8703 
G01 X56.9336 Y-38.8903 
G01 X56.9395 Y-38.9127 
G01 X56.9484 Y-38.9340 
G01 X56.9514 Y-38.9569 
G01 X56.9574 Y-38.9792 
G01 X56.9574 Y-39.0023 
G01 X56.9604 Y-39.0252 
G01 X56.9574 Y-39.0481 
G01 X56.9574 Y-39.0712 
G01 X56.9514 Y-39.0935 
G01 X56.9484 Y-39.1164 
G01 X56.9395 Y-39.1378 
G01 X56.9336 Y-39.1601 
G01 X56.9220 Y-39.1801 
G01 X56.9132 Y-39.2014 
G01 X56.8991 Y-39.2197 
G01 X56.8876 Y-39.2397 
G01 X56.8712 Y-39.2561 
G01 X56.8572 Y-39.2744 
G01 X56.8388 Y-39.2885 
G01 X56.8225 Y-39.3048 
G01 X56.8025 Y-39.3163 
G01 X56.7842 Y-39.3304 
G01 X56.7628 Y-39.3392 
G01 X56.7428 Y-39.3508 
G01 X56.7205 Y-39.3568 
G01 X56.6340 Y-39.3926 
G01 X56.4278 Y-39.5988 
G01 X56.3482 Y-39.6448 
G01 X56.2593 Y-39.6686 
G01 X55.2202 Y-39.6686 
G01 X55.1973 Y-39.6716 
G01 X55.1744 Y-39.6686 
G01 X55.1513 Y-39.6686 
G01 X55.1290 Y-39.6626 
G01 X55.1061 Y-39.6596 
G01 X55.0847 Y-39.6508 
G01 X55.0624 Y-39.6448 
G01 X55.0424 Y-39.6332 
G01 X54.8279 Y-39.5444 
G01 X54.3921 Y-39.5444 
G01 X54.1776 Y-39.6332 
G01 X54.1576 Y-39.6448 
G01 X54.1353 Y-39.6508 
G01 X54.1139 Y-39.6596 
G01 X54.0910 Y-39.6626 
G01 X54.0687 Y-39.6686 
G01 X54.0456 Y-39.6686 
G01 X54.0227 Y-39.6716 
G01 X53.9998 Y-39.6686 
G01 X53.8411 Y-39.6686 
G01 X53.7687 Y-39.6492 
G01 X53.7522 Y-39.6448 
G01 X53.7146 Y-39.6231 
G01 X53.6726 Y-39.5988 
G01 X53.6135 Y-39.5397 
G01 X53.5491 Y-39.4753 
G01 X53.5153 Y-39.4172 
G01 X53.5024 Y-39.3950 
G01 X53.4915 Y-39.3543 
G01 X53.4786 Y-39.3061 
G01 X53.4786 Y-39.2141 
G01 X53.4880 Y-39.1789 
G01 X53.5024 Y-39.1253 
G01 X53.5484 Y-39.0456 
G01 X53.6125 Y-38.9815 
G01 X53.6693 Y-38.9483 
G01 X53.6931 Y-38.9345 
G01 X53.9074 Y-38.8108 
G01 X54.3683 Y-38.3499 
G01 X54.6942 Y-37.7855 
G01 X54.8629 Y-37.1559 
G01 X54.8629 Y-36.5041 
G01 X54.6942 Y-35.8745 
G01 X54.3683 Y-35.3101 
G01 X53.9074 Y-34.8492 
G01 X53.3430 Y-34.5233 
G01 X52.7134 Y-34.3546 
G01 X52.0616 Y-34.3546 
G01 X51.4320 Y-34.5233 
G01 X50.8676 Y-34.8492 
G01 X50.4067 Y-35.3101 
G01 X50.0808 Y-35.8745 
G01 X49.9121 Y-36.5041 
G01 X49.9121 Y-36.8252 
G01 X49.8883 Y-36.9141 
G01 X49.8423 Y-36.9937 
G01 X49.7772 Y-37.0588 
G01 X49.6976 Y-37.1048 
G01 X49.6087 Y-37.1286 
G01 X48.2095 Y-37.1286 
G01 X48.1206 Y-37.1048 
G01 X48.0410 Y-37.0588 
G01 X47.9759 Y-36.9937 
G01 X47.8280 Y-36.8458 
G01 X47.7511 Y-36.8140 
G01 X47.7288 Y-36.8080 
G01 X47.7088 Y-36.7964 
G01 X47.6874 Y-36.7876 
G01 X47.6691 Y-36.7735 
G01 X47.6491 Y-36.7620 
G01 X47.6328 Y-36.7456 
G01 X47.6145 Y-36.7316 
G01 X47.6004 Y-36.7133 
G01 X47.5841 Y-36.6969 
G01 X47.5725 Y-36.6769 
G01 X47.5584 Y-36.6586 
G01 X47.5496 Y-36.6373 
G01 X47.5381 Y-36.6173 
G01 X47.5321 Y-36.5949 
G01 X47.5232 Y-36.5736 
G01 X47.5202 Y-36.5507 
G01 X47.5142 Y-36.5284 
G01 X47.5142 Y-36.5053 
G01 X47.5112 Y-36.4824 
G01 X47.5142 Y-36.4595 
G01 X47.5142 Y-36.4364 
G01 X47.5202 Y-36.4141 
G01 X47.5232 Y-36.3912 
G01 X47.5321 Y-36.3699 
G01 X47.5381 Y-36.3475 
G01 X47.5496 Y-36.3275 
G01 X47.5584 Y-36.3062 
G01 X47.5725 Y-36.2879 
G01 X47.5841 Y-36.2679 
G01 X47.6004 Y-36.2515 
G01 X47.6144 Y-36.2332 
G01 X47.6328 Y-36.2191 
G01 X47.6922 Y-36.1597 
G01 X47.7774 Y-36.0425 
G01 X47.8432 Y-35.9134 
G01 X47.8444 Y-35.9094 
G01 X47.7733 Y-35.9094 
G01 X47.7498 Y-35.9661 
G01 X47.6560 Y-36.1066 
G01 X47.5366 Y-36.2260 
G01 X47.3961 Y-36.3198 
G01 X47.2401 Y-36.3844 
G01 X47.0744 Y-36.4174 
G01 X46.9055 Y-36.4174 
G01 X46.7399 Y-36.3844 
G01 X46.5839 Y-36.3198 
G01 X46.4434 Y-36.2260 
G01 X46.3240 Y-36.1066 
G01 X46.2302 Y-35.9661 
G01 X46.1656 Y-35.8101 
G01 X46.1326 Y-35.6444 
G01 X46.1326 Y-35.4755 
G01 X46.1656 Y-35.3099 
G01 X46.2302 Y-35.1539 
G01 X46.3240 Y-35.0134 
G01 X46.4434 Y-34.8940 
G01 X46.5839 Y-34.8002 
G01 X46.6406 Y-34.7767 
G01 X46.6406 Y-34.7056 
G01 X46.6366 Y-34.7068 
G01 X46.5075 Y-34.7726 
G01 X46.4933 Y-34.7865 
G01 X46.4694 Y-34.8003 
G01 X46.4470 Y-34.8166 
G01 X46.4297 Y-34.8232 
G01 X46.4137 Y-34.8325 
G01 X46.3869 Y-34.8397 
G01 X46.3611 Y-34.8496 
G01 X46.3427 Y-34.8515 
G01 X46.3248 Y-34.8563 
G01 X46.2971 Y-34.8563 
G01 X46.2696 Y-34.8592 
G01 X46.2513 Y-34.8563 
G01 X46.2328 Y-34.8563 
G01 X46.2060 Y-34.8491 
G01 X46.1787 Y-34.8448 
G01 X46.1618 Y-34.8373 
G01 X46.1439 Y-34.8325 
G01 X46.1200 Y-34.8187 
G01 X46.0947 Y-34.8074 
G01 X46.0803 Y-34.7958 
G01 X46.0643 Y-34.7865 
G01 X46.0447 Y-34.7669 
G01 X46.0232 Y-34.7495 
G01 X46.0123 Y-34.7345 
G01 X45.9992 Y-34.7214 
G01 X45.9854 Y-34.6975 
G01 X45.9691 Y-34.6751 
G01 X45.9625 Y-34.6578 
G01 X45.9532 Y-34.6418 
G01 X45.9460 Y-34.6150 
G01 X45.9361 Y-34.5892 
G01 X45.9342 Y-34.5708 
G01 X45.9294 Y-34.5529 
G01 X45.9294 Y-34.5252 
G01 X45.9265 Y-34.4977 
G01 X45.7042 Y-33.9600 
G01 X45.2880 Y-33.5438 
G01 X44.9027 Y-33.3842 
G01 X44.8804 Y-33.3782 
G01 X44.8604 Y-33.3667 
G01 X44.8390 Y-33.3578 
G01 X44.8207 Y-33.3438 
G01 X44.8007 Y-33.3322 
G01 X44.7844 Y-33.3159 
G01 X44.7660 Y-33.3018 
G01 X44.7520 Y-33.2835 
G01 X44.7356 Y-33.2672 
G01 X44.7241 Y-33.2472 
G01 X44.7100 Y-33.2289 
G01 X44.7012 Y-33.2075 
G01 X44.6896 Y-33.1875 
G01 X44.6837 Y-33.1652 
G01 X44.6748 Y-33.1439 
G01 X44.6718 Y-33.1210 
G01 X44.6658 Y-33.0986 
G01 X44.6658 Y-33.0755 
G01 X44.6628 Y-33.0526 
G01 X44.6658 Y-33.0297 
G01 X44.6658 Y-33.0066 
G01 X44.6718 Y-32.9843 
G01 X44.6748 Y-32.9614 
G01 X44.6837 Y-32.9401 
G01 X44.6896 Y-32.9178 
G01 X44.7012 Y-32.8978 
G01 X44.7100 Y-32.8764 
G01 X44.7241 Y-32.8581 
G01 X44.7356 Y-32.8381 
G01 X44.7520 Y-32.8218 
G01 X44.7660 Y-32.8035 
G01 X44.7844 Y-32.7894 
G01 X48.7936 Y-28.7801 
G01 X49.0835 Y-28.4902 
G01 X49.2314 Y-28.1332 
G01 X49.2314 Y-24.6311 
G01 X49.2552 Y-24.5422 
G01 X49.3012 Y-24.4626 
G01 X49.3663 Y-24.3975 
G01 X49.8626 Y-23.9012 
G01 X49.9422 Y-23.8552 
G01 X50.0311 Y-23.8314 
G01 X50.7781 Y-23.8314 
G01 X50.8010 Y-23.8284 
G01 X50.8239 Y-23.8314 
G01 X50.8470 Y-23.8314 
G01 X50.8693 Y-23.8374 
G01 X50.8922 Y-23.8404 
G01 X50.9136 Y-23.8492 
G01 X50.9359 Y-23.8552 
G01 X50.9559 Y-23.8668 
G01 X50.9772 Y-23.8756 
G01 X50.9956 Y-23.8897 
G01 X51.0156 Y-23.9012 
G01 X51.0319 Y-23.9175 
G01 X51.0502 Y-23.9316 
G01 X51.0643 Y-23.9499 
G01 X51.0806 Y-23.9663 
G01 X51.0922 Y-23.9863 
G01 X51.1062 Y-24.0046 
G01 X51.1151 Y-24.0259 
G01 X51.1266 Y-24.0459 
G01 X51.1322 Y-24.0667 
G01 X51.3336 Y-24.2682 
G01 X51.5973 Y-24.3774 
G01 X53.1827 Y-24.3774 
G01 X53.1864 Y-24.3759 
G01 X53.2488 Y-24.3500 
G01 X53.3400 Y-24.3380 
G01 X53.3750 Y-24.3426 
G01 X53.4312 Y-24.3500 
G01 X53.4973 Y-24.3774 
G01 X54.3349 Y-24.3774 
G01 X54.4238 Y-24.4012 
G01 X54.5034 Y-24.4472 
G01 X54.5685 Y-24.5123 
G01 X56.1088 Y-26.0526 
G01 X56.1548 Y-26.1322 
G01 X56.1786 Y-26.2211 
G01 X56.1786 Y-27.2285 
G01 X56.1548 Y-27.3173 
G01 X56.1088 Y-27.3970 
G01 X56.0437 Y-27.4621 
G01 X55.8958 Y-27.6100 
G01 X55.8640 Y-27.6869 
G01 X55.8580 Y-27.7092 
G01 X55.8464 Y-27.7292 
G01 X55.8376 Y-27.7506 
G01 X55.8235 Y-27.7689 
G01 X55.8120 Y-27.7889 
G01 X55.7956 Y-27.8052 
G01 X55.7816 Y-27.8235 
G01 X55.7633 Y-27.8376 
G01 X55.7469 Y-27.8539 
G01 X55.7269 Y-27.8655 
G01 X55.7086 Y-27.8795 
G01 X55.6873 Y-27.8884 
G01 X55.6673 Y-27.8999 
G01 X55.6450 Y-27.9059 
G01 X55.6236 Y-27.9148 
G01 X55.6007 Y-27.9178 
G01 X55.5784 Y-27.9237 
G01 X55.5553 Y-27.9237 
G01 X55.5324 Y-27.9268 
G01 X55.5095 Y-27.9237 
G01 X55.4864 Y-27.9237 
G01 X55.4641 Y-27.9178 
G01 X55.4412 Y-27.9148 
G01 X55.4198 Y-27.9059 
G01 X55.3975 Y-27.8999 
G01 X55.3775 Y-27.8884 
G01 X55.3562 Y-27.8796 
G01 X55.3379 Y-27.8655 
G01 X55.3179 Y-27.8539 
G01 X55.3015 Y-27.8376 
G01 X55.2832 Y-27.8236 
G01 X55.2692 Y-27.8052 
G01 X55.2097 Y-27.7458 
G01 X55.0925 Y-27.6606 
G01 X54.9634 Y-27.5948 
G01 X54.9594 Y-27.5936 
G01 X54.9594 Y-27.6647 
G01 X55.0161 Y-27.6882 
G01 X55.1566 Y-27.7820 
G01 X55.2760 Y-27.9014 
G01 X55.3698 Y-28.0419 
G01 X55.4344 Y-28.1979 
G01 X55.4674 Y-28.3636 
G01 X55.4674 Y-30.0564 
G01 X55.4344 Y-30.2221 
G01 X55.3698 Y-30.3781 
G01 X55.2760 Y-30.5186 
G01 X55.1566 Y-30.6380 
G01 X55.0161 Y-30.7318 
G01 X54.9594 Y-30.7553 
G01 X54.9594 Y-30.8264 
G01 X54.9634 Y-30.8252 
G01 X55.0925 Y-30.7594 
G01 X55.2097 Y-30.6742 
G01 X55.2692 Y-30.6148 
G01 X55.2832 Y-30.5964 
G01 X55.3015 Y-30.5824 
G01 X55.3179 Y-30.5661 
G01 X55.3379 Y-30.5545 
G01 X55.3562 Y-30.5404 
G01 X55.3775 Y-30.5316 
G01 X55.3975 Y-30.5201 
G01 X55.4198 Y-30.5141 
G01 X55.4412 Y-30.5052 
G01 X55.4641 Y-30.5022 
G01 X55.4864 Y-30.4962 
G01 X55.5095 Y-30.4962 
G01 X55.5324 Y-30.4932 
G01 X55.5553 Y-30.4962 
G01 X55.5784 Y-30.4962 
G01 X55.6007 Y-30.5022 
G01 X55.6236 Y-30.5052 
G01 X55.6450 Y-30.5141 
G01 X55.6673 Y-30.5201 
G01 X55.6873 Y-30.5316 
G01 X55.7086 Y-30.5404 
G01 X55.7269 Y-30.5545 
G01 X55.7469 Y-30.5661 
G01 X55.7633 Y-30.5824 
G01 X55.7816 Y-30.5965 
G01 X55.7956 Y-30.6148 
G01 X55.8120 Y-30.6311 
G01 X55.8235 Y-30.6511 
G01 X55.8376 Y-30.6694 
G01 X55.8464 Y-30.6908 
G01 X55.8580 Y-30.7108 
G01 X55.8640 Y-30.7331 
G01 X55.8958 Y-30.8100 
G01 X56.1088 Y-31.0230 
G01 X56.1548 Y-31.1026 
G01 X56.1786 Y-31.1915 
G01 X56.1786 Y-32.4098 
G01 X56.1816 Y-32.4327 
G01 X56.1786 Y-32.4556 
G01 X56.1786 Y-32.4787 
G01 X56.1726 Y-32.5010 
G01 X56.1696 Y-32.5239 
G01 X56.1608 Y-32.5453 
G01 X56.1548 Y-32.5676 
G01 X56.1432 Y-32.5876 
G01 X56.0544 Y-32.8021 
G01 X56.0544 Y-33.2379 
G01 X56.1432 Y-33.4524 
G01 X56.1548 Y-33.4724 
G01 X56.1608 Y-33.4947 
G01 X56.1696 Y-33.5161 
G01 X56.1726 Y-33.5390 
G01 X56.1786 Y-33.5613 
G01 X56.1786 Y-33.5844 
G01 X56.1816 Y-33.6073 
G01 X56.1786 Y-33.6302 
G01 X56.1786 Y-34.7343 
G01 X56.1816 Y-34.7572 
G01 X56.1786 Y-34.7801 
G01 X56.1786 Y-34.8032 
G01 X56.1726 Y-34.8255 
G01 X56.1696 Y-34.8484 
G01 X56.1608 Y-34.8698 
G01 X56.1548 Y-34.8921 
G01 X56.1432 Y-34.9121 
G01 X55.9961 Y-35.2673 
G01 X55.9961 Y-35.8527 
G01 X56.2201 Y-36.3935 
G01 X56.6340 Y-36.8074 
G01 X56.7205 Y-36.8432 
G01 X56.7428 Y-36.8492 
G01 X56.7629 Y-36.8608 
G01 X56.7842 Y-36.8696 
G01 X56.8025 Y-36.8836 
G01 X56.8225 Y-36.8952 
G01 X56.8388 Y-36.9115 
G01 X56.8572 Y-36.9256 
G01 X56.8712 Y-36.9439 
G01 X56.8876 Y-36.9603 
G01 X56.8991 Y-36.9803 
G01 X56.9132 Y-36.9986 
G01 X56.9220 Y-37.0199 
G01 X56.9336 Y-37.0399 
G01 X56.9395 Y-37.0622 
G01 X56.9484 Y-37.0836 
G01 X56.9514 Y-37.1065 
G01 X56.9574 Y-37.1288 
G01 X56.9574 Y-37.1519 
G01 X56.9604 Y-37.1748 
G01 X56.9574 Y-37.1977 
G01 X56.9574 Y-37.2208 
G01 X56.9514 Y-37.2431 
G01 X56.9484 Y-37.2660 
G01 X56.9395 Y-37.2873 
G01 X56.9336 Y-37.3096 
G01 X56.9220 Y-37.3297 
G01 X56.9132 Y-37.3510 
G01 X56.8991 Y-37.3693 
G01 X56.8876 Y-37.3893 
G01 X56.8712 Y-37.4057 
G01 X56.8572 Y-37.4240 
G01 X56.8388 Y-37.4380 
G01 X56.7714 Y-37.5055 
G01 X56.6870 Y-37.6217 
G01 X56.6218 Y-37.7497 
G01 X56.6928 Y-37.7506 
G01 X56.7148 Y-37.6977 
G01 X56.8077 Y-37.5585 
G01 X56.9260 Y-37.4402 
G01 X57.0652 Y-37.3473 
G01 X57.2197 Y-37.2832 
G01 X57.3838 Y-37.2506 
G01 X57.5512 Y-37.2506 
G01 X57.7153 Y-37.2832 
G01 X57.8698 Y-37.3473 
G01 X58.0090 Y-37.4402 
G01 X58.1273 Y-37.5585 
G01 X58.2202 Y-37.6977 
G01 X58.2421 Y-37.7506 
G01 X58.3135 Y-37.7506 
G01 X58.2480 Y-37.6217 
G01 X58.1636 Y-37.5055 
G01 X58.0961 Y-37.4380 
G01 X58.0778 Y-37.4240 
G01 X58.0638 Y-37.4057 
G01 X58.0474 Y-37.3893 
G01 X58.0359 Y-37.3693 
G01 X58.0218 Y-37.3510 
G01 X58.0130 Y-37.3297 
G01 X58.0014 Y-37.3096 
G01 X57.9955 Y-37.2873 
G01 X57.9866 Y-37.2660 
G01 X57.9836 Y-37.2431 
G01 X57.9776 Y-37.2208 
G01 X57.9776 Y-37.1977 
G01 X57.9746 Y-37.1748 
G01 X57.9776 Y-37.1519 
G01 X57.9776 Y-37.1288 
G01 X57.9836 Y-37.1065 
G01 X57.9866 Y-37.0836 
G01 X57.9955 Y-37.0622 
G01 X58.0014 Y-37.0399 
G01 X58.0130 Y-37.0199 
G01 X58.0218 Y-36.9986 
G01 X58.0359 Y-36.9803 
G01 X58.0474 Y-36.9603 
G01 X58.0638 Y-36.9439 
G01 X58.0778 Y-36.9256 
G01 X58.0962 Y-36.9115 
G01 X58.1125 Y-36.8952 
G01 X58.1325 Y-36.8836 
G01 X58.1508 Y-36.8696 
G01 X58.1721 Y-36.8608 
G01 X58.1922 Y-36.8492 
G01 X58.2145 Y-36.8432 
G01 X58.3010 Y-36.8074 
G01 X58.7149 Y-36.3935 
G01 X58.9389 Y-35.8527 
G01 X58.9389 Y-35.2673 
G01 X58.7149 Y-34.7265 
G01 X58.3010 Y-34.3126 
G01 X58.2946 Y-34.3100 
G01 X58.2763 Y-34.2959 
G01 X58.2563 Y-34.2844 
G01 X58.2399 Y-34.2680 
G01 X58.2216 Y-34.2540 
G01 X58.2076 Y-34.2356 
G01 X58.1912 Y-34.2193 
G01 X58.1797 Y-34.1993 
G01 X58.1656 Y-34.1810 
G01 X58.1568 Y-34.1596 
G01 X58.1452 Y-34.1396 
G01 X58.1392 Y-34.1173 
G01 X58.1304 Y-34.0960 
G01 X58.1274 Y-34.0731 
G01 X58.1214 Y-34.0508 
G01 X58.1214 Y-34.0277 
G01 X58.1184 Y-34.0048 
G01 X58.1214 Y-33.9819 
G01 X58.1214 Y-33.6302 
G01 X58.1184 Y-33.6073 
G01 X58.1214 Y-33.5844 
G01 X58.1214 Y-33.5613 
G01 X58.1274 Y-33.5390 
G01 X58.1304 Y-33.5161 
G01 X58.1392 Y-33.4947 
G01 X58.1452 Y-33.4724 
G01 X58.1568 Y-33.4524 
G01 X58.2456 Y-33.2379 
G01 X58.2456 Y-32.8021 
G01 X58.1568 Y-32.5876 
G01 X58.1452 Y-32.5676 
G01 X58.1392 Y-32.5453 
G01 X58.1304 Y-32.5239 
G01 X58.1274 Y-32.5010 
G01 X58.1214 Y-32.4787 
G01 X58.1214 Y-32.4556 
G01 X58.1184 Y-32.4327 
G01 X58.1214 Y-32.4098 
G01 X58.1214 Y-31.1915 
G01 X58.1452 Y-31.1026 
G01 X58.1912 Y-31.0230 
G01 X58.2563 Y-30.9579 
G01 X58.4042 Y-30.8100 
G01 X58.6294 Y-30.2663 
G01 X58.6294 Y-28.1537 
G01 X58.4042 Y-27.6100 
G01 X58.1912 Y-27.3970 
G01 X58.1452 Y-27.3173 
G01 X58.1214 Y-27.2285 
G01 X58.1214 Y-25.5268 
G01 X57.9735 Y-25.1697 
G01 X55.7272 Y-22.9234 
G01 X55.6812 Y-22.8438 
G01 X55.6574 Y-22.7549 
G01 X55.6574 Y-21.9173 
G01 X55.5482 Y-21.6536 
G01 X55.3464 Y-21.4518 
G01 X55.0827 Y-21.3426 
G01 X53.4973 Y-21.3426 
G01 X53.4312 Y-21.3700 
G01 X53.3770 Y-21.3771 
G01 X53.3400 Y-21.3820 
G01 X53.2488 Y-21.3700 
G01 X53.1876 Y-21.3446 
G01 X53.1827 Y-21.3426 
G01 X51.5973 Y-21.3426 
G01 X51.3336 Y-21.4518 
G01 X51.1322 Y-21.6532 
G01 X51.1266 Y-21.6741 
G01 X51.1151 Y-21.6941 
G01 X51.1062 Y-21.7154 
G01 X51.0922 Y-21.7337 
G01 X51.0806 Y-21.7537 
G01 X51.0643 Y-21.7701 
G01 X51.0502 Y-21.7884 
G01 X51.0319 Y-21.8025 
G01 X51.0156 Y-21.8188 
G01 X50.9956 Y-21.8303 
G01 X50.9772 Y-21.8444 
G01 X50.9559 Y-21.8532 
G01 X50.9359 Y-21.8648 
G01 X50.9136 Y-21.8708 
G01 X50.8922 Y-21.8796 
G01 X50.8693 Y-21.8826 
G01 X50.8470 Y-21.8886 
G01 X50.8239 Y-21.8886 
G01 X50.8010 Y-21.8916 
G01 X50.7781 Y-21.8886 
G01 X50.6016 Y-21.8886 
G01 X50.5127 Y-21.8648 
G01 X50.4331 Y-21.8188 
G01 X50.3680 Y-21.7537 
G01 X50.3220 Y-21.6741 
G01 X50.2982 Y-21.5852 
G01 X50.2982 Y-21.3159 
G01 X50.0884 Y-20.8095 
G01 X49.9293 Y-20.6504 
G01 X49.8690 Y-20.5901 
G01 X49.8642 Y-20.5853 
G01 X49.8182 Y-20.5057 
G01 X49.7948 Y-20.4182 
G01 X49.7944 Y-20.3248 
G01 X49.8182 Y-20.2359 
G01 X49.8632 Y-20.1580 
G01 X49.9293 Y-20.0912 
G01 X50.0090 Y-20.0452 
G01 X50.0964 Y-20.0218 
G01 X50.1898 Y-20.0214 
G01 X50.2127 Y-20.0184 
G01 X50.2356 Y-20.0214 
G01 X50.2587 Y-20.0214 
G01 X50.2810 Y-20.0274 
G01 X50.3039 Y-20.0304 
G01 X50.3253 Y-20.0392 
G01 X50.3476 Y-20.0452 
G01 X50.3676 Y-20.0568 
G01 X50.5821 Y-20.1456 
G01 X51.0179 Y-20.1456 
G01 X51.4206 Y-19.9788 
G01 X51.7288 Y-19.6706 
G01 X51.8956 Y-19.2679 
G01 X51.8956 Y-18.8321 
G01 X51.7288 Y-18.4294 
G01 X51.4206 Y-18.1212 
G01 X51.0179 Y-17.9544 
G01 X50.5821 Y-17.9544 
G01 X50.3676 Y-18.0432 
G01 X50.3476 Y-18.0548 
G01 X50.3253 Y-18.0608 
G01 X50.3039 Y-18.0696 
G01 X50.2810 Y-18.0726 
G01 X50.2587 Y-18.0786 
G01 X50.2356 Y-18.0786 
G01 X50.2127 Y-18.0816 
G01 X50.1898 Y-18.0786 
G01 X49.9962 Y-18.0786 
G01 X49.9074 Y-18.0548 
G01 X49.8277 Y-18.0088 
G01 X49.7626 Y-17.9437 
G01 X49.7009 Y-17.8820 
G01 X49.5031 Y-17.8001 
G01 X49.4986 Y-17.7993 
G01 X49.4607 Y-17.7825 
G01 X49.4224 Y-17.7666 
G01 X49.4188 Y-17.7638 
G01 X49.4145 Y-17.7619 
G01 X49.3823 Y-17.7358 
G01 X49.3495 Y-17.7106 
G01 X49.3466 Y-17.7069 
G01 X49.3430 Y-17.7040 
G01 X49.3187 Y-17.6705 
G01 X49.2935 Y-17.6376 
G01 X49.2917 Y-17.6333 
G01 X49.2889 Y-17.6296 
G01 X49.2741 Y-17.5909 
G01 X49.2582 Y-17.5526 
G01 X49.2576 Y-17.5480 
G01 X49.2560 Y-17.5437 
G01 X49.2516 Y-17.5025 
G01 X49.2462 Y-17.4614 
G01 X49.2468 Y-17.4568 
G01 X49.2464 Y-17.4522 
G01 X49.2528 Y-17.4113 
G01 X49.2582 Y-17.3702 
G01 X49.2600 Y-17.3659 
G01 X49.2608 Y-17.3613 
G01 X49.2776 Y-17.3235 
G01 X49.2935 Y-17.2852 
G01 X49.2963 Y-17.2815 
G01 X49.2982 Y-17.2773 
G01 X49.3242 Y-17.2451 
G01 X49.3495 Y-17.2122 
G01 X49.3531 Y-17.2094 
G01 X49.3561 Y-17.2058 
G01 X49.3896 Y-17.1815 
G01 X49.4224 Y-17.1562 
G01 X49.4267 Y-17.1545 
G01 X49.4539 Y-17.1347 
G01 X49.5451 Y-17.0435 
G01 X49.6209 Y-16.9392 
G01 X49.6615 Y-16.8594 
G01 X49.5937 Y-16.8594 
G01 X49.5902 Y-16.8680 
G01 X49.5075 Y-16.9918 
G01 X49.4022 Y-17.0971 
G01 X49.2784 Y-17.1798 
G01 X49.1409 Y-17.2368 
G01 X48.9948 Y-17.2658 
G01 X47.5252 Y-17.2658 
G01 X47.3791 Y-17.2368 
G01 X47.2416 Y-17.1798 
G01 X47.1178 Y-17.0971 
G01 X47.0125 Y-16.9918 
G01 X46.9298 Y-16.8680 
G01 X46.9263 Y-16.8594 
G01 X46.8584 Y-16.8594 
G01 X46.8991 Y-16.9392 
G01 X46.9749 Y-17.0435 
G01 X47.0661 Y-17.1347 
G01 X47.0933 Y-17.1545 
G01 X47.0975 Y-17.1562 
G01 X47.1304 Y-17.1815 
G01 X47.1639 Y-17.2058 
G01 X47.1668 Y-17.2094 
G01 X47.1705 Y-17.2122 
G01 X47.1958 Y-17.2451 
G01 X47.2218 Y-17.2773 
G01 X47.2237 Y-17.2815 
G01 X47.2265 Y-17.2852 
G01 X47.2424 Y-17.3235 
G01 X47.2592 Y-17.3613 
G01 X47.2600 Y-17.3659 
G01 X47.2617 Y-17.3702 
G01 X47.2672 Y-17.4113 
G01 X47.2736 Y-17.4522 
G01 X47.2731 Y-17.4568 
G01 X47.2738 Y-17.4614 
G01 X47.2683 Y-17.5025 
G01 X47.2640 Y-17.5437 
G01 X47.2624 Y-17.5480 
G01 X47.2617 Y-17.5526 
G01 X47.2459 Y-17.5909 
G01 X47.2311 Y-17.6296 
G01 X47.2283 Y-17.6333 
G01 X47.2265 Y-17.6376 
G01 X47.2013 Y-17.6705 
G01 X47.1770 Y-17.7040 
G01 X47.1734 Y-17.7069 
G01 X47.1705 Y-17.7106 
G01 X47.1377 Y-17.7358 
G01 X47.1055 Y-17.7619 
G01 X47.1012 Y-17.7638 
G01 X47.0975 Y-17.7666 
G01 X47.0593 Y-17.7825 
G01 X47.0214 Y-17.7993 
G01 X47.0168 Y-17.8001 
G01 X46.8191 Y-17.8820 
G01 X46.4316 Y-18.2695 
G01 X46.2218 Y-18.7759 
G01 X46.2218 Y-19.3241 
G01 X46.4316 Y-19.8305 
G01 X46.7066 Y-20.1055 
G01 X46.7526 Y-20.1851 
G01 X46.7764 Y-20.2740 
G01 X46.7764 Y-20.3660 
G01 X46.7526 Y-20.4549 
G01 X46.7066 Y-20.5345 
G01 X46.6415 Y-20.5996 
G01 X46.4316 Y-20.8095 
G01 X46.2218 Y-21.3159 
G01 X46.2218 Y-21.8641 
G01 X46.4316 Y-22.3705 
G01 X46.8191 Y-22.7580 
G01 X47.3324 Y-22.9707 
G01 X47.3548 Y-22.9766 
G01 X47.3748 Y-22.9882 
G01 X47.3961 Y-22.9970 
G01 X47.4144 Y-23.0111 
G01 X47.4344 Y-23.0226 
G01 X47.4508 Y-23.0390 
G01 X47.4691 Y-23.0530 
G01 X47.4831 Y-23.0714 
G01 X47.4995 Y-23.0877 
G01 X47.5110 Y-23.1077 
G01 X47.5251 Y-23.1260 
G01 X47.5339 Y-23.1474 
G01 X47.5455 Y-23.1674 
G01 X47.5514 Y-23.1897 
G01 X47.5603 Y-23.2110 
G01 X47.5633 Y-23.2339 
G01 X47.5693 Y-23.2562 
G01 X47.5693 Y-23.2793 
G01 X47.5723 Y-23.3022 
G01 X47.5693 Y-23.3251 
G01 X47.5693 Y-23.3482 
G01 X47.5633 Y-23.3705 
G01 X47.5603 Y-23.3934 
G01 X47.5515 Y-23.4148 
G01 X47.5455 Y-23.4371 
G01 X47.5339 Y-23.4571 
G01 X47.5251 Y-23.4784 
G01 X47.5110 Y-23.4967 
G01 X47.4995 Y-23.5168 
G01 X47.4831 Y-23.5331 
G01 X47.4691 Y-23.5514 
G01 X47.4507 Y-23.5655 
G01 X47.4365 Y-23.5797 
G01 X47.2886 Y-23.9368 
G01 X47.2886 Y-27.4389 
G01 X47.2648 Y-27.5278 
G01 X47.2188 Y-27.6074 
G01 X47.1537 Y-27.6725 
G01 X41.0865 Y-33.7397 
G01 X40.9386 Y-34.0968 
G01 X40.9386 Y-50.2989 
G01 X40.9148 Y-50.3878 
G01 X40.8688 Y-50.4674 
G01 X38.5465 Y-52.7897 
G01 X38.3986 Y-53.1468 
G01 X38.3986 Y-55.2698 
G01 X38.4016 Y-55.2927 
G01 X38.3986 Y-55.3156 
G01 X38.3986 Y-55.3387 
G01 X38.3926 Y-55.3610 
G01 X38.3896 Y-55.3839 
G01 X38.3808 Y-55.4053 
G01 X38.3748 Y-55.4276 
G01 X38.3632 Y-55.4476 
G01 X38.2744 Y-55.6621 
G01 X38.2744 Y-56.0979 
G01 X38.4412 Y-56.5006 
G01 X38.7494 Y-56.8088 
G01 X39.1521 Y-56.9756 
G01 X39.5879 Y-56.9756 
G01 X39.9906 Y-56.8088 
G01 X40.2988 Y-56.5006 
G01 X40.4656 Y-56.0979 
G01 X40.4656 Y-55.6621 
G01 X40.3768 Y-55.4476 
G01 X40.3652 Y-55.4276 
G01 X40.3592 Y-55.4053 
G01 X40.3504 Y-55.3839 
G01 X40.3474 Y-55.3610 
G01 X40.3414 Y-55.3387 
G01 X40.3414 Y-55.3156 
G01 X40.3384 Y-55.2927 
G01 X40.3414 Y-55.2698 
G01 X40.3414 Y-53.8411 
G01 X40.3652 Y-53.7522 
G01 X40.4112 Y-53.6726 
G01 X40.4304 Y-53.6533 
G01 X41.5796 Y-52.5042 
G01 X41.6255 Y-52.4583 
G01 X41.6447 Y-52.4391 
G01 X41.7243 Y-52.3931 
G01 X41.8122 Y-52.3696 
G01 X41.9052 Y-52.3693 
G01 X41.9941 Y-52.3931 
G01 X42.0737 Y-52.4391 
G01 X42.1388 Y-52.5042 
G01 X42.1848 Y-52.5838 
G01 X42.2083 Y-52.6717 
G01 X42.2086 Y-53.4388 
G01 X42.2116 Y-53.4618 
G01 X42.2086 Y-53.4847 
G01 X42.2086 Y-53.5077 
G01 X42.2026 Y-53.5301 
G01 X42.1996 Y-53.5530 
G01 X42.1908 Y-53.5743 
G01 X42.1848 Y-53.5966 
G01 X42.1732 Y-53.6166 
G01 X42.1644 Y-53.6380 
G01 X42.1503 Y-53.6563 
G01 X42.1388 Y-53.6763 
G01 X42.1224 Y-53.6926 
G01 X42.1084 Y-53.7109 
G01 X42.0901 Y-53.7250 
G01 X42.0737 Y-53.7413 
G01 X42.0537 Y-53.7529 
G01 X42.0354 Y-53.7669 
G01 X42.0236 Y-53.7718 
G01 X41.8218 Y-53.9736 
G01 X41.7126 Y-54.2373 
G01 X41.7126 Y-55.8227 
G01 X41.8218 Y-56.0864 
G01 X42.0236 Y-56.2882 
G01 X42.0345 Y-56.2927 
G01 X42.0569 Y-56.2987 
G01 X42.0769 Y-56.3102 
G01 X42.0982 Y-56.3191 
G01 X42.1184 Y-56.3274 
G01 X42.1407 Y-56.3334 
G01 X42.1607 Y-56.3450 
G01 X42.2873 Y-56.3974 
G01 X42.3346 Y-56.3974 
G01 X42.3346 Y-56.0610 
G01 X42.3491 Y-56.0260 
G01 X42.3760 Y-55.9991 
G01 X42.4110 Y-55.9846 
G01 X43.9490 Y-55.9846 
G01 X43.9840 Y-55.9991 
G01 X44.0109 Y-56.0260 
G01 X44.0254 Y-56.0610 
G01 X44.0254 Y-57.3990 
G01 X44.0109 Y-57.4340 
G01 X43.9840 Y-57.4609 
G01 X43.9490 Y-57.4754 
G01 X43.6004 Y-57.4754 
G01 X43.6004 Y-57.5386 
G01 X43.9509 Y-57.5386 
G01 X43.9912 Y-57.5278 
G01 X44.0274 Y-57.5069 
G01 X44.0569 Y-57.4774 
G01 X44.0736 Y-57.4485 
G01 X44.0918 Y-57.4169 
G01 X44.1196 Y-57.3688 
G01 X44.1846 Y-57.3037 
G01 X44.2387 Y-57.2725 
G01 X44.2643 Y-57.2577 
G01 X44.3458 Y-57.2359 
G01 X44.3532 Y-57.2339 
G01 X44.3987 Y-57.2339 
G01 X44.4452 Y-57.2339 
G01 X44.5341 Y-57.2577 
G01 X44.5741 Y-57.2809 
G01 X44.6137 Y-57.3037 
G01 X44.6788 Y-57.3688 
G01 X44.7100 Y-57.4228 
G01 X44.7248 Y-57.4484 
G01 X44.7466 Y-57.5299 
G01 X44.7486 Y-57.5373 
G01 X44.7486 Y-57.5828 
G01 X44.7486 Y-57.6293 
G01 X44.7486 Y-61.6273 
G01 X44.7248 Y-61.7162 
G01 X44.6788 Y-61.7958 
G01 X44.6137 Y-61.8609 
G01 X44.5341 Y-61.9069 
G01 X44.4452 Y-61.9307 
G01 X44.3532 Y-61.9307 
G01 X44.2643 Y-61.9069 
G01 X44.1847 Y-61.8609 
G01 X44.1196 Y-61.7958 
G01 X43.7302 Y-61.4065 
G01 X43.3732 Y-61.2586 
G01 X39.1768 Y-61.2586 
G01 X38.8197 Y-61.4065 
G01 X38.4648 Y-61.7614 
G01 X36.9314 Y-63.2949 
G01 X36.6415 Y-63.5847 
G01 X36.4936 Y-63.9418 
G01 X36.4936 Y-64.9039 
G01 X36.4698 Y-64.9928 
G01 X36.4238 Y-65.0724 
G01 X36.3587 Y-65.1375 
G01 X35.2274 Y-66.2688 
G01 X35.1478 Y-66.3148 
G01 X35.0589 Y-66.3386 
G01 X33.7983 Y-66.3386 
G01 X33.7095 Y-66.3148 
G01 X33.6298 Y-66.2688 
G01 X33.5647 Y-66.2037 
G01 X33.5187 Y-66.1241 
G01 X33.4949 Y-66.0352 
G01 X33.4949 Y-65.9432 
G01 X33.5187 Y-65.8543 
G01 X33.5647 Y-65.7747 
G01 X33.6298 Y-65.7096 
G01 X33.9488 Y-65.3906 
G01 X34.1156 Y-64.9879 
G01 X34.1156 Y-64.5521 
G01 X34.0268 Y-64.3376 
G01 X34.0152 Y-64.3176 
G01 X34.0092 Y-64.2953 
G01 X34.0004 Y-64.2739 
G01 X33.9974 Y-64.2510 
G01 X33.9914 Y-64.2287 
G01 X33.9914 Y-64.2056 
G01 X33.9884 Y-64.1827 
G01 X33.9914 Y-64.1598 
G01 X33.9914 Y-63.3068 
G01 X33.8435 Y-62.9497 
G01 X33.4886 Y-62.5948 
G01 X27.7112 Y-56.8174 
G01 X27.6652 Y-56.7378 
G01 X27.6414 Y-56.6489 
G01 X27.6414 Y-51.5783 
G01 X27.6652 Y-51.4895 
G01 X27.7112 Y-51.4098 
G01 X27.7763 Y-51.3447 
G01 X27.8559 Y-51.2987 
G01 X27.9448 Y-51.2749 
G01 X28.0368 Y-51.2749 
G01 X28.1257 Y-51.2987 
G01 X28.2053 Y-51.3447 
G01 X28.2704 Y-51.4098 
G01 X28.5894 Y-51.7288 
G01 X28.9921 Y-51.8956 
G01 X29.4279 Y-51.8956 
G01 X29.5895 Y-51.8287 
G01 X29.6095 Y-51.8171 
G01 X29.6318 Y-51.8111 
G01 X29.6532 Y-51.8023 
G01 X29.6761 Y-51.7993 
G01 X29.6984 Y-51.7933 
G01 X29.7215 Y-51.7933 
G01 X29.7444 Y-51.7903 
G01 X29.7673 Y-51.7933 
G01 X29.7904 Y-51.7933 
G01 X29.8127 Y-51.7993 
G01 X29.8356 Y-51.8023 
G01 X29.8569 Y-51.8111 
G01 X29.8793 Y-51.8171 
G01 X29.8992 Y-51.8287 
G01 X29.9206 Y-51.8375 
G01 X29.9389 Y-51.8516 
G01 X29.9589 Y-51.8631 
G01 X29.9753 Y-51.8794 
G01 X29.9936 Y-51.8935 
G01 X30.0076 Y-51.9118 
G01 X30.1500 Y-52.0542 
G01 X30.2269 Y-52.0860 
G01 X30.2492 Y-52.0920 
G01 X30.2692 Y-52.1036 
G01 X30.2906 Y-52.1124 
G01 X30.3089 Y-52.1264 
G01 X30.3289 Y-52.1380 
G01 X30.3452 Y-52.1544 
G01 X30.3635 Y-52.1684 
G01 X30.3776 Y-52.1867 
G01 X30.3939 Y-52.2031 
G01 X30.4055 Y-52.2231 
G01 X30.4195 Y-52.2414 
G01 X30.4284 Y-52.2627 
G01 X30.4399 Y-52.2827 
G01 X30.4459 Y-52.3051 
G01 X30.4548 Y-52.3264 
G01 X30.4578 Y-52.3493 
G01 X30.4637 Y-52.3716 
G01 X30.4637 Y-52.3947 
G01 X30.4668 Y-52.4176 
G01 X30.4637 Y-52.4405 
G01 X30.4637 Y-52.4636 
G01 X30.4578 Y-52.4859 
G01 X30.4548 Y-52.5088 
G01 X30.4459 Y-52.5301 
G01 X30.4399 Y-52.5525 
G01 X30.4284 Y-52.5725 
G01 X30.4196 Y-52.5938 
G01 X30.4055 Y-52.6121 
G01 X30.3939 Y-52.6321 
G01 X30.3776 Y-52.6485 
G01 X30.3635 Y-52.6668 
G01 X30.3452 Y-52.6808 
G01 X30.2858 Y-52.7403 
G01 X30.2006 Y-52.8575 
G01 X30.1348 Y-52.9866 
G01 X30.1336 Y-52.9906 
G01 X30.2047 Y-52.9906 
G01 X30.2282 Y-52.9339 
G01 X30.3220 Y-52.7934 
G01 X30.4414 Y-52.6740 
G01 X30.5819 Y-52.5802 
G01 X30.7379 Y-52.5155 
G01 X30.9035 Y-52.4826 
G01 X32.5964 Y-52.4826 
G01 X32.7621 Y-52.5155 
G01 X32.9181 Y-52.5802 
G01 X33.0586 Y-52.6740 
G01 X33.1780 Y-52.7934 
G01 X33.2718 Y-52.9339 
G01 X33.2953 Y-52.9906 
G01 X33.3664 Y-52.9906 
G01 X33.3651 Y-52.9866 
G01 X33.2994 Y-52.8575 
G01 X33.2142 Y-52.7403 
G01 X33.1548 Y-52.6808 
G01 X33.1365 Y-52.6668 
G01 X33.1224 Y-52.6485 
G01 X33.1061 Y-52.6321 
G01 X33.0945 Y-52.6121 
G01 X33.0804 Y-52.5938 
G01 X33.0716 Y-52.5725 
G01 X33.0601 Y-52.5525 
G01 X33.0541 Y-52.5301 
G01 X33.0452 Y-52.5088 
G01 X33.0422 Y-52.4859 
G01 X33.0362 Y-52.4636 
G01 X33.0362 Y-52.4405 
G01 X33.0332 Y-52.4176 
G01 X33.0362 Y-52.3947 
G01 X33.0362 Y-52.3716 
G01 X33.0422 Y-52.3493 
G01 X33.0452 Y-52.3264 
G01 X33.0541 Y-52.3051 
G01 X33.0601 Y-52.2827 
G01 X33.0716 Y-52.2627 
G01 X33.0804 Y-52.2414 
G01 X33.0945 Y-52.2231 
G01 X33.1061 Y-52.2031 
G01 X33.1224 Y-52.1867 
G01 X33.1365 Y-52.1684 
G01 X33.1548 Y-52.1543 
G01 X33.1711 Y-52.1380 
G01 X33.1911 Y-52.1265 
G01 X33.2094 Y-52.1124 
G01 X33.2308 Y-52.1036 
G01 X33.2508 Y-52.0920 
G01 X33.2731 Y-52.0860 
G01 X33.3500 Y-52.0542 
G01 X33.4924 Y-51.9118 
G01 X33.5064 Y-51.8935 
G01 X33.5247 Y-51.8794 
G01 X33.5411 Y-51.8631 
G01 X33.5611 Y-51.8516 
G01 X33.5794 Y-51.8375 
G01 X33.6007 Y-51.8287 
G01 X33.6207 Y-51.8171 
G01 X33.6431 Y-51.8111 
G01 X33.6644 Y-51.8023 
G01 X33.6873 Y-51.7993 
G01 X33.7096 Y-51.7933 
G01 X33.7327 Y-51.7933 
G01 X33.7556 Y-51.7903 
G01 X33.7785 Y-51.7933 
G01 X33.8016 Y-51.7933 
G01 X33.8239 Y-51.7993 
G01 X33.8468 Y-51.8023 
G01 X33.8682 Y-51.8111 
G01 X33.8905 Y-51.8171 
G01 X33.9105 Y-51.8287 
G01 X34.0721 Y-51.8956 
G01 X34.5079 Y-51.8956 
G01 X34.9106 Y-51.7288 
G01 X35.2188 Y-51.4206 
G01 X35.3856 Y-51.0179 
G01 X35.3856 Y-50.5821 
G01 X35.2188 Y-50.1794 
G01 X34.9106 Y-49.8712 
G01 X34.8386 Y-49.8414 
G01 X34.8237 Y-49.8352 
G01 X34.7742 Y-49.7972 
G01 X34.7507 Y-49.7792 
G01 X34.6947 Y-49.7062 
G01 X34.6595 Y-49.6212 
G01 X34.6508 Y-49.5550 
G01 X34.6475 Y-49.5300 
G01 X34.6595 Y-49.4388 
G01 X34.6883 Y-49.3694 
G01 X34.6947 Y-49.3538 
G01 X34.7327 Y-49.3042 
G01 X34.7507 Y-49.2808 
G01 X34.8237 Y-49.2248 
G01 X34.8970 Y-49.1944 
G01 X34.9087 Y-49.1896 
G01 X35.2188 Y-48.8806 
G01 X35.3856 Y-48.4779 
G01 X35.3856 Y-48.0421 
G01 X35.2188 Y-47.6394 
G01 X34.9106 Y-47.3312 
G01 X34.8386 Y-47.3014 
G01 X34.8237 Y-47.2952 
G01 X34.7742 Y-47.2572 
G01 X34.7507 Y-47.2392 
G01 X34.6947 Y-47.1662 
G01 X34.6595 Y-47.0812 
G01 X34.6508 Y-47.0150 
G01 X34.6475 Y-46.9900 
G01 X34.6595 Y-46.8988 
G01 X34.6883 Y-46.8294 
G01 X34.6947 Y-46.8138 
G01 X34.7327 Y-46.7642 
G01 X34.7507 Y-46.7408 
G01 X34.8237 Y-46.6848 
G01 X34.8970 Y-46.6544 
G01 X34.9087 Y-46.6496 
G01 X35.2188 Y-46.3406 
G01 X35.3856 Y-45.9379 
G01 X35.3856 Y-45.5021 
G01 X35.2188 Y-45.0994 
G01 X34.9106 Y-44.7912 
G01 X34.8386 Y-44.7614 
G01 X34.8237 Y-44.7552 
G01 X34.7742 Y-44.7172 
G01 X34.7507 Y-44.6992 
G01 X34.6947 Y-44.6262 
G01 X34.6595 Y-44.5412 
G01 X34.6508 Y-44.4750 
G01 X34.6475 Y-44.4500 
G01 X34.6595 Y-44.3588 
G01 X34.6883 Y-44.2894 
G01 X34.6947 Y-44.2738 
G01 X34.7327 Y-44.2242 
G01 X34.7507 Y-44.2008 
G01 X34.8237 Y-44.1448 
G01 X34.8970 Y-44.1144 
G01 X34.9087 Y-44.1096 
G01 X35.2188 Y-43.8006 
G01 X35.3856 Y-43.3979 
G01 X35.3856 Y-42.9621 
G01 X35.2188 Y-42.5594 
G01 X34.9106 Y-42.2512 
G01 X34.9001 Y-42.2468 
G01 X34.8237 Y-42.2152 
G01 X34.7507 Y-42.1592 
G01 X34.7347 Y-42.1384 
G01 X34.6947 Y-42.0862 
G01 X34.6891 Y-42.0726 
G01 X34.6595 Y-42.0012 
G01 X34.6475 Y-41.9100 
G01 X34.6505 Y-41.8870 
G01 X34.6595 Y-41.8188 
G01 X34.6947 Y-41.7338 
G01 X34.7507 Y-41.6608 
G01 X34.7715 Y-41.6448 
G01 X34.8237 Y-41.6048 
G01 X34.8367 Y-41.5994 
G01 X34.9087 Y-41.5696 
G01 X35.2188 Y-41.2606 
G01 X35.3856 Y-40.8579 
G01 X35.3856 Y-40.4221 
G01 X35.2188 Y-40.0194 
G01 X34.9106 Y-39.7112 
G01 X34.5079 Y-39.5444 
G01 X34.0721 Y-39.5444 
G01 X33.9105 Y-39.6113 
G01 X33.8905 Y-39.6229 
G01 X33.8682 Y-39.6289 
G01 X33.8468 Y-39.6377 
G01 X33.8239 Y-39.6407 
G01 X33.8016 Y-39.6467 
G01 X33.7785 Y-39.6467 
G01 X33.7556 Y-39.6497 
G01 X33.7327 Y-39.6467 
G01 X33.7096 Y-39.6467 
G01 X33.6873 Y-39.6407 
G01 X33.6644 Y-39.6377 
G01 X33.6431 Y-39.6289 
G01 X33.6207 Y-39.6229 
G01 X33.6007 Y-39.6113 
G01 X33.5794 Y-39.6025 
G01 X33.5611 Y-39.5884 
G01 X33.5411 Y-39.5769 
G01 X33.5247 Y-39.5605 
G01 X33.5064 Y-39.5465 
G01 X33.4924 Y-39.5282 
G01 X33.3500 Y-39.3858 
G01 X32.8063 Y-39.1606 
G01 X31.0297 Y-39.1606 
G01 X31.0068 Y-39.1636 
G01 X30.9839 Y-39.1606 
G01 X30.9608 Y-39.1606 
G01 X30.9385 Y-39.1546 
G01 X30.9156 Y-39.1516 
G01 X30.8942 Y-39.1428 
G01 X30.8719 Y-39.1368 
G01 X30.8519 Y-39.1252 
G01 X30.8306 Y-39.1164 
G01 X30.8123 Y-39.1023 
G01 X30.7923 Y-39.0908 
G01 X30.7759 Y-39.0744 
G01 X30.7576 Y-39.0604 
G01 X30.7435 Y-39.0421 
G01 X30.7272 Y-39.0257 
G01 X30.7157 Y-39.0057 
G01 X30.7016 Y-38.9874 
G01 X30.6928 Y-38.9661 
G01 X30.6812 Y-38.9461 
G01 X30.6752 Y-38.9237 
G01 X30.6664 Y-38.9024 
G01 X30.6634 Y-38.8795 
G01 X30.6574 Y-38.8572 
G01 X30.6574 Y-38.8341 
G01 X30.6544 Y-38.8112 
G01 X30.6574 Y-38.7883 
G01 X30.6574 Y-38.7652 
G01 X30.6634 Y-38.7429 
G01 X30.6664 Y-38.7200 
G01 X30.6752 Y-38.6987 
G01 X30.6812 Y-38.6763 
G01 X30.6928 Y-38.6563 
G01 X30.7274 Y-38.5727 
G01 X30.7274 Y-37.3040 
G01 X30.7244 Y-37.2811 
G01 X30.7274 Y-37.2582 
G01 X30.7274 Y-37.2351 
G01 X30.7334 Y-37.2128 
G01 X30.7364 Y-37.1899 
G01 X30.7452 Y-37.1686 
G01 X30.7512 Y-37.1462 
G01 X30.7628 Y-37.1262 
G01 X30.7716 Y-37.1049 
G01 X30.7857 Y-37.0866 
G01 X30.7972 Y-37.0666 
G01 X30.8135 Y-37.0502 
G01 X30.8276 Y-37.0319 
G01 X30.8459 Y-37.0179 
G01 X30.8623 Y-37.0015 
G01 X30.8823 Y-36.9900 
G01 X30.9006 Y-36.9759 
G01 X30.9219 Y-36.9671 
G01 X30.9419 Y-36.9555 
G01 X30.9642 Y-36.9495 
G01 X30.9856 Y-36.9407 
G01 X31.0085 Y-36.9377 
G01 X31.0308 Y-36.9317 
G01 X31.0539 Y-36.9317 
G01 X31.0768 Y-36.9287 
G01 X31.0997 Y-36.9317 
G01 X31.1228 Y-36.9317 
G01 X31.1451 Y-36.9377 
G01 X31.1680 Y-36.9407 
G01 X31.1893 Y-36.9495 
G01 X31.2117 Y-36.9555 
G01 X31.2317 Y-36.9671 
G01 X31.3773 Y-37.0274 
G01 X32.9627 Y-37.0274 
G01 X33.2264 Y-36.9182 
G01 X33.4282 Y-36.7164 
G01 X33.4327 Y-36.7055 
G01 X33.4387 Y-36.6831 
G01 X33.4502 Y-36.6631 
G01 X33.4591 Y-36.6418 
G01 X33.4674 Y-36.6216 
G01 X33.4734 Y-36.5993 
G01 X33.4850 Y-36.5793 
G01 X33.5374 Y-36.4527 
G01 X33.5374 Y-36.4054 
G01 X33.2010 Y-36.4054 
G01 X33.1660 Y-36.3909 
G01 X33.1391 Y-36.3640 
G01 X33.1246 Y-36.3290 
G01 X33.1246 Y-34.7910 
G01 X33.1391 Y-34.7560 
G01 X33.1660 Y-34.7291 
G01 X33.2010 Y-34.7146 
G01 X33.5374 Y-34.7146 
G01 X33.5374 Y-34.6673 
G01 X33.4850 Y-34.5407 
G01 X33.4734 Y-34.5207 
G01 X33.4674 Y-34.4984 
G01 X33.4591 Y-34.4782 
G01 X33.4502 Y-34.4569 
G01 X33.4387 Y-34.4369 
G01 X33.4327 Y-34.4145 
G01 X33.4282 Y-34.4036 
G01 X33.2264 Y-34.2018 
G01 X32.9627 Y-34.0926 
G01 X31.3773 Y-34.0926 
G01 X31.1136 Y-34.2018 
G01 X30.9118 Y-34.4036 
G01 X30.9069 Y-34.4154 
G01 X30.8929 Y-34.4337 
G01 X30.8813 Y-34.4537 
G01 X30.8650 Y-34.4701 
G01 X30.8509 Y-34.4884 
G01 X30.8326 Y-34.5024 
G01 X30.8163 Y-34.5188 
G01 X30.7963 Y-34.5303 
G01 X30.7780 Y-34.5444 
G01 X30.7566 Y-34.5532 
G01 X30.7366 Y-34.5648 
G01 X30.7143 Y-34.5708 
G01 X30.6930 Y-34.5796 
G01 X30.6701 Y-34.5826 
G01 X30.6477 Y-34.5886 
G01 X30.6246 Y-34.5886 
G01 X30.6018 Y-34.5916 
G01 X30.5788 Y-34.5886 
G01 X30.4286 Y-34.5886 
G01 X30.4057 Y-34.5916 
G01 X30.3828 Y-34.5886 
G01 X30.3597 Y-34.5886 
G01 X30.3374 Y-34.5826 
G01 X30.3145 Y-34.5796 
G01 X30.2931 Y-34.5708 
G01 X30.2708 Y-34.5648 
G01 X30.2508 Y-34.5532 
G01 X30.1527 Y-34.5126 
G01 X29.3151 Y-34.5126 
G01 X29.2262 Y-34.4888 
G01 X29.1466 Y-34.4428 
G01 X29.0815 Y-34.3777 
G01 X28.9812 Y-34.2774 
G01 X28.9352 Y-34.1978 
G01 X28.9114 Y-34.1089 
G01 X28.9114 Y-28.7183 
G01 X28.9352 Y-28.6295 
G01 X28.9812 Y-28.5498 
G01 X29.0463 Y-28.4847 
G01 X29.1259 Y-28.4387 
G01 X29.2148 Y-28.4149 
G01 X29.3068 Y-28.4149 
G01 X29.3957 Y-28.4387 
G01 X29.4753 Y-28.4847 
G01 X29.5404 Y-28.5498 
G01 X29.8594 Y-28.8688 
G01 X30.2621 Y-29.0356 
G01 X30.6979 Y-29.0356 
G01 X31.1006 Y-28.8688 
G01 X31.4088 Y-28.5606 
G01 X31.4260 Y-28.5191 
G01 X31.4448 Y-28.4737 
G01 X31.4783 Y-28.4301 
G01 X31.5008 Y-28.4007 
G01 X31.5507 Y-28.3624 
G01 X31.5738 Y-28.3447 
G01 X31.6186 Y-28.3261 
G01 X31.6588 Y-28.3095 
G01 X31.7010 Y-28.3040 
G01 X31.7500 Y-28.2975 
G01 X31.7970 Y-28.3037 
G01 X31.8412 Y-28.3095 
G01 X31.8960 Y-28.3322 
G01 X31.9262 Y-28.3447 
G01 X31.9698 Y-28.3782 
G01 X31.9992 Y-28.4007 
G01 X32.0375 Y-28.4506 
G01 X32.0552 Y-28.4737 
G01 X32.0756 Y-28.5230 
G01 X32.0904 Y-28.5587 
G01 X32.3994 Y-28.8688 
G01 X32.8021 Y-29.0356 
G01 X33.2379 Y-29.0356 
G01 X33.6406 Y-28.8688 
G01 X33.9488 Y-28.5606 
G01 X33.9532 Y-28.5501 
G01 X33.9848 Y-28.4737 
G01 X34.0408 Y-28.4007 
G01 X34.0616 Y-28.3848 
G01 X34.1138 Y-28.3447 
G01 X34.1273 Y-28.3391 
G01 X34.1988 Y-28.3095 
G01 X34.2900 Y-28.2975 
G01 X34.3130 Y-28.3005 
G01 X34.3812 Y-28.3095 
G01 X34.4662 Y-28.3447 
G01 X34.5392 Y-28.4007 
G01 X34.5551 Y-28.4215 
G01 X34.5952 Y-28.4737 
G01 X34.6006 Y-28.4867 
G01 X34.6304 Y-28.5587 
G01 X34.9394 Y-28.8688 
G01 X35.3421 Y-29.0356 
G01 X35.7779 Y-29.0356 
G01 X36.1806 Y-28.8688 
G01 X36.4888 Y-28.5606 
G01 X36.4932 Y-28.5501 
G01 X36.5248 Y-28.4737 
G01 X36.5808 Y-28.4007 
G01 X36.6016 Y-28.3848 
G01 X36.6538 Y-28.3447 
G01 X36.6673 Y-28.3391 
G01 X36.7388 Y-28.3095 
G01 X36.8300 Y-28.2975 
G01 X36.8530 Y-28.3005 
G01 X36.9212 Y-28.3095 
G01 X37.0062 Y-28.3447 
G01 X37.0792 Y-28.4007 
G01 X37.0951 Y-28.4215 
G01 X37.1352 Y-28.4737 
G01 X37.1406 Y-28.4867 
G01 X37.1704 Y-28.5587 
G01 X37.4794 Y-28.8688 
G01 X37.8821 Y-29.0356 
G01 X38.3179 Y-29.0356 
G01 X38.5905 Y-28.9227 
G01 X38.6105 Y-28.9111 
G01 X38.6328 Y-28.9052 
G01 X38.6542 Y-28.8963 
G01 X38.6771 Y-28.8933 
G01 X38.6994 Y-28.8873 
G01 X38.7225 Y-28.8873 
G01 X38.7454 Y-28.8843 
G01 X38.7683 Y-28.8873 
G01 X38.7914 Y-28.8873 
G01 X38.8137 Y-28.8933 
G01 X38.8366 Y-28.8963 
G01 X38.8579 Y-28.9052 
G01 X38.8802 Y-28.9111 
G01 X38.9002 Y-28.9227 
G01 X38.9216 Y-28.9315 
G01 X38.9399 Y-28.9456 
G01 X38.9599 Y-28.9571 
G01 X38.9762 Y-28.9735 
G01 X38.9946 Y-28.9875 
G01 X39.0086 Y-29.0059 
G01 X39.0250 Y-29.0222 
G01 X39.0365 Y-29.0422 
G01 X39.0506 Y-29.0605 
G01 X39.0594 Y-29.0818 
G01 X39.0710 Y-29.1019 
G01 X39.0769 Y-29.1242 
G01 X39.0858 Y-29.1455 
G01 X39.0888 Y-29.1684 
G01 X39.0948 Y-29.1907 
G01 X39.0948 Y-29.2138 
G01 X39.0978 Y-29.2367 
G01 X39.0948 Y-29.2596 
G01 X39.0948 Y-29.2827 
G01 X39.0888 Y-29.3050 
G01 X39.0858 Y-29.3279 
G01 X39.0769 Y-29.3493 
G01 X39.0710 Y-29.3716 
G01 X39.0594 Y-29.3916 
G01 X39.0506 Y-29.4129 
G01 X39.0365 Y-29.4313 
G01 X39.0250 Y-29.4513 
G01 X39.0086 Y-29.4676 
G01 X38.9946 Y-29.4859 
G01 X38.9762 Y-29.5000 
G01 X37.5664 Y-30.9099 
G01 X37.2765 Y-31.1997 
G01 X37.1286 Y-31.5568 
G01 X37.1286 Y-34.9498 
G01 X37.1316 Y-34.9727 
G01 X37.1286 Y-34.9956 
G01 X37.1286 Y-35.0187 
G01 X37.1226 Y-35.0410 
G01 X37.1196 Y-35.0639 
G01 X37.1108 Y-35.0853 
G01 X37.1048 Y-35.1076 
G01 X37.0932 Y-35.1276 
G01 X37.0044 Y-35.3421 
G01 X37.0044 Y-35.7779 
G01 X37.1712 Y-36.1806 
G01 X37.4794 Y-36.4888 
G01 X37.8821 Y-36.6556 
G01 X38.3179 Y-36.6556 
G01 X38.7206 Y-36.4888 
G01 X39.0288 Y-36.1806 
G01 X39.1956 Y-35.7779 
G01 X39.1956 Y-35.3421 
G01 X39.1068 Y-35.1276 
G01 X39.0952 Y-35.1076 
G01 X39.0892 Y-35.0853 
G01 X39.0804 Y-35.0639 
G01 X39.0774 Y-35.0410 
G01 X39.0714 Y-35.0187 
G01 X39.0714 Y-34.9956 
G01 X39.0684 Y-34.9727 
G01 X39.0714 Y-34.9498 
G01 X39.0714 Y-32.2511 
G01 X39.0952 Y-32.1622 
G01 X39.1412 Y-32.0826 
G01 X39.2063 Y-32.0175 
G01 X41.4635 Y-29.7602 
G01 X41.6114 Y-29.4032 
G01 X41.6114 Y-25.9678 
G01 X41.6352 Y-25.8790 
G01 X41.6812 Y-25.7993 
G01 X41.7463 Y-25.7342 
G01 X41.8259 Y-25.6882 
G01 X41.9148 Y-25.6644 
G01 X42.0068 Y-25.6644 
G01 X42.0957 Y-25.6882 
G01 X42.1753 Y-25.7342 
G01 X42.2404 Y-25.7993 
G01 X42.3995 Y-25.9584 
G01 X42.9059 Y-26.1682 
G01 X43.4541 Y-26.1682 
G01 X43.9605 Y-25.9584 
G01 X44.3480 Y-25.5709 
G01 X44.5578 Y-25.0645 
G01 X44.5578 Y-23.1955 
G01 X44.3480 Y-22.6891 
G01 X44.2863 Y-22.6274 
G01 X44.2245 Y-22.5656 
G01 X44.2212 Y-22.5623 
G01 X44.1752 Y-22.4826 
G01 X44.1581 Y-22.4186 
G01 X44.1514 Y-22.3938 
G01 X44.1514 Y-21.0768 
G01 X44.0035 Y-20.7197 
G01 X43.6486 Y-20.3648 
G01 X43.4972 Y-20.2134 
G01 X43.4512 Y-20.1338 
G01 X43.4274 Y-20.0449 
G01 X43.4274 Y-19.2073 
G01 X43.4000 Y-19.1412 
G01 X43.3929 Y-19.0870 
G01 X43.3880 Y-19.0500 
G01 X43.4000 Y-18.9588 
G01 X43.4254 Y-18.8976 
G01 X43.4274 Y-18.8927 
G01 X43.4274 Y-17.3073 
G01 X43.3182 Y-17.0436 
G01 X43.1168 Y-16.8422 
G01 X43.0959 Y-16.8366 
G01 X43.0759 Y-16.8251 
G01 X43.0546 Y-16.8162 
G01 X43.0363 Y-16.8022 
G01 X43.0163 Y-16.7906 
G01 X42.9999 Y-16.7743 
G01 X42.9816 Y-16.7602 
G01 X42.9676 Y-16.7419 
G01 X42.9512 Y-16.7256 
G01 X42.9397 Y-16.7056 
G01 X42.9256 Y-16.6872 
G01 X42.9168 Y-16.6659 
G01 X42.9052 Y-16.6459 
G01 X42.8992 Y-16.6236 
G01 X42.8904 Y-16.6023 
G01 X42.8874 Y-16.5794 
G01 X42.8814 Y-16.5570 
G01 X42.8814 Y-16.5339 
G01 X42.8784 Y-16.5110 
G01 X42.8814 Y-16.4881 
G01 X42.8814 Y-15.7411 
G01 X42.9052 Y-15.6522 
G01 X42.9512 Y-15.5726 
G01 X43.0163 Y-15.5075 
G01 X44.7826 Y-13.7412 
G01 X44.8622 Y-13.6952 
G01 X44.9511 Y-13.6714 
G01 X61.7289 Y-13.6714 
G01 X61.8178 Y-13.6952 
G01 X61.8974 Y-13.7412 
G01 X61.9625 Y-13.8063 
G01 X63.7288 Y-15.5726 
G01 X63.7748 Y-15.6522 
G01 X63.7986 Y-15.7411 
G01 X63.7986 Y-20.5132 
G01 X63.9465 Y-20.8702 
G01 X64.9988 Y-21.9226 
G01 X65.0448 Y-22.0022 
G01 X65.0686 Y-22.0911 
G01 X65.0686 Y-24.8691 
G01 X65.0716 Y-24.8920 
G01 X65.0686 Y-24.9149 
G01 X65.0686 Y-24.9380 
G01 X65.0626 Y-24.9603 
G01 X65.0596 Y-24.9832 
G01 X65.0508 Y-25.0045 
G01 X65.0448 Y-25.0269 
G01 X65.0332 Y-25.0469 
G01 X65.0244 Y-25.0682 
G01 X65.0103 Y-25.0865 
G01 X64.9988 Y-25.1065 
G01 X64.9825 Y-25.1229 
G01 X64.9684 Y-25.1412 
G01 X64.9501 Y-25.1552 
G01 X64.9337 Y-25.1716 
G01 X64.9137 Y-25.1831 
G01 X64.8954 Y-25.1972 
G01 X64.8741 Y-25.2060 
G01 X64.8541 Y-25.2176 
G01 X64.8317 Y-25.2236 
G01 X64.8104 Y-25.2324 
G01 X64.7875 Y-25.2354 
G01 X64.7652 Y-25.2414 
G01 X64.7421 Y-25.2414 
G01 X64.7192 Y-25.2444 
G01 X64.6963 Y-25.2414 
G01 X64.6732 Y-25.2414 
G01 X64.6509 Y-25.2354 
G01 X64.6280 Y-25.2324 
G01 X64.6067 Y-25.2236 
G01 X64.5843 Y-25.2176 
G01 X64.5643 Y-25.2060 
G01 X64.5430 Y-25.1972 
G01 X64.5247 Y-25.1831 
G01 X64.5047 Y-25.1716 
G01 X64.4883 Y-25.1552 
G01 X64.4700 Y-25.1412 
G01 X64.4559 Y-25.1229 
G01 X64.4396 Y-25.1065 
G01 X64.4281 Y-25.0865 
G01 X64.4140 Y-25.0682 
G01 X64.4052 Y-25.0469 
G01 X64.3936 Y-25.0269 
G01 X64.3876 Y-25.0045 
G01 X64.3235 Y-24.8497 
G01 X63.1578 Y-23.6841 
G01 X63.1395 Y-23.6700 
G01 X63.1255 Y-23.6517 
G01 X63.1091 Y-23.6353 
G01 X63.0976 Y-23.6153 
G01 X63.0835 Y-23.5970 
G01 X63.0747 Y-23.5757 
G01 X63.0631 Y-23.5557 
G01 X63.0571 Y-23.5334 
G01 X62.9683 Y-23.3189 
G01 X62.6601 Y-23.0107 
G01 X62.2574 Y-22.8439 
G01 X61.8216 Y-22.8439 
G01 X61.4189 Y-23.0107 
G01 X61.1107 Y-23.3189 
G01 X60.9439 Y-23.7216 
G01 X60.9439 Y-24.1574 
G01 X61.1107 Y-24.5601 
G01 X61.4189 Y-24.8683 
G01 X61.6334 Y-24.9571 
G01 X61.6557 Y-24.9631 
G01 X61.6757 Y-24.9747 
G01 X61.6970 Y-24.9835 
G01 X61.7153 Y-24.9976 
G01 X61.7353 Y-25.0091 
G01 X61.7517 Y-25.0254 
G01 X61.7700 Y-25.0395 
G01 X61.7841 Y-25.0578 
G01 X62.4588 Y-25.7326 
G01 X62.5048 Y-25.8122 
G01 X62.5058 Y-25.8160 
G01 X62.5286 Y-25.9011 
G01 X62.5286 Y-34.4832 
G01 X62.6765 Y-34.8402 
G01 X66.7597 Y-38.9235 
G01 X67.1168 Y-39.0714 
G01 X68.0111 Y-39.0714 
G01 X68.0999 Y-39.0952 
G01 X68.1796 Y-39.1412 
G01 X68.2446 Y-39.2063 
G01 X68.7639 Y-39.7255 
G01 X69.4686 Y-40.0174 
G01 X70.2314 Y-40.0174 
G01 X70.9361 Y-39.7255 
G01 X71.4755 Y-39.1861 
G01 X71.7674 Y-38.4814 
G01 X71.7674 Y-37.7186 
G01 X71.4755 Y-37.0139 
G01 X70.9361 Y-36.4745 
G01 X70.2314 Y-36.1826 
G01 X69.4686 Y-36.1826 
G01 X68.7639 Y-36.4745 
G01 X68.1796 Y-37.0588 
G01 X68.0999 Y-37.1048 
G01 X68.0111 Y-37.1286 
G01 X67.8111 Y-37.1286 
G01 X67.7222 Y-37.1048 
G01 X67.6426 Y-37.0588 
G01 X67.5775 Y-36.9937 
G01 X64.5412 Y-33.9574 
G01 X64.4952 Y-33.8778 
G01 X64.4714 Y-33.7889 
G01 X64.4714 Y-27.2009 
G01 X64.4684 Y-27.1780 
G01 X64.4714 Y-27.1551 
G01 X64.4714 Y-27.1320 
G01 X64.4774 Y-27.1097 
G01 X64.4804 Y-27.0868 
G01 X64.4892 Y-27.0654 
G01 X64.4952 Y-27.0431 
G01 X64.5068 Y-27.0231 
G01 X64.5156 Y-27.0018 
G01 X64.5297 Y-26.9835 
G01 X64.5412 Y-26.9635 
G01 X64.5575 Y-26.9471 
G01 X64.5716 Y-26.9288 
G01 X64.5899 Y-26.9147 
G01 X64.6063 Y-26.8984 
G01 X64.6263 Y-26.8869 
G01 X64.6446 Y-26.8728 
G01 X64.6659 Y-26.8640 
G01 X64.6859 Y-26.8524 
G01 X64.7083 Y-26.8464 
G01 X64.7296 Y-26.8376 
G01 X64.7525 Y-26.8346 
G01 X64.7748 Y-26.8286 
G01 X64.7979 Y-26.8286 
G01 X64.8208 Y-26.8256 
G01 X64.8437 Y-26.8286 
G01 X64.8668 Y-26.8286 
G01 X64.8891 Y-26.8346 
G01 X64.9120 Y-26.8376 
G01 X64.9333 Y-26.8464 
G01 X64.9557 Y-26.8524 
G01 X64.9757 Y-26.8640 
G01 X64.9970 Y-26.8728 
G01 X65.0153 Y-26.8869 
G01 X65.0353 Y-26.8984 
G01 X65.0517 Y-26.9147 
G01 X65.0700 Y-26.9288 
G01 X65.0840 Y-26.9471 
G01 X65.1004 Y-26.9635 
G01 X65.1119 Y-26.9835 
G01 X65.1260 Y-27.0018 
G01 X65.1348 Y-27.0231 
G01 X65.1464 Y-27.0431 
G01 X65.1524 Y-27.0654 
G01 X65.2165 Y-27.2203 
G01 X66.4699 Y-28.4736 
G01 X66.7597 Y-28.7635 
G01 X67.1168 Y-28.9114 
G01 X68.0111 Y-28.9114 
G01 X68.0999 Y-28.9352 
G01 X68.1796 Y-28.9812 
G01 X68.2446 Y-29.0463 
G01 X68.7639 Y-29.5655 
G01 X69.4686 Y-29.8574 
G01 X70.2314 Y-29.8574 
G01 X70.9361 Y-29.5655 
G01 X71.4755 Y-29.0261 
G01 X71.7674 Y-28.3214 
G01 X71.7674 Y-27.5586 
G01 X71.4755 Y-26.8539 
G01 X70.9361 Y-26.3145 
G01 X70.2314 Y-26.0226 
G01 X69.4686 Y-26.0226 
G01 X68.7639 Y-26.3145 
G01 X68.2446 Y-26.8337 
G01 X68.1900 Y-26.8884 
G01 X68.1796 Y-26.8988 
G01 X68.0999 Y-26.9448 
G01 X68.0121 Y-26.9683 
G01 X67.8111 Y-26.9686 
G01 X67.7222 Y-26.9448 
G01 X67.6426 Y-26.8988 
G01 X67.5775 Y-26.8337 
G01 X67.0812 Y-26.3374 
G01 X67.0352 Y-26.2578 
G01 X67.0114 Y-26.1689 
G01 X67.0114 Y-21.3968 
G01 X66.8635 Y-21.0397 
G01 X66.5086 Y-20.6848 
G01 X65.8112 Y-19.9874 
G01 X65.7652 Y-19.9078 
G01 X65.7414 Y-19.8189 
G01 X65.7414 Y-18.3827 
G01 X65.7652 Y-18.2938 
G01 X65.8112 Y-18.2142 
G01 X65.8763 Y-18.1491 
G01 X65.9559 Y-18.1031 
G01 X66.0448 Y-18.0793 
G01 X66.1368 Y-18.0793 
G01 X66.2257 Y-18.1031 
G01 X66.3053 Y-18.1491 
G01 X66.3704 Y-18.2142 
G01 X66.4699 Y-18.3136 
G01 X66.7597 Y-18.6035 
G01 X67.1168 Y-18.7514 
G01 X68.0111 Y-18.7514 
G01 X68.0999 Y-18.7752 
G01 X68.1796 Y-18.8212 
G01 X68.2446 Y-18.8863 
G01 X68.7639 Y-19.4055 
G01 X69.4686 Y-19.6974 
G01 X70.2314 Y-19.6974 
G01 X70.9361 Y-19.4055 
G01 X71.4755 Y-18.8661 
G01 X71.7674 Y-18.1614 
G01 X71.7674 Y-17.3986 
G01 X71.4755 Y-16.6939 
G01 X70.9361 Y-16.1545 
G01 X70.2314 Y-15.8626 
G01 X69.4686 Y-15.8626 
G01 X68.7639 Y-16.1545 
G01 X68.1796 Y-16.7388 
G01 X68.0999 Y-16.7848 
G01 X68.0111 Y-16.8086 
G01 X67.8111 Y-16.8086 
G01 X67.7222 Y-16.7848 
G01 X67.6426 Y-16.7388 
G01 X67.5775 Y-16.6737 
G01 X67.0812 Y-16.1774 
G01 X67.0352 Y-16.0978 
G01 X67.0114 Y-16.0089 
G01 X67.0114 Y-13.7768 
G01 X66.8635 Y-13.4197 
G01 X66.5736 Y-13.1299 
G01 X66.5086 Y-13.0648 
G01 X64.4533 Y-11.0095 
G01 X64.4073 Y-10.9299 
G01 X64.3835 Y-10.8410 
G01 X64.3835 Y-10.7490 
G01 X64.4073 Y-10.6601 
G01 X64.4533 Y-10.5805 
G01 X64.5184 Y-10.5154 
G01 X65.5935 Y-9.4403 
G01 X65.7414 Y-9.0832 
G01 X65.7414 Y-6.9189 
G01 X65.7652 Y-6.8301 
G01 X65.8112 Y-6.7504 
G01 X65.8763 Y-6.6853 
G01 X66.3955 Y-6.1661 
G01 X66.6874 Y-5.4614 
G01 X66.6874 Y-4.6986 
G01 X66.3955 Y-3.9939 
G01 X65.8561 Y-3.4545 
G01 X65.1514 Y-3.1626 
G01 X64.3886 Y-3.1626 
G01 X63.6839 Y-3.4545 
G01 X63.1445 Y-3.9939 
G01 X62.8526 Y-4.6986 
G01 X62.8526 Y-5.4614 
G01 X63.1445 Y-6.1661 
G01 X63.7288 Y-6.7504 
G01 X63.7748 Y-6.8301 
G01 X63.7986 Y-6.9189 
G01 X63.7986 Y-8.3889 
G01 X63.7748 Y-8.4778 
G01 X63.7288 Y-8.5574 
G01 X63.6637 Y-8.6225 
G01 X63.1674 Y-9.1188 
G01 X63.0878 Y-9.1648 
G01 X62.9989 Y-9.1886 
G01 X55.2127 Y-9.1886 
G01 X55.1815 Y-9.1802 
G01 X55.1238 Y-9.1648 
G01 X55.0441 Y-9.1188 
G01 X54.9801 Y-9.0547 
G01 X54.9671 Y-9.0330 
G01 X54.9331 Y-8.9741 
G01 X54.9093 Y-8.8852 
G01 X54.9093 Y-8.7932 
G01 X54.9176 Y-8.7621 
G01 X54.9331 Y-8.7043 
G01 X54.9791 Y-8.6247 
G01 X55.1436 Y-8.4601 
G01 X55.4335 Y-8.1702 
G01 X55.5814 Y-7.8132 
G01 X55.5814 Y-6.9189 
G01 X55.6052 Y-6.8301 
G01 X55.6512 Y-6.7504 
G01 X55.7163 Y-6.6853 
G01 X56.2355 Y-6.1661 
G01 X56.5274 Y-5.4614 
G01 X56.5274 Y-4.6986 
G01 X56.2355 Y-3.9939 
G01 X55.6961 Y-3.4545 
G01 X54.9914 Y-3.1626 
G01 X54.2286 Y-3.1626 
G01 X53.5239 Y-3.4545 
G01 X52.9845 Y-3.9939 
G01 X52.6926 Y-4.6986 
G01 X52.6926 Y-5.4614 
G01 X52.9845 Y-6.1661 
G01 X53.5688 Y-6.7504 
G01 X53.6148 Y-6.8301 
G01 X53.6386 Y-6.9189 
G01 X53.6386 Y-7.1189 
G01 X53.6148 Y-7.2078 
G01 X53.5688 Y-7.2874 
G01 X53.5037 Y-7.3525 
G01 X53.0074 Y-7.8488 
G01 X52.9278 Y-7.8948 
G01 X52.8389 Y-7.9186 
G01 X45.0527 Y-7.9186 
G01 X44.9638 Y-7.8948 
G01 X44.8841 Y-7.8488 
G01 X44.8191 Y-7.7837 
G01 X44.7731 Y-7.7041 
G01 X44.7493 Y-7.6152 
G01 X44.7493 Y-7.5232 
G01 X44.7731 Y-7.4343 
G01 X44.8191 Y-7.3547 
G01 X44.8841 Y-7.2896 
G01 X45.2735 Y-6.9002 
G01 X45.2787 Y-6.8877 
G01 X45.3347 Y-6.8147 
G01 X45.4077 Y-6.7587 
G01 X45.4232 Y-6.7523 
G01 X45.5361 Y-6.7055 
G01 X46.0755 Y-6.1661 
G01 X46.3674 Y-5.4614 
G01 X46.3674 Y-4.6986 
G01 X46.0755 Y-3.9939 
G01 X45.5361 Y-3.4545 
G01 X44.8314 Y-3.1626 
G01 X44.0686 Y-3.1626 
G01 X43.3639 Y-3.4545 
G01 X42.8245 Y-3.9939 
G01 X42.5326 Y-4.6986 
G01 X42.5326 Y-5.4614 
G01 X42.8155 Y-6.1443 
G01 X42.8270 Y-6.1643 
G01 X42.8330 Y-6.1867 
G01 X42.8419 Y-6.2080 
G01 X42.8449 Y-6.2309 
G01 X42.8508 Y-6.2532 
G01 X42.8508 Y-6.2763 
G01 X42.8539 Y-6.2992 
G01 X42.8508 Y-6.3221 
G01 X42.8508 Y-6.3452 
G01 X42.8449 Y-6.3675 
G01 X42.8419 Y-6.3904 
G01 X42.8330 Y-6.4117 
G01 X42.8270 Y-6.4341 
G01 X42.8155 Y-6.4541 
G01 X42.8066 Y-6.4754 
G01 X42.7926 Y-6.4937 
G01 X42.7810 Y-6.5137 
G01 X42.7647 Y-6.5301 
G01 X42.7506 Y-6.5484 
G01 X42.7323 Y-6.5624 
G01 X42.7160 Y-6.5788 
G01 X42.6960 Y-6.5903 
G01 X42.6777 Y-6.6044 
G01 X42.6563 Y-6.6132 
G01 X42.6363 Y-6.6248 
G01 X42.6140 Y-6.6308 
G01 X42.5927 Y-6.6396 
G01 X42.5698 Y-6.6426 
G01 X42.5474 Y-6.6486 
G01 X42.5244 Y-6.6486 
G01 X42.5014 Y-6.6516 
G01 X42.4785 Y-6.6486 
G01 X41.0320 Y-6.6486 
G01 X40.9431 Y-6.6248 
G01 X40.8635 Y-6.5788 
G01 X40.7984 Y-6.5137 
G01 X40.7524 Y-6.4341 
G01 X40.7286 Y-6.3452 
G01 X40.7286 Y-5.5754 
G01 X40.6654 Y-5.5754 
G01 X40.6654 Y-6.2990 
G01 X40.6509 Y-6.3340 
G01 X40.6240 Y-6.3609 
G01 X40.5890 Y-6.3754 
G01 X38.1510 Y-6.3754 
G01 X38.1160 Y-6.3609 
G01 X38.0891 Y-6.3340 
G01 X38.0746 Y-6.2990 
G01 X38.0746 Y-5.5754 
G01 X38.0114 Y-5.5754 
G01 X38.0114 Y-6.3009 
G01 X38.0222 Y-6.3412 
G01 X38.0431 Y-6.3774 
G01 X38.0726 Y-6.4069 
G01 X38.1088 Y-6.4278 
G01 X38.1491 Y-6.4386 
G01 X38.3801 Y-6.4386 
G01 X38.4690 Y-6.4624 
G01 X38.5486 Y-6.5084 
G01 X38.6137 Y-6.5735 
G01 X38.6597 Y-6.6531 
G01 X38.6835 Y-6.7420 
G01 X38.6835 Y-6.8340 
G01 X38.6597 Y-6.9229 
G01 X38.6137 Y-7.0025 
G01 X38.5486 Y-7.0676 
G01 X35.8253 Y-9.7909 
G01 X35.7457 Y-9.8369 
G01 X35.6568 Y-9.8607 
G01 X35.5648 Y-9.8607 
G01 X35.4759 Y-9.8369 
G01 X35.3963 Y-9.7909 
G01 X35.3312 Y-9.7258 
G01 X35.2852 Y-9.6462 
G01 X35.2614 Y-9.5573 
G01 X35.2614 Y-6.9189 
G01 X35.2852 Y-6.8301 
G01 X35.3312 Y-6.7504 
G01 X35.3963 Y-6.6853 
G01 X35.9155 Y-6.1661 
G01 X36.2074 Y-5.4614 
G01 X36.2074 Y-4.6986 
G01 X35.9155 Y-3.9939 
G01 X35.3761 Y-3.4545 
G01 X34.6714 Y-3.1626 
G01 X33.9086 Y-3.1626 
G01 X33.2039 Y-3.4545 
G01 X32.6645 Y-3.9939 
G01 X32.3726 Y-4.6986 
G01 X32.3726 Y-5.4614 
G01 X32.6645 Y-6.1661 
G01 X33.2488 Y-6.7504 
G01 X33.2948 Y-6.8301 
G01 X33.3186 Y-6.9189 
G01 X33.3186 Y-9.6589 
G01 X33.2948 Y-9.7478 
G01 X33.2488 Y-9.8274 
G01 X33.1837 Y-9.8925 
G01 X31.4174 Y-11.6588 
G01 X31.3378 Y-11.7048 
G01 X31.2489 Y-11.7286 
G01 X31.0902 Y-11.7286 
G01 X31.0673 Y-11.7316 
G01 X31.0444 Y-11.7286 
G01 X31.0213 Y-11.7286 
G01 X30.9990 Y-11.7226 
G01 X30.9761 Y-11.7196 
G01 X30.9547 Y-11.7108 
G01 X30.9324 Y-11.7048 
G01 X30.9124 Y-11.6932 
G01 X30.6979 Y-11.6044 
G01 X30.2621 Y-11.6044 
G01 X29.8594 Y-11.7712 
G01 X29.5404 Y-12.0902 
G01 X29.4826 Y-12.1480 
G01 X29.4753 Y-12.1553 
G01 X29.3957 Y-12.2013 
G01 X29.3078 Y-12.2248 
G01 X29.2148 Y-12.2251 
G01 X29.1259 Y-12.2013 
G01 X29.0480 Y-12.1563 
G01 X28.9812 Y-12.0902 
G01 X28.9352 Y-12.0105 
G01 X28.9117 Y-11.9227 
G01 X28.9114 Y-7.3008 
G01 X28.9352 Y-7.2119 
G01 X28.9812 Y-7.1323 
G01 X29.0463 Y-7.0672 
G01 X29.1259 Y-7.0212 
G01 X29.2148 Y-6.9974 
G01 X29.5914 Y-6.9974 
G01 X30.2961 Y-6.7055 
G01 X30.8355 Y-6.1661 
G01 X31.1274 Y-5.4614 
G01 X31.1274 Y-4.6986 
G01 X30.8355 Y-3.9939 
G01 X30.2961 Y-3.4545 
G01 X29.5914 Y-3.1626 
G01 X28.8286 Y-3.1626 
G01 X28.1239 Y-3.4545 
G01 X27.5845 Y-3.9939 
G01 X27.2926 Y-4.6986 
G01 X27.2926 Y-5.5249 
G01 X27.2688 Y-5.6138 
G01 X27.2228 Y-5.6934 
G01 X27.1577 Y-5.7585 
G01 X27.1165 Y-5.7997 
G01 X26.9686 Y-6.1568 
G01 X26.9686 Y-10.8273 
G01 X26.9448 Y-10.9162 
G01 X26.8988 Y-10.9958 
G01 X26.8337 Y-11.0609 
G01 X26.7541 Y-11.1069 
G01 X26.6652 Y-11.1307 
G01 X26.5732 Y-11.1307 
G01 X26.4843 Y-11.1069 
G01 X26.4047 Y-11.0609 
G01 X26.3396 Y-10.9958 
G01 X17.0603 Y-1.7165 
G01 X16.7828 Y-1.6016 
G01 X16.7605 Y-1.5956 
G01 X16.7405 Y-1.5840 
G01 X16.7191 Y-1.5752 
G01 X16.7008 Y-1.5611 
G01 X16.6808 Y-1.5496 
G01 X16.6645 Y-1.5333 
G01 X16.6462 Y-1.5192 
G01 X16.6321 Y-1.5009 
G01 X16.6158 Y-1.4845 
G01 X16.6042 Y-1.4645 
G01 X16.5902 Y-1.4462 
G01 X16.5813 Y-1.4249 
G01 X16.5698 Y-1.4049 
G01 X16.5638 Y-1.3825 
G01 X16.5549 Y-1.3612 
G01 X16.5519 Y-1.3383 
G01 X16.5460 Y-1.3160 
G01 X16.5460 Y-1.2929 
G01 X16.5429 Y-1.2700 
G01 X16.5460 Y-1.2471 
G01 X16.5460 Y-1.2240 
G01 X16.5519 Y-1.2017 
G01 X16.5549 Y-1.1788 
G01 X16.5638 Y-1.1575 
G01 X16.5698 Y-1.1351 
G01 X16.5813 Y-1.1151 
G01 X16.5901 Y-1.0938 
G01 X16.6042 Y-1.0755 
G01 X16.6158 Y-1.0555 
G01 X16.6321 Y-1.0391 
G01 X16.6461 Y-1.0208 
G01 X16.6645 Y-1.0067 
G01 X16.6808 Y-0.9904 
G01 X16.7008 Y-0.9789 
G01 X16.7191 Y-0.9648 
G01 X16.7405 Y-0.9560 
G01 X16.7605 Y-0.9444 
G01 X16.7828 Y-0.9384 
G01 X16.8041 Y-0.9296 
G01 X16.8270 Y-0.9266 
G01 X16.8493 Y-0.9206 
G01 X16.8724 Y-0.9206 
G01 X16.8953 Y-0.9176 
G01 X16.9183 Y-0.9206 
G01 X70.0254 Y-0.9206 
G01 X70.0482 Y-0.9267 
G01 X70.1143 Y-0.9444 
G01 X70.1940 Y-0.9904 
G01 X70.2590 Y-1.0555 
G01 X70.3050 Y-1.1351 
G01 X70.3288 Y-1.2240 
G01 X70.3288 Y-1.3160 
G01 X70.3227 Y-1.3388 
G01 X70.3050 Y-1.4049 
G01 X70.2590 Y-1.4845 
G01 X70.1940 Y-1.5496 
G01 X70.1143 Y-1.5956 
G01 X69.6337 Y-1.8730 
G01 X69.1830 Y-2.3237 
G01 X68.8644 Y-2.8757 
G01 X68.6994 Y-3.4913 
G01 X68.6994 Y-4.1287 
G01 X68.8644 Y-4.7443 
G01 X69.1830 Y-5.2963 
G01 X69.6337 Y-5.7470 
G01 X70.1857 Y-6.0656 
G01 X70.8013 Y-6.2306 
G01 X71.4387 Y-6.2306 
G01 X72.0543 Y-6.0656 
G01 X72.6063 Y-5.7470 
G01 X73.0570 Y-5.2963 
G01 X73.3344 Y-4.8157 
G01 X73.3804 Y-4.7360 
G01 X73.4444 Y-4.6720 
G01 X73.5251 Y-4.6250 
G01 X73.5892 Y-4.6078 
G01 X73.6140 Y-4.6012 
G01 X73.7060 Y-4.6012 
G01 X73.7949 Y-4.6250 
G01 X73.8745 Y-4.6710 
G01 X73.9386 Y-4.7350 
G01 X73.9856 Y-4.8157 
G01 X74.0027 Y-4.8797 
G01 X74.0094 Y-4.9046 
G01 X74.0094 Y-60.2272 
G01 X74.0124 Y-60.2501 
G01 X74.0094 Y-60.2730 
G01 X74.0094 Y-60.2961 
G01 X74.0034 Y-60.3184 
G01 X74.0004 Y-60.3413 
G01 X73.9916 Y-60.3626 
G01 X73.9856 Y-60.3850 
G01 X73.9740 Y-60.4050 
G01 X73.9652 Y-60.4263 
G01 X73.9511 Y-60.4446 
G01 X73.9396 Y-60.4646 
G01 X73.9232 Y-60.4810 
G01 X73.9092 Y-60.4993 
G01 X73.8909 Y-60.5133 
G01 X73.8745 Y-60.5297 
G01 X73.8545 Y-60.5412 
G01 X73.8362 Y-60.5553 
G01 X73.8149 Y-60.5641 
G01 X73.7949 Y-60.5757 
G01 X73.7725 Y-60.5817 
G01 X73.7512 Y-60.5905 
G01 X73.7283 Y-60.5935 
G01 X73.7060 Y-60.5995 
G01 X73.6829 Y-60.5995 
G01 X73.6600 Y-60.6025 
G01 X73.6371 Y-60.5995 
G01 X73.6140 Y-60.5995 
G01 X73.5917 Y-60.5935 
G01 X73.5688 Y-60.5905 
G01 X73.5475 Y-60.5817 
G01 X73.5251 Y-60.5757 
G01 X73.5051 Y-60.5641 
G01 X73.4838 Y-60.5553 
G01 X73.4655 Y-60.5412 
G01 X73.4455 Y-60.5297 
G01 X73.4291 Y-60.5133 
G01 X73.4108 Y-60.4993 
G01 X73.3967 Y-60.4810 
G01 X73.3804 Y-60.4646 
G01 X73.3689 Y-60.4446 
G01 X73.3548 Y-60.4263 
G01 X73.3460 Y-60.4050 
G01 X73.3344 Y-60.3850 
G01 X73.3284 Y-60.3626 
G01 X73.3188 Y-60.3394 
G01 X73.0106 Y-60.0312 
G01 X72.6079 Y-59.8644 
G01 X72.1721 Y-59.8644 
G01 X71.9576 Y-59.9532 
G01 X71.9376 Y-59.9648 
G01 X71.9153 Y-59.9708 
G01 X71.8939 Y-59.9796 
G01 X71.8710 Y-59.9826 
G01 X71.8487 Y-59.9886 
G01 X71.8256 Y-59.9886 
G01 X71.8027 Y-59.9916 
G01 X71.7798 Y-59.9886 
G01 X71.1773 Y-59.9886 
G01 X71.0884 Y-59.9648 
G01 X71.0087 Y-59.9188 
G01 X70.9437 Y-59.8537 
G01 X70.4943 Y-59.4044 
G01 X69.2056 Y-59.4044 
G01 X68.2944 Y-60.3156 
G01 X68.2944 Y-61.6043 
G01 X69.2056 Y-62.5156 
G01 X70.4943 Y-62.5156 
G01 X70.9437 Y-62.0663 
G01 X70.9986 Y-62.0113 
G01 X71.0087 Y-62.0012 
G01 X71.0884 Y-61.9552 
G01 X71.1763 Y-61.9317 
G01 X71.7798 Y-61.9314 
G01 X71.8027 Y-61.9284 
G01 X71.8256 Y-61.9314 
G01 X71.8487 Y-61.9314 
G01 X71.8710 Y-61.9374 
G01 X71.8939 Y-61.9404 
G01 X71.9153 Y-61.9492 
G01 X71.9376 Y-61.9552 
G01 X71.9576 Y-61.9668 
G01 X72.1721 Y-62.0556 
G01 X72.6079 Y-62.0556 
G01 X73.0106 Y-61.8888 
G01 X73.3188 Y-61.5806 
G01 X73.3284 Y-61.5574 
G01 X73.3344 Y-61.5350 
G01 X73.3460 Y-61.5150 
G01 X73.3548 Y-61.4937 
G01 X73.3689 Y-61.4754 
G01 X73.3804 Y-61.4554 
G01 X73.3967 Y-61.4390 
G01 X73.4108 Y-61.4207 
G01 X73.4291 Y-61.4067 
G01 X73.4455 Y-61.3903 
G01 X73.4655 Y-61.3788 
G01 X73.4838 Y-61.3647 
G01 X73.5051 Y-61.3559 
G01 X73.5251 Y-61.3443 
G01 X73.5475 Y-61.3383 
G01 X73.5688 Y-61.3295 
G01 X73.5917 Y-61.3265 
G01 X73.6140 Y-61.3205 
G01 X73.6371 Y-61.3205 
G01 X73.6600 Y-61.3175 
G01 X73.6829 Y-61.3205 
G01 X73.7060 Y-61.3205 
G01 X73.7283 Y-61.3265 
G01 X73.7512 Y-61.3295 
G01 X73.7725 Y-61.3383 
G01 X73.7949 Y-61.3443 
G01 X73.8149 Y-61.3559 
G01 X73.8362 Y-61.3647 
G01 X73.8545 Y-61.3788 
G01 X73.8745 Y-61.3903 
G01 X73.8909 Y-61.4066 
G01 X73.9092 Y-61.4207 
G01 X73.9232 Y-61.4390 
G01 X73.9396 Y-61.4554 
G01 X73.9511 Y-61.4754 
G01 X73.9652 Y-61.4937 
G01 X73.9740 Y-61.5150 
G01 X73.9856 Y-61.5350 
G01 X73.9916 Y-61.5574 
G01 X74.0004 Y-61.5787 
G01 X74.0034 Y-61.6016 
G01 X74.0094 Y-61.6239 
G01 X74.0094 Y-61.6470 
G01 X74.0124 Y-61.6699 
G01 X74.0094 Y-61.6928 
G01 X74.0094 Y-72.5654 
G01 X74.0033 Y-72.5882 
G01 X73.9856 Y-72.6543 
G01 X73.9396 Y-72.7340 
G01 X73.8745 Y-72.7990 
G01 X73.7949 Y-72.8450 
G01 X73.7060 Y-72.8688 
G01 X73.6140 Y-72.8688 
G01 X73.5912 Y-72.8627 
G01 X73.5251 Y-72.8450 
G01 X73.4455 Y-72.7990 
G01 X73.3804 Y-72.7340 
G01 X73.3344 Y-72.6543 
G01 X73.0570 Y-72.1737 
G01 X72.6063 Y-71.7230 
G01 X72.0543 Y-71.4044 
G01 X71.4387 Y-71.2394 
G01 X70.8013 Y-71.2394 
G01 X70.1857 Y-71.4044 
G01 X69.6337 Y-71.7230 
G01 X69.1830 Y-72.1737 
G01 X68.8644 Y-72.7257 
G01 X68.6994 Y-73.3413 
G01 X68.6994 Y-73.9787 
G01 X68.8644 Y-74.5943 
G01 X69.1830 Y-75.1463 
G01 X69.6337 Y-75.5970 
G01 X70.1143 Y-75.8744 
G01 X70.1940 Y-75.9204 
G01 X70.2580 Y-75.9844 
G01 X70.3050 Y-76.0651 
G01 X70.3222 Y-76.1292 
G01 X70.3288 Y-76.1540 
G01 X70.3288 Y-76.2460 
G01 X70.3050 Y-76.3349 
G01 X70.2590 Y-76.4145 
G01 X70.1950 Y-76.4786 
G01 X70.1143 Y-76.5256 
G01 X70.0502 Y-76.5427 
G01 X70.0254 Y-76.5494 
G01 X44.8582 Y-76.5494 
G01 X44.8353 Y-76.5524 
G01 X44.8124 Y-76.5494 
G01 X44.7893 Y-76.5494 
G01 X44.7670 Y-76.5434 
G01 X44.7441 Y-76.5404 
G01 X28.9183 Y-76.5394 
G01 X28.8930 Y-76.5434 
G01 X28.8706 Y-76.5494 
G01 X28.8476 Y-76.5494 
G01 X28.8246 Y-76.5524 
G01 X28.8017 Y-76.5494 
G01 X4.9046 Y-76.5494 
G01 X4.8818 Y-76.5433 
G01 X4.8157 Y-76.5256 
G01 X4.7360 Y-76.4796 
G01 X4.6710 Y-76.4145 
G01 X4.6250 Y-76.3349 
G01 X4.6012 Y-76.2460 
G01 X4.6012 Y-76.1540 
G01 X4.6073 Y-76.1312 
G01 X4.6250 Y-76.0651 
