(.../ulps/pcbgcode/3.6.3/pcb-gcode.ulp)
(Copyright 2005 - 2012 by John Johnson)
(See readme.txt for licensing terms.)
(This file generated from the board:)
(.../projects/rotor/eagle/rotor.brd)
(Current profile is .../pcbgcode/3.6.3/profiles/generic.pp  )
(This file generated 3/4/23 2:49 AM)
(Settings from pcb-machine.h)
(spindle on time = 3.0000)
(spindle speed = 10000.0000)
(tool change at 0.0000 0.0000 10.0000 )
(feed rate xy = F0.00  )
(feed rate z  = F50.00 )
(Z Axis Settings)
(  High     Up        Down     Drill)
(12.7000 	1.2700 	-0.1250 	-1.7000 )
(Settings from pcb-defaults.h)
(isolate min = 0.0254)
(isolate max = 0.4080)
(isolate step = 0.1700)
(Generated top outlines, bottom outlines, bottom drill, )
(Unit of measure: mm)
(Beginning of every file)
(Beginning of every bottom file)
(Beginning of All Drill files)
(Bottom Drill Begin)
( Tool|       Size       |  Min Sub |  Max Sub |   Count )
( T01  0.350mm 0.0138in 0.0000in 0.0000in )
( T02  0.813mm 0.0320in 0.0000in 0.0000in )
( T03  1.000mm 0.0394in 0.0000in 0.0000in )
( T04  1.016mm 0.0400in 0.0000in 0.0000in )
( T05  1.600mm 0.0630in 0.0000in 0.0000in )
( T06  2.500mm 0.0984in 0.0000in 0.0000in )
( T07  3.000mm 0.1181in 0.0000in 0.0000in )
(Metric Mode)
G21
(Absolute Coordinates)
G90
S10000
G00 Z12.7000 
G00 X0.0000 Y0.0000 
M03
G04 P3.000000
(Tool Change Begin)
(Bottom Tool Change Begin)
M05
G00 Z10.0000 
M06 T01  ; 0.3500 
(Bottom Tool changed)
(Tool changed)
(Tool zero begin)
(Bottom Tool zero begin)
G01 Z0.0000 F50.00 
M06 
(Bottom Tool zero end)
(Tool zero end)
G00 Z1.2700 
M03
G04 P3.000000
(Bottom Tool Change End)
(Tool Change End)
G00 X5.0800 Y-40.6400 
G01 Z-1.7000 F50.00 
G00 Z1.2700 
G00 X7.6200 Y-40.6400 
G01 Z-1.7000 F50.00 
G00 Z1.2700 
G00 X7.6200 Y-45.7200 
G01 Z-1.7000 F50.00 
G00 Z1.2700 
G00 X8.8900 Y-48.2600 
G01 Z-1.7000 F50.00 
G00 Z1.2700 
G00 X8.8900 Y-53.3400 
G01 Z-1.7000 F50.00 
G00 Z1.2700 
G00 X12.7000 Y-62.2300 
G01 Z-1.7000 F50.00 
G00 Z1.2700 
G00 X15.2400 Y-64.7700 
G01 Z-1.7000 F50.00 
G00 Z1.2700 
G00 X17.7800 Y-64.7700 
G01 Z-1.7000 F50.00 
G00 Z1.2700 
G00 X22.8600 Y-64.7700 
G01 Z-1.7000 F50.00 
G00 Z1.2700 
G00 X25.4000 Y-64.7700 
G01 Z-1.7000 F50.00 
G00 Z1.2700 
G00 X27.9400 Y-64.7700 
G01 Z-1.7000 F50.00 
G00 Z1.2700 
G00 X30.4800 Y-64.7700 
G01 Z-1.7000 F50.00 
G00 Z1.2700 
G00 X33.0200 Y-64.7700 
G01 Z-1.7000 F50.00 
G00 Z1.2700 
G00 X40.6400 Y-64.7700 
G01 Z-1.7000 F50.00 
G00 Z1.2700 
G00 X39.3700 Y-55.8800 
G01 Z-1.7000 F50.00 
G00 Z1.2700 
G00 X34.2900 Y-53.3400 
G01 Z-1.7000 F50.00 
G00 Z1.2700 
G00 X34.2900 Y-50.8000 
G01 Z-1.7000 F50.00 
G00 Z1.2700 
G00 X34.2900 Y-48.2600 
G01 Z-1.7000 F50.00 
G00 Z1.2700 
G00 X34.2900 Y-45.7200 
G01 Z-1.7000 F50.00 
G00 Z1.2700 
G00 X34.2900 Y-43.1800 
G01 Z-1.7000 F50.00 
G00 Z1.2700 
G00 X34.2900 Y-40.6400 
G01 Z-1.7000 F50.00 
G00 Z1.2700 
G00 X29.2100 Y-43.1800 
G01 Z-1.7000 F50.00 
G00 Z1.2700 
G00 X29.2100 Y-45.7200 
G01 Z-1.7000 F50.00 
G00 Z1.2700 
G00 X29.2100 Y-48.2600 
G01 Z-1.7000 F50.00 
G00 Z1.2700 
G00 X29.2100 Y-50.8000 
G01 Z-1.7000 F50.00 
G00 Z1.2700 
G00 X29.2100 Y-53.3400 
G01 Z-1.7000 F50.00 
G00 Z1.2700 
G00 X19.0500 Y-53.3400 
G01 Z-1.7000 F50.00 
G00 Z1.2700 
G00 X18.4150 Y-35.5600 
G01 Z-1.7000 F50.00 
G00 Z1.2700 
G00 X19.0500 Y-27.6200 
G01 Z-1.7000 F50.00 
G00 Z1.2700 
G00 X30.4800 Y-27.9400 
G01 Z-1.7000 F50.00 
G00 Z1.2700 
G00 X33.0200 Y-27.9400 
G01 Z-1.7000 F50.00 
G00 Z1.2700 
G00 X35.5600 Y-27.9400 
G01 Z-1.7000 F50.00 
G00 Z1.2700 
G00 X38.1000 Y-27.9400 
G01 Z-1.7000 F50.00 
G00 Z1.2700 
G00 X38.1000 Y-20.3200 
G01 Z-1.7000 F50.00 
G00 Z1.2700 
G00 X30.4800 Y-15.2400 
G01 Z-1.7000 F50.00 
G00 Z1.2700 
G00 X30.4800 Y-12.7000 
G01 Z-1.7000 F50.00 
G00 Z1.2700 
G00 X19.0500 Y-13.9700 
G01 Z-1.7000 F50.00 
G00 Z1.2700 
G00 X20.3200 Y-2.5400 
G01 Z-1.7000 F50.00 
G00 Z1.2700 
G00 X6.3500 Y-22.8600 
G01 Z-1.7000 F50.00 
G00 Z1.2700 
G00 X38.1000 Y-35.5600 
G01 Z-1.7000 F50.00 
G00 Z1.2700 
G00 X46.9900 Y-43.1800 
G01 Z-1.7000 F50.00 
G00 Z1.2700 
G00 X49.5300 Y-43.1800 
G01 Z-1.7000 F50.00 
G00 Z1.2700 
G00 X54.6100 Y-40.6400 
G01 Z-1.7000 F50.00 
G00 Z1.2700 
G00 X57.1500 Y-33.0200 
G01 Z-1.7000 F50.00 
G00 Z1.2700 
G00 X62.0395 Y-23.9395 
G01 Z-1.7000 F50.00 
G00 Z1.2700 
G00 X50.8000 Y-19.0500 
G01 Z-1.7000 F50.00 
G00 Z1.2700 
G00 X50.8000 Y-15.2400 
G01 Z-1.7000 F50.00 
G00 Z1.2700 
G00 X44.4500 Y-46.9900 
G01 Z-1.7000 F50.00 
G00 Z1.2700 
G00 X49.5300 Y-49.5300 
G01 Z-1.7000 F50.00 
G00 Z1.2700 
G00 X50.8000 Y-54.6100 
G01 Z-1.7000 F50.00 
G00 Z1.2700 
G00 X54.6100 Y-52.0700 
G01 Z-1.7000 F50.00 
G00 Z1.2700 
G00 X62.2300 Y-50.8000 
G01 Z-1.7000 F50.00 
G00 Z1.2700 
G00 X69.8500 Y-50.8000 
G01 Z-1.7000 F50.00 
G00 Z1.2700 
G00 X69.8500 Y-48.2600 
G01 Z-1.7000 F50.00 
G00 Z1.2700 
G00 X72.3900 Y-60.9600 
G01 Z-1.7000 F50.00 
G00 Z1.2700 
G00 X67.3100 Y-65.4050 
G01 Z-1.7000 F50.00 
G00 Z1.2700 
G00 X59.6900 Y-63.5000 
G01 Z-1.7000 F50.00 
G00 Z1.2700 
G00 X54.6100 Y-72.3900 
G01 Z-1.7000 F50.00 
G00 Z1.2700 
(Tool Change Begin)
(Bottom Tool Change Begin)
M05
G00 Z10.0000 
G00 X0.0000 Y0.0000 
M06 T02  ; 0.8128 
(Bottom Tool changed)
(Tool changed)
(Tool zero begin)
(Bottom Tool zero begin)
G01 Z0.0000 F50.00 
M06 
(Bottom Tool zero end)
(Tool zero end)
G00 Z1.2700 
M03
G04 P3.000000
(Bottom Tool Change End)
(Tool Change End)
G00 X38.1000 Y-24.1300 
G01 Z-1.7000 F50.00 
G00 Z1.2700 
G00 X40.6400 Y-24.1300 
G01 Z-1.7000 F50.00 
G00 Z1.2700 
G00 X43.1800 Y-24.1300 
G01 Z-1.7000 F50.00 
G00 Z1.2700 
G00 X48.2600 Y-21.5900 
G01 Z-1.7000 F50.00 
G00 Z1.2700 
G00 X48.2600 Y-19.0500 
G01 Z-1.7000 F50.00 
G00 Z1.2700 
G00 X48.2600 Y-16.5100 
G01 Z-1.7000 F50.00 
G00 Z1.2700 
G00 X62.2300 Y-39.3700 
G01 Z-1.7000 F50.00 
G00 Z1.2700 
G00 X62.2300 Y-46.9900 
G01 Z-1.7000 F50.00 
G00 Z1.2700 
G00 X69.8500 Y-60.9600 
G01 Z-1.7000 F50.00 
G00 Z1.2700 
G00 X69.8500 Y-68.5800 
G01 Z-1.7000 F50.00 
G00 Z1.2700 
(Tool Change Begin)
(Bottom Tool Change Begin)
M05
G00 Z10.0000 
G00 X0.0000 Y0.0000 
M06 T03  ; 1.0000 
(Bottom Tool changed)
(Tool changed)
(Tool zero begin)
(Bottom Tool zero begin)
G01 Z0.0000 F50.00 
M06 
(Bottom Tool zero end)
(Tool zero end)
G00 Z1.2700 
M03
G04 P3.000000
(Bottom Tool Change End)
(Tool Change End)
G00 X57.4675 Y-35.5600 
G01 Z-1.7000 F50.00 
G00 Z1.2700 
G00 X57.4675 Y-38.1000 
G01 Z-1.7000 F50.00 
G00 Z1.2700 
G00 X57.4675 Y-40.6400 
G01 Z-1.7000 F50.00 
G00 Z1.2700 
G00 X57.4675 Y-43.1800 
G01 Z-1.7000 F50.00 
G00 Z1.2700 
G00 X57.4675 Y-45.7200 
G01 Z-1.7000 F50.00 
G00 Z1.2700 
G00 X57.4675 Y-48.2600 
G01 Z-1.7000 F50.00 
G00 Z1.2700 
G00 X57.4675 Y-50.8000 
G01 Z-1.7000 F50.00 
G00 Z1.2700 
G00 X57.4675 Y-53.3400 
G01 Z-1.7000 F50.00 
G00 Z1.2700 
G00 X57.4675 Y-55.8800 
G01 Z-1.7000 F50.00 
G00 Z1.2700 
G00 X57.4675 Y-58.4200 
G01 Z-1.7000 F50.00 
G00 Z1.2700 
(Tool Change Begin)
(Bottom Tool Change Begin)
M05
G00 Z10.0000 
G00 X0.0000 Y0.0000 
M06 T04  ; 1.0160 
(Bottom Tool changed)
(Tool changed)
(Tool zero begin)
(Bottom Tool zero begin)
G01 Z0.0000 F50.00 
M06 
(Bottom Tool zero end)
(Tool zero end)
G00 Z1.2700 
M03
G04 P3.000000
(Bottom Tool Change End)
(Tool Change End)
G00 X12.6890 Y-10.1270 
G01 Z-1.7000 F50.00 
G00 Z1.2700 
G00 X12.6890 Y-12.6670 
G01 Z-1.7000 F50.00 
G00 Z1.2700 
G00 X15.2290 Y-12.6670 
G01 Z-1.7000 F50.00 
G00 Z1.2700 
G00 X15.2290 Y-10.1270 
G01 Z-1.7000 F50.00 
G00 Z1.2700 
G00 X15.2290 Y-15.2070 
G01 Z-1.7000 F50.00 
G00 Z1.2700 
G00 X12.6890 Y-15.2070 
G01 Z-1.7000 F50.00 
G00 Z1.2700 
G00 X12.6890 Y-17.7470 
G01 Z-1.7000 F50.00 
G00 Z1.2700 
G00 X12.6890 Y-20.2870 
G01 Z-1.7000 F50.00 
G00 Z1.2700 
G00 X15.2290 Y-20.2870 
G01 Z-1.7000 F50.00 
G00 Z1.2700 
G00 X15.2290 Y-17.7470 
G01 Z-1.7000 F50.00 
G00 Z1.2700 
G00 X15.2290 Y-22.8270 
G01 Z-1.7000 F50.00 
G00 Z1.2700 
G00 X12.6890 Y-22.8270 
G01 Z-1.7000 F50.00 
G00 Z1.2700 
G00 X12.6890 Y-25.3670 
G01 Z-1.7000 F50.00 
G00 Z1.2700 
G00 X12.6890 Y-27.9070 
G01 Z-1.7000 F50.00 
G00 Z1.2700 
G00 X12.6890 Y-30.4470 
G01 Z-1.7000 F50.00 
G00 Z1.2700 
G00 X15.2290 Y-30.4470 
G01 Z-1.7000 F50.00 
G00 Z1.2700 
G00 X15.2290 Y-27.9070 
G01 Z-1.7000 F50.00 
G00 Z1.2700 
G00 X15.2290 Y-25.3670 
G01 Z-1.7000 F50.00 
G00 Z1.2700 
G00 X15.2290 Y-32.9870 
G01 Z-1.7000 F50.00 
G00 Z1.2700 
G00 X12.6890 Y-32.9870 
G01 Z-1.7000 F50.00 
G00 Z1.2700 
G00 X12.6890 Y-35.5270 
G01 Z-1.7000 F50.00 
G00 Z1.2700 
G00 X12.6890 Y-38.0670 
G01 Z-1.7000 F50.00 
G00 Z1.2700 
G00 X12.6890 Y-40.6070 
G01 Z-1.7000 F50.00 
G00 Z1.2700 
G00 X12.6890 Y-43.1470 
G01 Z-1.7000 F50.00 
G00 Z1.2700 
G00 X12.6890 Y-45.6870 
G01 Z-1.7000 F50.00 
G00 Z1.2700 
G00 X12.6890 Y-48.2270 
G01 Z-1.7000 F50.00 
G00 Z1.2700 
G00 X15.2290 Y-48.2270 
G01 Z-1.7000 F50.00 
G00 Z1.2700 
G00 X15.2290 Y-45.6870 
G01 Z-1.7000 F50.00 
G00 Z1.2700 
G00 X15.2290 Y-43.1470 
G01 Z-1.7000 F50.00 
G00 Z1.2700 
G00 X15.2290 Y-40.6070 
G01 Z-1.7000 F50.00 
G00 Z1.2700 
G00 X15.2290 Y-38.0670 
G01 Z-1.7000 F50.00 
G00 Z1.2700 
G00 X15.2290 Y-35.5270 
G01 Z-1.7000 F50.00 
G00 Z1.2700 
G00 X15.2290 Y-50.7670 
G01 Z-1.7000 F50.00 
G00 Z1.2700 
G00 X12.6890 Y-50.7670 
G01 Z-1.7000 F50.00 
G00 Z1.2700 
G00 X12.6890 Y-53.3070 
G01 Z-1.7000 F50.00 
G00 Z1.2700 
G00 X12.6890 Y-55.8470 
G01 Z-1.7000 F50.00 
G00 Z1.2700 
G00 X12.6890 Y-58.3870 
G01 Z-1.7000 F50.00 
G00 Z1.2700 
G00 X15.2290 Y-58.3870 
G01 Z-1.7000 F50.00 
G00 Z1.2700 
G00 X15.2290 Y-55.8470 
G01 Z-1.7000 F50.00 
G00 Z1.2700 
G00 X15.2290 Y-53.3070 
G01 Z-1.7000 F50.00 
G00 Z1.2700 
G00 X31.7500 Y-53.3400 
G01 Z-1.7000 F50.00 
G00 Z1.2700 
G00 X31.7500 Y-50.8000 
G01 Z-1.7000 F50.00 
G00 Z1.2700 
G00 X31.7500 Y-48.2600 
G01 Z-1.7000 F50.00 
G00 Z1.2700 
G00 X31.7500 Y-45.7200 
G01 Z-1.7000 F50.00 
G00 Z1.2700 
G00 X31.7500 Y-43.1800 
G01 Z-1.7000 F50.00 
G00 Z1.2700 
G00 X31.7500 Y-40.6400 
G01 Z-1.7000 F50.00 
G00 Z1.2700 
G00 X44.4500 Y-40.6400 
G01 Z-1.7000 F50.00 
G00 Z1.2700 
G00 X44.4500 Y-38.1000 
G01 Z-1.7000 F50.00 
G00 Z1.2700 
G00 X44.4500 Y-35.5600 
G01 Z-1.7000 F50.00 
G00 Z1.2700 
G00 X46.9900 Y-35.5600 
G01 Z-1.7000 F50.00 
G00 Z1.2700 
G00 X46.9900 Y-38.1000 
G01 Z-1.7000 F50.00 
G00 Z1.2700 
G00 X46.9900 Y-40.6400 
G01 Z-1.7000 F50.00 
G00 Z1.2700 
G00 X54.6100 Y-29.2100 
G01 Z-1.7000 F50.00 
G00 Z1.2700 
G00 X57.1500 Y-29.2100 
G01 Z-1.7000 F50.00 
G00 Z1.2700 
G00 X50.8000 Y-72.3900 
G01 Z-1.7000 F50.00 
G00 Z1.2700 
G00 X48.2600 Y-72.3900 
G01 Z-1.7000 F50.00 
G00 Z1.2700 
G00 X45.7200 Y-72.3900 
G01 Z-1.7000 F50.00 
G00 Z1.2700 
(Tool Change Begin)
(Bottom Tool Change Begin)
M05
G00 Z10.0000 
G00 X0.0000 Y0.0000 
M06 T05  ; 1.6000 
(Bottom Tool changed)
(Tool changed)
(Tool zero begin)
(Bottom Tool zero begin)
G01 Z0.0000 F50.00 
M06 
(Bottom Tool zero end)
(Tool zero end)
G00 Z1.2700 
M03
G04 P3.000000
(Bottom Tool Change End)
(Tool Change End)
G00 X22.8600 Y-72.3900 
G01 Z-1.7000 F50.00 
G00 Z1.2700 
G00 X27.9400 Y-72.3900 
G01 Z-1.7000 F50.00 
G00 Z1.2700 
G00 X33.0200 Y-72.3900 
G01 Z-1.7000 F50.00 
G00 Z1.2700 
G00 X69.8500 Y-43.1800 
G01 Z-1.7000 F50.00 
G00 Z1.2700 
G00 X69.8500 Y-38.1000 
G01 Z-1.7000 F50.00 
G00 Z1.2700 
G00 X69.8500 Y-33.0200 
G01 Z-1.7000 F50.00 
G00 Z1.2700 
G00 X69.8500 Y-27.9400 
G01 Z-1.7000 F50.00 
G00 Z1.2700 
G00 X69.8500 Y-22.8600 
G01 Z-1.7000 F50.00 
G00 Z1.2700 
G00 X69.8500 Y-17.7800 
G01 Z-1.7000 F50.00 
G00 Z1.2700 
G00 X69.8500 Y-12.7000 
G01 Z-1.7000 F50.00 
G00 Z1.2700 
G00 X64.7700 Y-5.0800 
G01 Z-1.7000 F50.00 
G00 Z1.2700 
G00 X59.6900 Y-5.0800 
G01 Z-1.7000 F50.00 
G00 Z1.2700 
G00 X54.6100 Y-5.0800 
G01 Z-1.7000 F50.00 
G00 Z1.2700 
G00 X49.5300 Y-5.0800 
G01 Z-1.7000 F50.00 
G00 Z1.2700 
G00 X44.4500 Y-5.0800 
G01 Z-1.7000 F50.00 
G00 Z1.2700 
G00 X39.3700 Y-5.0800 
G01 Z-1.7000 F50.00 
G00 Z1.2700 
G00 X34.2900 Y-5.0800 
G01 Z-1.7000 F50.00 
G00 Z1.2700 
G00 X29.2100 Y-5.0800 
G01 Z-1.7000 F50.00 
G00 Z1.2700 
G00 X24.1300 Y-5.0800 
G01 Z-1.7000 F50.00 
G00 Z1.2700 
(Tool Change Begin)
(Bottom Tool Change Begin)
M05
G00 Z10.0000 
G00 X0.0000 Y0.0000 
M06 T06  ; 2.5000 
(Bottom Tool changed)
(Tool changed)
(Tool zero begin)
(Bottom Tool zero begin)
G01 Z0.0000 F50.00 
M06 
(Bottom Tool zero end)
(Tool zero end)
G00 Z1.2700 
M03
G04 P3.000000
(Bottom Tool Change End)
(Tool Change End)
G00 X52.3875 Y-36.8300 
G01 Z-1.7000 F50.00 
G00 Z1.2700 
G00 X52.3875 Y-57.1500 
G01 Z-1.7000 F50.00 
G00 Z1.2700 
(Tool Change Begin)
(Bottom Tool Change Begin)
M05
G00 Z10.0000 
G00 X0.0000 Y0.0000 
M06 T07  ; 3.0000 
(Bottom Tool changed)
(Tool changed)
(Tool zero begin)
(Bottom Tool zero begin)
G01 Z0.0000 F50.00 
M06 
(Bottom Tool zero end)
(Tool zero end)
G00 Z1.2700 
M03
G04 P3.000000
(Bottom Tool Change End)
(Tool Change End)
G00 X3.8100 Y-3.8100 
G01 Z-1.7000 F50.00 
G00 Z1.2700 
G00 X71.1200 Y-3.8100 
G01 Z-1.7000 F50.00 
G00 Z1.2700 
G00 X71.1200 Y-73.6600 
G01 Z-1.7000 F50.00 
G00 Z1.2700 
G00 X3.8100 Y-73.6600 
G01 Z-1.7000 F50.00 
G00 Z1.2700 
(Bottom Drill End)
(End of all Drill Files)
(End of every bottom file)
(End of every file)
T01 
G00 Z12.7000 
M05
M02
